/* XPM */
static char * backroom_walls_xpm[] = {
"64 64 98 2",
"  	c #C0BF98",
". 	c #B8B782",
"+ 	c #B8B681",
"@ 	c #B7B681",
"# 	c #B6B481",
"$ 	c #B6B581",
"% 	c #B8B680",
"& 	c #C7C6A5",
"* 	c #B4B264",
"= 	c #B5B362",
"- 	c #B2B061",
"; 	c #AAA860",
"> 	c #ABA960",
", 	c #B4B262",
"' 	c #B3B161",
") 	c #AAA85F",
"! 	c #B1AF61",
"~ 	c #ABA95F",
"{ 	c #B4B261",
"] 	c #B3B162",
"^ 	c #B2B060",
"/ 	c #C1BF95",
"( 	c #B6B461",
"_ 	c #ACAA5F",
": 	c #B4B260",
"< 	c #AAA85E",
"[ 	c #B3B160",
"} 	c #ABA95E",
"| 	c #ACAA5E",
"1 	c #C0BF94",
"2 	c #B0AE60",
"3 	c #ADAB5F",
"4 	c #A8A65E",
"5 	c #A9A75E",
"6 	c #B1AF60",
"7 	c #AFAD60",
"8 	c #AFAD5F",
"9 	c #AEAC5F",
"0 	c #ABAA5F",
"a 	c #B5B361",
"b 	c #B0AE5F",
"c 	c #AEAC60",
"d 	c #B5B360",
"e 	c #B8B682",
"f 	c #B4B362",
"g 	c #ADAB60",
"h 	c #B7B561",
"i 	c #B6B561",
"j 	c #AAA95F",
"k 	c #B4B361",
"l 	c #B2B160",
"m 	c #B2B161",
"n 	c #B6B47F",
"o 	c #AFAC5D",
"p 	c #AAA75B",
"q 	c #A7A45A",
"r 	c #ACA95B",
"s 	c #AEAB5B",
"t 	c #A9A65A",
"u 	c #B0AD5C",
"v 	c #B2AF5C",
"w 	c #AFAD5C",
"x 	c #A9A65B",
"y 	c #AEAB5C",
"z 	c #ABA85B",
"A 	c #AFAC5C",
"B 	c #A8A55A",
"C 	c #A8A65B",
"D 	c #ADAA5C",
"E 	c #ADAB5B",
"F 	c #A9A75B",
"G 	c #BFBD92",
"H 	c #B0AB77",
"I 	c #A39E4F",
"J 	c #A09B4C",
"K 	c #A19A4C",
"L 	c #A09A4C",
"M 	c #A19B4C",
"N 	c #A29C4D",
"O 	c #A19B4D",
"P 	c #A39D4D",
"Q 	c #A49E4D",
"R 	c #A49D4D",
"S 	c #A39E4D",
"T 	c #A39C4D",
"U 	c #B9B68C",
"V 	c #A9A371",
"W 	c #999141",
"X 	c #98913F",
"Y 	c #98903F",
"Z 	c #B4AE87",
"` 	c #A7A16F",
" .	c #968E3C",
"..	c #B2AD85",
"+.	c #BEB99B",
"@.	c #B3AE87",
"#.	c #B2AD86",
"$.	c #C5C2A8",
"  . + + + + @ # $ + + + + + + $ $ + + + + + + # # + + + + + @ $ $ @ + + + + + $ $ + + + + + + # # + + + + + @ $ $ @ + + + + % & ",
". * = = = = - ; > - , - - , - ; > ' = = = = - ) ) - , - - , ! ; ~ - = = = = - > ) - { ' - , ] ) ; - = = = = - > ; ! , - - , ^ / ",
"+ = ( ( ( ( ^ ) ~ ^ ^ _ _ - ^ ) ~ : ( ( ( ( { < < [ ^ ~ _ [ ^ ~ } [ ( ( ( ( [ ~ } [ ^ | } ^ ' < ~ { ( ( ( ( [ ~ ~ ^ ^ _ _ ^ [ 1 ",
"+ = ( ( ( ( ^ ) _ 2 3 4 4 3 2 ) ~ : ( ( ( ( { < < ^ ~ 4 5 3 2 ~ } [ ( ( ( ( [ ~ } ^ } 5 5 | ^ < ~ { ( ( ( ( [ ~ ~ 2 3 4 4 _ 6 1 ",
"+ = ( ( ( ( ^ ) _ 2 _ < < 3 7 ) ~ : ( ( ( ( { < < 6 } ~ ~ _ 2 ~ } [ ( ( ( ( [ ~ } 6 } ~ ~ } ^ < ~ { ( ( ( ( [ ~ ~ 7 _ < ) _ 2 1 ",
"+ = ( ( ( ( ^ ) _ 6 2 7 8 8 2 ) ~ : ( ( ( ( { < < ^ 9 2 7 7 6 ~ } [ ( ( ( ( [ ~ } ^ 9 2 2 9 [ < ~ { ( ( ( ( [ ~ ~ 2 2 7 8 8 ^ 1 ",
"+ = ( ( ( ( ^ ) ~ ^ 6 8 8 ^ 6 ) ~ : ( ( ( ( { < < ' 6 8 8 6 ^ ~ } [ ( ( ( ( [ ~ } ^ 6 9 9 2 ' < ~ { ( ( ( ( [ ~ ~ ^ 6 9 8 6 ^ 1 ",
"+ = ( ( ( ( ^ ) 0 6 ^ [ ^ ^ 6 ) ~ : ( ( ( ( { < < ' 6 ^ ^ ^ 6 ~ } [ ( ( ( ( [ ~ } ^ 2 ^ [ 2 ' < ~ { ( ( ( ( [ ~ ~ 6 ^ ^ ^ 6 - 1 ",
"+ = ( ( ( ( ^ ) 0 ^ a ( a a ^ ) ~ : ( ( ( ( { < < { { ( a { ^ ~ } [ ( ( ( ( [ ~ } [ { ( ( : ' < ~ { ( ( ( ( [ ~ ~ ^ a a a { ' 1 ",
"+ = a ' [ a ^ ) ~ [ ( ( ( ( ^ ) ~ : a [ ' ( { < < { ( ( ( ( [ ~ } [ a [ ' ( [ ~ } : ( ( ( ( { < ~ { a ' [ ( [ ~ ~ [ ( ( ( ( { 1 ",
"+ , 6 _ 3 ^ ^ ) ~ [ ( ( ( ( ^ ) ~ [ 6 _ 3 ^ ' < < { ( ( ( ( [ ~ } ^ ^ _ _ ^ ^ ~ } : ( ( ( ( { < ~ ' ^ _ 3 ^ ^ ~ ~ [ ( ( ( ( ' 1 ",
"+ - _ 4 5 3 2 ) ~ [ ( ( ( ( ^ ) ~ 6 _ 4 4 3 ^ < < { ( ( ( ( [ ~ ~ 2 3 4 4 3 6 ~ } : ( ( ( ( { < ~ ^ 3 4 4 3 2 ~ ~ [ ( ( ( ( ' 1 ",
"+ ! < _ ~ _ 2 ) ~ [ ( ( ( ( ^ ) ~ 6 ~ _ _ } ^ < < { ( ( ( ( [ ~ ~ 7 _ ~ ~ _ 2 ~ } : ( ( ( ( { < ~ 6 } ~ ~ _ 7 ~ ~ [ ( ( ( ( ' 1 ",
"+ - 9 8 9 8 6 ) ~ [ ( ( ( ( ^ ) ~ ^ 9 7 8 9 ' < < { ( ( ( ( [ ~ ~ 2 b 8 c 7 6 ~ } : ( ( ( ( { < ~ ^ 8 8 8 b 2 ~ ~ [ ( ( ( ( ' 1 ",
"+ ] 2 8 8 6 6 ) ~ [ ( ( ( ( ^ ) ~ ^ 2 8 8 6 ' < < { ( ( ( ( [ ~ ~ 6 6 8 8 6 ^ ~ } : ( ( ( ( { < ~ ' 6 8 8 6 6 ~ ~ [ ( ( ( ( ' 1 ",
"+ ] 2 [ ^ 6 6 ) ~ [ ( ( ( ( ^ ) ~ ^ 2 [ [ 2 ' < < { ( ( ( ( [ ~ ~ 6 6 ^ ^ 6 6 ~ } : ( ( ( ( { < ~ - 6 ^ ^ 6 6 ~ ~ [ ( ( ( ( ' 1 ",
"+ , : ( a d ^ ) ~ [ ( ( ( ( ^ ) ~ [ : ( ( : ' < < { ( ( ( ( [ ~ } ^ a a a a [ ~ } : ( ( ( ( { < ~ ' { a ( a ^ ~ ~ [ ( ( ( ( ' 1 ",
"+ = ( ( ( ( ^ ) ~ [ a : : ( ^ ) ~ : ( ( ( ( { < < { a { { ( [ ~ } [ ( ( ( ( [ ~ } : a { { a { < ~ { ( ( ( ( [ ~ ~ [ a : : a ' 1 ",
"+ = ( ( ( ( ^ ) ~ [ ^ _ 3 [ ^ ) ~ : ( ( ( ( { < < : ^ _ _ ^ ^ ~ } [ ( ( ( ( [ ~ } [ ^ _ ~ ^ ' < ~ { ( ( ( ( [ ~ ~ ^ ^ | | ^ [ 1 ",
"+ = ( ( ( ( ^ ) _ 2 3 4 4 3 2 ) ~ : ( ( ( ( { < < ^ | 4 4 3 2 ~ } [ ( ( ( ( [ ~ } ^ _ 4 4 ~ ^ < ~ { ( ( ( ( [ ~ ~ 2 3 5 4 _ 6 1 ",
"+ = ( ( ( ( ^ ) _ 2 _ < < 3 2 ) ~ : ( ( ( ( { < < 6 ~ < < _ 2 ~ } [ ( ( ( ( [ ~ } 6 } < < < ^ < ~ { ( ( ( ( [ ~ ~ 7 _ < < _ 6 1 ",
"+ = ( ( ( ( ^ ) _ 2 8 6 2 7 2 ) ~ : ( ( ( ( { < < ^ 9 6 2 8 2 ~ } [ ( ( ( ( [ ~ } ^ 9 6 6 3 ^ < ~ { ( ( ( ( [ ~ ~ 2 8 2 2 9 6 1 ",
"+ = ( ( ( ( ^ ) ~ ^ ^ 3 9 ^ ^ ) ~ : ( ( ( ( { < < [ ^ 3 3 ^ ^ ~ } [ ( ( ( ( [ ~ } [ ^ 3 3 ^ ' < ~ { ( ( ( ( [ ~ ~ ^ ^ 3 3 ^ [ 1 ",
"+ = ( ( ( ( ^ ) _ 6 6 [ ^ 6 2 ) ~ : ( ( ( ( { < < ^ 8 [ ^ 6 6 ~ } [ ( ( ( ( [ ~ } ^ 7 ' { 7 ' < ~ { ( ( ( ( [ ~ ~ 6 6 [ [ 2 ^ 1 ",
"+ = ( ( ( ( ^ ) ~ [ a ( ( a ^ ) ~ : ( ( ( ( { < < : a ( ( a [ ~ } [ ( ( ( ( [ ~ } : a ( ( a ' < ~ { ( ( ( ( [ ~ ~ [ a ( ( a [ 1 ",
"+ = ( : { a ^ ) ~ [ ( ( ( ( ^ ) ~ : a { : ( { < < { ( ( ( ( [ ~ } [ ( { : a [ ~ } : ( ( ( ( { < ~ { a : { a [ ~ ~ [ ( ( ( ( ' 1 ",
"+ , ^ ~ _ ' ^ ) ~ [ ( ( ( ( ^ ) ~ [ ^ _ _ ^ ' < < { ( ( ( ( [ ~ ~ ^ ^ _ _ ^ [ ~ } : ( ( ( ( { < ~ ' ^ _ _ ^ ^ ~ ~ [ ( ( ( ( ' 1 ",
"+ - ~ 4 5 3 2 ) ~ [ ( ( ( ( ^ ) ~ 6 _ 4 5 _ - < < { ( ( ( ( [ ~ ~ 2 3 4 4 3 6 ~ } : ( ( ( ( { < ~ ^ _ 4 4 3 2 ~ ~ [ ( ( ( ( ' 1 ",
"+ ! < ~ ~ _ 2 ) ~ [ ( ( ( ( ^ ) ~ 6 ~ ~ ~ < - < < { ( ( ( ( [ ~ ~ 7 | < < _ 2 ~ } : ( ( ( ( { < ~ 6 ~ } ~ _ 7 ~ ~ [ ( ( ( ( ' 1 ",
"+ - 9 7 7 7 2 ) ~ [ ( ( ( ( ^ ) ~ ^ 9 2 7 9 - < < { ( ( ( ( [ ~ ~ 2 7 7 8 8 6 ~ } : ( ( ( ( { < ~ ^ 9 8 7 7 2 ~ ~ [ ( ( ( ( ' 1 ",
"+ ] 2 8 8 6 6 ) ~ [ ( ( ( ( ^ ) ~ [ 6 8 8 2 ' < < { ( ( ( ( [ ~ ~ ^ 6 8 8 ^ ^ ~ } : ( ( ( ( { < ~ ' 6 8 8 6 6 ~ ~ [ ( ( ( ( ' 1 ",
"+ ] 6 ^ ^ ^ 6 ) ~ [ ( ( ( ( ^ ) ~ ^ 6 ^ ^ 2 ' < < { ( ( ( ( [ ~ } 6 ^ ^ ^ ^ ^ ~ } : ( ( ( ( { < ~ - 6 ^ ^ 6 6 ~ ~ [ ( ( ( ( ' 1 ",
"+ , { ( a { ^ ) ~ [ ( ( ( ( ^ ) ~ [ { ( ( ' ' < < { ( ( ( ( [ ~ } ^ a ( ( { ^ ~ } : ( ( ( ( { < ~ ' { a a { ^ ~ ~ [ ( ( ( ( ' 1 ",
"+ = ( ( ( ( ^ ) ~ [ a [ [ a ^ ) ~ : ( ( ( ( { < < { ( [ [ a [ ~ } [ ( ( ( ( [ ~ } : ( ' ' ( { < ~ { ( ( ( ( [ ~ ~ ' ( [ [ a { 1 ",
"+ = ( ( ( ( ^ ) ~ [ ^ _ 3 ^ ^ ) ~ : ( ( ( ( { < < ' ^ 3 3 ^ ^ ~ } [ ( ( ( ( [ ~ } [ ^ _ _ ^ ' < ~ { ( ( ( ( [ ~ ~ ^ ^ 3 3 ^ ' 1 ",
"+ = ( ( ( ( ^ ) _ 6 3 4 4 9 6 ) ~ : ( ( ( ( { < < ^ _ 4 5 3 6 ~ } [ ( ( ( ( [ ~ } ^ _ 4 4 _ ^ < ~ { ( ( ( ( [ ~ ~ 2 3 4 4 3 6 1 ",
"+ = ( ( ( ( ^ ) _ 2 _ ~ ) _ 2 ) ~ : ( ( ( ( { < < 6 } ~ ~ _ 2 ~ } [ ( ( ( ( [ ~ } 6 < ~ ~ < ^ < ~ { ( ( ( ( [ ~ ~ 7 _ ~ ~ _ 2 1 ",
"+ = ( ( ( ( ^ ) _ 2 7 8 c 7 2 ) ~ : ( ( ( ( { < < ^ 9 8 8 8 6 ~ } [ ( ( ( ( [ ~ } ^ 9 7 7 9 [ < ~ { ( ( ( ( [ ~ ~ 2 8 8 7 7 6 1 ",
"+ = ( ( ( ( ^ ) _ ^ 6 9 8 ^ 6 ) ~ : ( ( ( ( { < < ' 6 9 9 ^ ^ ~ } [ ( ( ( ( [ ~ } [ 6 8 8 6 ' < ~ { ( ( ( ( [ ~ ~ 6 6 8 9 6 ^ 1 ",
"+ = ( ( ( ( ^ ) _ 6 6 ^ ^ 6 6 ) ~ : ( ( ( ( { < < [ 2 ^ ^ 6 6 ~ } [ ( ( ( ( [ ~ } ^ b [ [ b ' < ~ { ( ( ( ( [ ~ ~ 6 6 ^ ^ 6 ^ 1 ",
"+ = ( ( ( ( ^ ) ~ ^ a ( a a ^ ) ~ : ( ( ( ( { < < { d ( a a ^ ~ } [ ( ( ( ( [ ~ } [ d ( ( d ' < ~ { ( ( ( ( [ ~ ~ ^ a a a a ' 1 ",
"+ = a { { ( ^ ) ~ [ ( ( ( ( ^ ) ~ : a { { ( { < < { ( ( ( ( [ ~ } [ ( { { ( [ ~ } : ( ( ( ( { < ~ { ( { { ( [ ~ ~ [ ( ( ( ( ' 1 ",
"+ { ^ } _ [ ^ ) ~ [ ( ( ( ( ^ ) ~ [ ^ _ _ ' { < < { ( ( ( ( [ ~ ~ [ ^ | 3 [ [ ~ } : ( ( ( ( { < ~ [ [ _ _ ^ ^ ~ ~ [ ( ( ( ( ' 1 ",
"+ - } 5 4 3 2 ) ~ [ ( ( ( ( ^ ) ~ 6 _ 4 5 _ - < < { ( ( ( ( [ ~ ~ 2 3 4 4 3 6 ~ } : ( ( ( ( { < ~ 6 _ 4 4 3 2 ~ ~ [ ( ( ( ( ' 1 ",
"+ - < < < _ 2 ) ~ [ ( ( ( ( ^ ) ~ 6 ~ < < ~ - < < { ( ( ( ( [ ~ ~ 7 _ 5 5 _ 2 ~ } : ( ( ( ( { < ~ 6 ~ 5 5 _ 7 ~ ~ [ ( ( ( ( ' 1 ",
"+ ' 3 6 2 8 2 ) ~ [ ( ( ( ( ^ ) ~ 6 9 6 6 3 - < < { ( ( ( ( [ ~ ~ 2 7 2 2 8 6 ~ } : ( ( ( ( { < ~ 6 9 2 2 8 2 ~ ~ [ ( ( ( ( ' 1 ",
"+ , 6 3 9 ^ ^ ) ~ [ ( ( ( ( ^ ) ~ [ ^ 3 3 ^ { < < { ( ( ( ( [ ~ ~ ^ ^ 3 9 ^ [ ~ } : ( ( ( ( { < ~ [ 6 3 3 ^ ^ ~ ~ [ ( ( ( ( ' 1 ",
"+ ] 7 [ [ b 6 ) ~ [ ( ( ( ( ^ ) ~ ^ 7 ' [ 7 ' < < { ( ( ( ( [ ~ ~ 2 6 ^ ^ 2 6 ~ } : ( ( ( ( { < ~ ^ b [ [ 6 2 ~ ~ [ ( ( ( ( ' 1 ",
"+ , a ( ( a ^ ) ~ [ ( ( ( ( ^ ) ~ [ a ( ( a { < < { ( ( ( ( [ ~ ~ ^ a ( a a [ ~ } : ( ( ( ( { < ~ [ a ( ( a ^ ~ ~ [ ( ( ( ( ' 1 ",
"+ = ( ( ( ( ^ ) ~ [ a { { ( ^ ) ~ : ( ( ( ( { < < { a : { ( [ ~ } [ ( ( ( ( [ ~ } : ( : : ( { < ~ { ( ( ( ( [ ~ ~ [ a { : a ' 1 ",
"+ = ( ( ( ( ^ ) ~ [ ^ 3 3 ^ ^ ) ~ : ( ( ( ( { < < ' ^ _ 3 - ^ ~ } [ ( ( ( ( [ ~ } [ [ _ _ ^ ' < ~ { ( ( ( ( [ ~ ~ - ^ 3 3 ^ ' 1 ",
"+ = ( ( ( ( ^ ) _ 6 3 4 4 9 6 ) ~ : ( ( ( ( { < < ^ _ 4 4 3 6 ~ } [ ( ( ( ( [ ~ } ^ _ 4 4 _ ^ < ~ { ( ( ( ( [ ~ ~ 2 3 4 4 3 ^ 1 ",
"+ = ( ( ( ( ^ ) _ 7 _ ) < 3 7 ) ~ : ( ( ( ( { < < 6 } } ) _ 2 ~ } [ ( ( ( ( [ ~ } 6 < ~ ~ < ^ < ~ { ( ( ( ( [ ~ ~ 7 _ ) < ~ 6 1 ",
"+ = ( ( ( ( ^ ) _ 2 7 c 9 8 2 ) ~ : ( ( ( ( { < < ^ 9 8 7 7 6 ~ } [ ( ( ( ( [ ~ } ^ 9 7 7 9 [ < ~ { ( ( ( ( [ ~ ~ 2 7 c 8 8 6 1 ",
"+ = ( ( ( ( ^ ) ~ 6 6 8 8 6 6 ) ~ : ( ( ( ( { < < ' 6 8 8 6 6 ~ } [ ( ( ( ( [ ~ } ^ 2 8 8 2 ' < ~ { ( ( ( ( [ ~ ~ 6 6 8 8 6 - 1 ",
"+ = ( ( ( ( ^ ) ~ 6 ^ ^ 6 ^ 6 ) ~ : ( ( ( ( { < < ' 6 ^ ^ 6 6 ~ } [ ( ( ( ( [ ~ } ^ 6 ^ ^ 6 ' < ~ { ( ( ( ( [ ~ ~ 6 ^ ^ 6 6 - 1 ",
"+ = ( ( ( ( ^ ) ~ ^ a ( a : ^ ) ~ : ( ( ( ( { < < ' ' a a { ^ ~ } [ ( ( ( ( [ ~ } [ ' ( ( ' ' < ~ { ( ( ( ( [ ~ ~ ^ : a a { ' 1 ",
"+ = ( [ [ a ^ ) ~ [ ( ( ( ( ^ ) ~ : a ' : ( { < < { ( ( ( ( [ ~ } [ ( : : ( [ ~ } : ( ( ( ( { < ~ { ( [ [ ( [ ~ ~ [ ( ( ( ( { 1 ",
"e f ^ 3 g ' ^ ~ _ { h ( ( i ' j ~ ' - 3 3 [ { ) ~ k ( ( ( h ' ~ _ [ l 3 9 [ ' ~ ~ { ( ( ( ( { j ~ ' - 3 3 [ m 0 0 ' h ( ( ( { 1 ",
"n o p q q r s t p u v v v v w t x y p q q z A B C u v v v v u t x D z q q z y t t u v v v v u t t y z q q z E F x A v v v v u G ",
"H I J K L M N M O P Q Q Q Q P M M N M K K M P M M R Q Q Q Q P M M N M L L M N M M Q Q Q Q Q S M M N M L L M T M M P Q Q Q Q S U ",
"V W X X X Y Y X Y Y Y Y Y Y Y Y X Y Y X X X Y X Y Y Y Y Y Y Y X Y Y X X X X Y Y X Y Y Y Y Y Y X Y Y X X X Y Y X X Y Y Y Y Y Y Z ",
"`  . . . . . . . . . . . . . . . . . . . . . . . . . . . . . . . . . . . . . . . . . . . . . . . . . . . . . . . . . . . . . ...",
"+.@.#.#.#.#.#.#.#.#.#.#.#.#.#.#.#.#.#.#.#.#.#.#.#.#.#.#.#.#.#.#.#.#.#.#.#.#.#.#.#.#.#.#.#.#.#.#.#.#.#.#.#.#.#.#.#.#.#.#.#.#...$."};
