/* XPM */
static char * cigarre_xpm[] = {
"254 347 10019 3",
"   	c None",
".  	c #A5A5A5",
"+  	c #494748",
"@  	c #3A3937",
"#  	c #373634",
"$  	c #8C8C93",
"%  	c #8F9095",
"&  	c #7E7D83",
"*  	c #5E5C61",
"=  	c #57555A",
"-  	c #5D5B5E",
";  	c #4F4D4E",
">  	c #454442",
",  	c #3E3A37",
"'  	c #2A2722",
")  	c #74757A",
"!  	c #898A8F",
"~  	c #89888D",
"{  	c #828085",
"]  	c #666467",
"^  	c #504E51",
"/  	c #383637",
"(  	c #333230",
"_  	c #5B5754",
":  	c #63605B",
"<  	c #34312A",
"[  	c #7B7C81",
"}  	c #86858A",
"|  	c #868688",
"1  	c #838184",
"2  	c #8F8D90",
"3  	c #666263",
"4  	c #807C7D",
"5  	c #504C4B",
"6  	c #44403D",
"7  	c #47423E",
"8  	c #36312B",
"9  	c #95979A",
"0  	c #959499",
"a  	c #878588",
"b  	c #827E7F",
"c  	c #8B8786",
"d  	c #928E8D",
"e  	c #6E6A69",
"f  	c #625C5C",
"g  	c #524D4A",
"h  	c #504B47",
"i  	c #35302A",
"j  	c #A8A197",
"k  	c #80776E",
"l  	c #2D241B",
"m  	c #92908E",
"n  	c #6A6D74",
"o  	c #85868A",
"p  	c #89898B",
"q  	c #938F90",
"r  	c #7F7B7A",
"s  	c #77726F",
"t  	c #696461",
"u  	c #736E6A",
"v  	c #C8C0BD",
"w  	c #9B948E",
"x  	c #312A22",
"y  	c #9F9E9D",
"z  	c #322A1F",
"A  	c #989085",
"B  	c #FAF2E7",
"C  	c #FFF6EC",
"D  	c #A59B91",
"E  	c #4E443A",
"F  	c #2F251B",
"G  	c #B9B0A7",
"H  	c #49463F",
"I  	c #5E5E5D",
"J  	c #7F7F7E",
"K  	c #7D7D7C",
"L  	c #909196",
"M  	c #A4A4A6",
"N  	c #858384",
"O  	c #8E8888",
"P  	c #98908E",
"Q  	c #8F8784",
"R  	c #6E6560",
"S  	c #423934",
"T  	c #5A514C",
"U  	c #AEA5A0",
"V  	c #898079",
"W  	c #352C23",
"X  	c #776F62",
"Y  	c #C3BBAE",
"Z  	c #FFFCEF",
"`  	c #E9DFD5",
" . 	c #D2C8BE",
".. 	c #988E84",
"+. 	c #897F75",
"@. 	c #8C8278",
"#. 	c #726960",
"$. 	c #58554E",
"%. 	c #4E4D48",
"&. 	c #403F3A",
"*. 	c #80807F",
"=. 	c #2F2E29",
"-. 	c #4F4E4A",
";. 	c #53524E",
">. 	c #7E7F84",
",. 	c #A09FA4",
"'. 	c #989495",
"). 	c #807A7A",
"!. 	c #978F8C",
"~. 	c #978E89",
"{. 	c #867D76",
"]. 	c #615650",
"^. 	c #7E736D",
"/. 	c #4E443B",
"(. 	c #251B12",
"_. 	c #251B11",
":. 	c #2B2115",
"<. 	c #352B1F",
"[. 	c #2C2314",
"}. 	c #3D3425",
"|. 	c #62594A",
"1. 	c #877D71",
"2. 	c #E3D9CD",
"3. 	c #A69E93",
"4. 	c #70685D",
"5. 	c #787065",
"6. 	c #3E372D",
"7. 	c #322F26",
"8. 	c #404038",
"9. 	c #4C4C44",
"0. 	c #505048",
"a. 	c #5D5D55",
"b. 	c #64635E",
"c. 	c #5B5A55",
"d. 	c #676662",
"e. 	c #555450",
"f. 	c #6C6D72",
"g. 	c #908F94",
"h. 	c #868487",
"i. 	c #726C6C",
"j. 	c #827A78",
"k. 	c #968D88",
"l. 	c #675C56",
"m. 	c #5D534A",
"n. 	c #6D6058",
"o. 	c #64574F",
"p. 	c #564940",
"q. 	c #75685F",
"r. 	c #8E8276",
"s. 	c #8D8175",
"t. 	c #A2998A",
"u. 	c #D2C9BA",
"v. 	c #C9C0B1",
"w. 	c #807768",
"x. 	c #0F0600",
"y. 	c #756B5F",
"z. 	c #998F83",
"A. 	c #2D251A",
"B. 	c #292116",
"C. 	c #322B21",
"D. 	c #1D1B0F",
"E. 	c #28281E",
"F. 	c #27271F",
"G. 	c #303028",
"H. 	c #4E4E46",
"I. 	c #6A6A62",
"J. 	c #5D5C57",
"K. 	c #61605B",
"L. 	c #6D6C68",
"M. 	c #5A5955",
"N. 	c #74747C",
"O. 	c #A0A0A2",
"P. 	c #9F9D9E",
"Q. 	c #989390",
"R. 	c #B5ADAA",
"S. 	c #C1B8B1",
"T. 	c #867C73",
"U. 	c #91847C",
"V. 	c #BFB1A8",
"W. 	c #83756C",
"X. 	c #706257",
"Y. 	c #9C8E83",
"Z. 	c #BCAEA1",
"`. 	c #B1A396",
" + 	c #928678",
".+ 	c #6F6355",
"++ 	c #A39787",
"@+ 	c #C2B9AA",
"#+ 	c #2E2516",
"$+ 	c #9F9589",
"%+ 	c #A89E92",
"&+ 	c #3E362B",
"*+ 	c #494136",
"=+ 	c #2E251C",
"-+ 	c #3C352B",
";+ 	c #272519",
">+ 	c #2D2D21",
",+ 	c #26261C",
"'+ 	c #1C1C12",
")+ 	c #57574D",
"!+ 	c #616159",
"~+ 	c #53524D",
"{+ 	c #4C4B46",
"]+ 	c #5F6167",
"^+ 	c #797C83",
"/+ 	c #84848C",
"(+ 	c #6A6B70",
"_+ 	c #97969C",
":+ 	c #99989D",
"<+ 	c #9B999C",
"[+ 	c #BAB6B5",
"}+ 	c #B5ADAB",
"|+ 	c #B8AFAA",
"1+ 	c #998F86",
"2+ 	c #A5988F",
"3+ 	c #BCAFA6",
"4+ 	c #7A6D64",
"5+ 	c #53473B",
"6+ 	c #665A4E",
"7+ 	c #A99D91",
"8+ 	c #A19589",
"9+ 	c #AAA094",
"0+ 	c #B4AB9C",
"a+ 	c #BEB6A9",
"b+ 	c #746C5F",
"c+ 	c #CFC7BC",
"d+ 	c #B5ADA2",
"e+ 	c #8A8277",
"f+ 	c #988F86",
"g+ 	c #50473E",
"h+ 	c #554E44",
"i+ 	c #484439",
"j+ 	c #2F2D21",
"k+ 	c #2D2A21",
"l+ 	c #3E3B32",
"m+ 	c #47443B",
"n+ 	c #737067",
"o+ 	c #78756E",
"p+ 	c #595853",
"q+ 	c #51504B",
"r+ 	c #504F4B",
"s+ 	c #5D5C58",
"t+ 	c #202123",
"u+ 	c #444348",
"v+ 	c #BDBDBD",
"w+ 	c #4D4C4A",
"x+ 	c #929091",
"y+ 	c #787377",
"z+ 	c #8A8589",
"A+ 	c #B5B0B4",
"B+ 	c #898385",
"C+ 	c #7F7677",
"D+ 	c #BDB5B3",
"E+ 	c #B9B0AB",
"F+ 	c #A39A93",
"G+ 	c #B0A79E",
"H+ 	c #F9EFE5",
"I+ 	c #BBB1A7",
"J+ 	c #80766C",
"K+ 	c #BDB3A9",
"L+ 	c #B8AEA4",
"M+ 	c #D7CFC4",
"N+ 	c #8B8579",
"O+ 	c #787167",
"P+ 	c #837F74",
"Q+ 	c #979388",
"R+ 	c #7C786D",
"S+ 	c #6B645A",
"T+ 	c #686157",
"U+ 	c #645D53",
"V+ 	c #635C54",
"W+ 	c #675E57",
"X+ 	c #696057",
"Y+ 	c #797067",
"Z+ 	c #635A51",
"`+ 	c #4C433C",
" @ 	c #2F2820",
".@ 	c #625B55",
"+@ 	c #847F7B",
"@@ 	c #6E6B66",
"#@ 	c #615D5A",
"$@ 	c #5D5956",
"%@ 	c #635F5C",
"&@ 	c #6F6B68",
"*@ 	c #57524C",
"=@ 	c #544F49",
"-@ 	c #545356",
";@ 	c #262624",
">@ 	c #232220",
",@ 	c #545351",
"'@ 	c #64605F",
")@ 	c #6A6665",
"!@ 	c #484244",
"~@ 	c #554F51",
"{@ 	c #615B5D",
"]@ 	c #4A4446",
"^@ 	c #C1C0BF",
"/@ 	c #7F7C77",
"(@ 	c #8E8A87",
"_@ 	c #807C79",
":@ 	c #878181",
"<@ 	c #B9B3B5",
"[@ 	c #9E989A",
"}@ 	c #A8A2A4",
"|@ 	c #958C8F",
"1@ 	c #B1A8A9",
"2@ 	c #C0B6B4",
"3@ 	c #C8BFBA",
"4@ 	c #B2A9A0",
"5@ 	c #C0B8AD",
"6@ 	c #D1C9BC",
"7@ 	c #C5BDB0",
"8@ 	c #E8DED4",
"9@ 	c #E4DAD1",
"0@ 	c #C1B7AE",
"a@ 	c #BDB4AB",
"b@ 	c #938C82",
"c@ 	c #848075",
"d@ 	c #736F64",
"e@ 	c #6B695D",
"f@ 	c #6D6960",
"g@ 	c #686459",
"h@ 	c #6F6B62",
"i@ 	c #787169",
"j@ 	c #726B63",
"k@ 	c #6A615A",
"l@ 	c #645B54",
"m@ 	c #60564D",
"n@ 	c #776D64",
"o@ 	c #82786E",
"p@ 	c #7F756C",
"q@ 	c #6B625B",
"r@ 	c #403732",
"s@ 	c #5A534D",
"t@ 	c #7E7975",
"u@ 	c #77726E",
"v@ 	c #5A5653",
"w@ 	c #64615C",
"x@ 	c #67625E",
"y@ 	c #58534F",
"z@ 	c #4C4743",
"A@ 	c #4E4943",
"B@ 	c #605951",
"C@ 	c #5D564C",
"D@ 	c #312634",
"E@ 	c #38373C",
"F@ 	c #2D2D2F",
"G@ 	c #818080",
"H@ 	c #494843",
"I@ 	c #5C5954",
"J@ 	c #7C7972",
"K@ 	c #807B75",
"L@ 	c #5E5953",
"M@ 	c #58504D",
"N@ 	c #7D7572",
"O@ 	c #A79F9C",
"P@ 	c #726A67",
"Q@ 	c #8A8581",
"R@ 	c #D1CEC7",
"S@ 	c #B4B1AC",
"T@ 	c #989491",
"U@ 	c #A4A09D",
"V@ 	c #C5C1C0",
"W@ 	c #B9B3B3",
"X@ 	c #AAA4A4",
"Y@ 	c #B2A9AA",
"Z@ 	c #B2AAA8",
"`@ 	c #ADA6A0",
" # 	c #D4CDC5",
".# 	c #AEA69B",
"+# 	c #A8A093",
"@# 	c #B2AB9B",
"## 	c #DCD3C4",
"$# 	c #94877E",
"%# 	c #92857C",
"&# 	c #80736A",
"*# 	c #70665C",
"=# 	c #665E53",
"-# 	c #7B7569",
";# 	c #7A7468",
"># 	c #7D796D",
",# 	c #756E64",
"'# 	c #6F695D",
")# 	c #6D665C",
"!# 	c #6D645B",
"~# 	c #6A6158",
"{# 	c #6E645B",
"]# 	c #736960",
"^# 	c #71675E",
"/# 	c #685E55",
"(# 	c #72685F",
"_# 	c #7C716B",
":# 	c #7E756E",
"<# 	c #625954",
"[# 	c #6D6660",
"}# 	c #827D79",
"|# 	c #76716D",
"1# 	c #6C6764",
"2# 	c #66615E",
"3# 	c #5E5955",
"4# 	c #5D5854",
"5# 	c #635B58",
"6# 	c #655E58",
"7# 	c #5F5852",
"8# 	c #5F564F",
"9# 	c #665F55",
"0# 	c #605953",
"a# 	c #666665",
"b# 	c #070001",
"c# 	c #0D0206",
"d# 	c #080002",
"e# 	c #363231",
"f# 	c #34302D",
"g# 	c #423F3A",
"h# 	c #2B2620",
"i# 	c #504B45",
"j# 	c #9E9A91",
"k# 	c #B4ADA3",
"l# 	c #AFA89E",
"m# 	c #574E45",
"n# 	c #938A83",
"o# 	c #9C938C",
"p# 	c #A29791",
"q# 	c #948B84",
"r# 	c #DBD6D0",
"s# 	c #E7E4DD",
"t# 	c #9F9C97",
"u# 	c #B1AEA9",
"v# 	c #C5C1BE",
"w# 	c #D1CDCA",
"x# 	c #E0DADA",
"y# 	c #AAA5A2",
"z# 	c #ADA5A3",
"A# 	c #AAA29F",
"B# 	c #ACA59F",
"C# 	c #B6AFA5",
"D# 	c #A0988D",
"E# 	c #918A7A",
"F# 	c #878070",
"G# 	c #837A6B",
"H# 	c #5D5145",
"I# 	c #6D5F56",
"J# 	c #807269",
"K# 	c #6D6057",
"L# 	c #594F45",
"M# 	c #544C41",
"N# 	c #4F473C",
"O# 	c #4B4539",
"P# 	c #574F44",
"Q# 	c #4B4338",
"R# 	c #40382D",
"S# 	c #3C3429",
"T# 	c #42382F",
"U# 	c #50463D",
"V# 	c #584B43",
"W# 	c #51443C",
"X# 	c #51473E",
"Y# 	c #544B44",
"Z# 	c #6C655D",
"`# 	c #68615B",
" $ 	c #78736D",
".$ 	c #8E8985",
"+$ 	c #7E7976",
"@$ 	c #797470",
"#$ 	c #726D69",
"$$ 	c #67625C",
"%$ 	c #615A54",
"&$ 	c #69625C",
"*$ 	c #6D645D",
"=$ 	c #6C635A",
"-$ 	c #665D54",
";$ 	c #685F58",
">$ 	c #13111C",
",$ 	c #7C7C7D",
"'$ 	c #16151A",
")$ 	c #393323",
"!$ 	c #807863",
"~$ 	c #776D54",
"{$ 	c #342810",
"]$ 	c #140800",
"^$ 	c #2B1E0E",
"/$ 	c #190B02",
"($ 	c #2C1F28",
"_$ 	c #545051",
":$ 	c #645F59",
"<$ 	c #A29E95",
"[$ 	c #B1AAA0",
"}$ 	c #D2CBC1",
"|$ 	c #F6F0E4",
"1$ 	c #EFE7DC",
"2$ 	c #F0E8DD",
"3$ 	c #F5EDE2",
"4$ 	c #9C9288",
"5$ 	c #F0E6DC",
"6$ 	c #D0C6BC",
"7$ 	c #A79A91",
"8$ 	c #D4CBC2",
"9$ 	c #EBE7DE",
"0$ 	c #C0C0B6",
"a$ 	c #B9B6AF",
"b$ 	c #C8C5BE",
"c$ 	c #BEBBB6",
"d$ 	c #B6B3AE",
"e$ 	c #A39E9B",
"f$ 	c #9B9693",
"g$ 	c #A5A09D",
"h$ 	c #8B8680",
"i$ 	c #847D75",
"j$ 	c #999288",
"k$ 	c #B8B0A5",
"l$ 	c #948D7D",
"m$ 	c #726B5B",
"n$ 	c #797061",
"o$ 	c #988A7F",
"p$ 	c #4B3D32",
"q$ 	c #4D3F34",
"r$ 	c #4B3F33",
"s$ 	c #473B2F",
"t$ 	c #483E32",
"u$ 	c #52483C",
"v$ 	c #2E2619",
"w$ 	c #342A20",
"x$ 	c #352B21",
"y$ 	c #3D3329",
"z$ 	c #453B31",
"A$ 	c #4D4037",
"B$ 	c #52453C",
"C$ 	c #493C34",
"D$ 	c #342A21",
"E$ 	c #332A23",
"F$ 	c #39322C",
"G$ 	c #413A34",
"H$ 	c #403B35",
"I$ 	c #3B3632",
"J$ 	c #7B7673",
"K$ 	c #7F7A76",
"L$ 	c #7A7571",
"M$ 	c #7E7673",
"N$ 	c #7A736D",
"O$ 	c #6A615C",
"P$ 	c #655C55",
"Q$ 	c #706760",
"R$ 	c #796F66",
"S$ 	c #8F857C",
"T$ 	c #7C7269",
"U$ 	c #776E67",
"V$ 	c #514A44",
"W$ 	c #A5A3A3",
"X$ 	c #100E19",
"Y$ 	c #9D9D9D",
"Z$ 	c #36322F",
"`$ 	c #8D877B",
" % 	c #F3ECD9",
".% 	c #FFFEE4",
"+% 	c #FDF4D5",
"@% 	c #DCD1B3",
"#% 	c #D2C4A9",
"$% 	c #C1B09C",
"%% 	c #3D2D1E",
"&% 	c #4D3C35",
"*% 	c #402D2F",
"=% 	c #402C35",
"-% 	c #7B6A72",
";% 	c #827876",
">% 	c #706963",
",% 	c #ABA49C",
"'% 	c #DBD4CC",
")% 	c #E6DFD5",
"!% 	c #FDF6EC",
"~% 	c #FFF8ED",
"{% 	c #F2EADD",
"]% 	c #F2E8DE",
"^% 	c #F4EADE",
"/% 	c #F3E9DF",
"(% 	c #DED4C8",
"_% 	c #F4E7DE",
":% 	c #DFD3C7",
"<% 	c #C6B9B0",
"[% 	c #D8D0C5",
"}% 	c #DEDAD1",
"|% 	c #A0A098",
"1% 	c #97948D",
"2% 	c #97948F",
"3% 	c #A29F9A",
"4% 	c #A29E9B",
"5% 	c #847F7C",
"6% 	c #96918D",
"7% 	c #97928C",
"8% 	c #8F8880",
"9% 	c #827B71",
"0% 	c #898176",
"a% 	c #948C7F",
"b% 	c #7A7363",
"c% 	c #645B4C",
"d% 	c #57493E",
"e% 	c #322117",
"f% 	c #493B30",
"g% 	c #4F4136",
"h% 	c #877B6F",
"i% 	c #64584C",
"j% 	c #3A3026",
"k% 	c #4A4036",
"l% 	c #463C32",
"m% 	c #4B4138",
"n% 	c #4C4239",
"o% 	c #493F36",
"p% 	c #4C3F37",
"q% 	c #413630",
"r% 	c #2A231D",
"s% 	c #302B25",
"t% 	c #38332D",
"u% 	c #312C26",
"v% 	c #292420",
"w% 	c #322D29",
"x% 	c #676360",
"y% 	c #696460",
"z% 	c #615C58",
"A% 	c #6F6862",
"B% 	c #7B746E",
"C% 	c #726962",
"D% 	c #7A6D65",
"E% 	c #7D7068",
"F% 	c #847973",
"G% 	c #746B64",
"H% 	c #716863",
"I% 	c #756D6A",
"J% 	c #7D7D7D",
"K% 	c #36332C",
"L% 	c #EBE6E0",
"M% 	c #FFFBF3",
"N% 	c #FFFDF6",
"O% 	c #FEF4EB",
"P% 	c #FFF3EA",
"Q% 	c #B1A39A",
"R% 	c #D1C3B8",
"S% 	c #FFF1E7",
"T% 	c #736356",
"U% 	c #9F8F82",
"V% 	c #97897C",
"W% 	c #897B6E",
"X% 	c #C4B8AC",
"Y% 	c #D9D0C7",
"Z% 	c #D7D0C8",
"`% 	c #FFFEF6",
" & 	c #EDE6DE",
".& 	c #F9F2E8",
"+& 	c #FFFDF4",
"@& 	c #FFFBF0",
"#& 	c #FFF6ED",
"$& 	c #EEE6DB",
"%& 	c #E7DED5",
"&& 	c #FDF5EA",
"*& 	c #D5CBC2",
"=& 	c #CAC0B6",
"-& 	c #A49B92",
";& 	c #837E78",
">& 	c #8A8782",
",& 	c #8C8984",
"'& 	c #ADA9A6",
")& 	c #95918E",
"!& 	c #938E8B",
"~& 	c #95908D",
"{& 	c #89817E",
"]& 	c #918986",
"^& 	c #A49D97",
"/& 	c #A7A098",
"(& 	c #A1988F",
"_& 	c #8B8175",
":& 	c #695D51",
"<& 	c #4D3F36",
"[& 	c #C7B9B0",
"}& 	c #978980",
"|& 	c #64574E",
"1& 	c #44372E",
"2& 	c #3C3229",
"3& 	c #61584F",
"4& 	c #584F46",
"5& 	c #524942",
"6& 	c #4B423B",
"7& 	c #443B34",
"8& 	c #473E37",
"9& 	c #4D423C",
"0& 	c #4B423D",
"a& 	c #362F29",
"b& 	c #3A3531",
"c& 	c #3C3934",
"d& 	c #3C3835",
"e& 	c #55514E",
"f& 	c #605C59",
"g& 	c #55504C",
"h& 	c #4F4A46",
"i& 	c #786E65",
"j& 	c #7D7369",
"k& 	c #8C7F77",
"l& 	c #8E8179",
"m& 	c #867971",
"n& 	c #7D726C",
"o& 	c #6C635E",
"p& 	c #6E6663",
"q& 	c #54504D",
"r& 	c #666361",
"s& 	c #25221B",
"t& 	c #050000",
"u& 	c #F6EFE9",
"v& 	c #FFFDF8",
"w& 	c #FFFBF6",
"x& 	c #FFF6F2",
"y& 	c #E7DAD4",
"z& 	c #51443E",
"A& 	c #33261E",
"B& 	c #B1A49B",
"C& 	c #6A5E52",
"D& 	c #9F9385",
"E& 	c #B2A998",
"F& 	c #C8C0AD",
"G& 	c #E6DDCC",
"H& 	c #FFFAF0",
"I& 	c #FFFEF8",
"J& 	c #F3ECE6",
"K& 	c #F5F0EA",
"L& 	c #FFF8F2",
"M& 	c #FAF3ED",
"N& 	c #FFFCF6",
"O& 	c #FFFAF2",
"P& 	c #F7F0E8",
"Q& 	c #DAD1CC",
"R& 	c #D5CCC5",
"S& 	c #B6ADA8",
"T& 	c #A49B94",
"U& 	c #978E87",
"V& 	c #99928C",
"W& 	c #A09B98",
"X& 	c #8A8685",
"Y& 	c #9B9796",
"Z& 	c #8E8A89",
"`& 	c #9C9696",
" * 	c #7C7472",
".* 	c #A09895",
"+* 	c #9F9794",
"@* 	c #7D7670",
"#* 	c #A69D96",
"$* 	c #A89F96",
"%* 	c #867E73",
"&* 	c #857B71",
"** 	c #5F5249",
"=* 	c #CDBFB6",
"-* 	c #594C44",
";* 	c #4D4038",
">* 	c #241A11",
",* 	c #483F38",
"'* 	c #3F3631",
")* 	c #453C37",
"!* 	c #4E4741",
"~* 	c #463F39",
"{* 	c #352D2A",
"]* 	c #231B18",
"^* 	c #2D2824",
"/* 	c #241F1B",
"(* 	c #2B2823",
"_* 	c #33302B",
":* 	c #2B2724",
"<* 	c #514D4A",
"[* 	c #6A6663",
"}* 	c #534E4A",
"|* 	c #524D49",
"1* 	c #645D57",
"2* 	c #686159",
"3* 	c #584F48",
"4* 	c #5E554C",
"5* 	c #776D63",
"6* 	c #877871",
"7* 	c #7D6E67",
"8* 	c #6E6159",
"9* 	c #877A72",
"0* 	c #80756F",
"a* 	c #7E7570",
"b* 	c #77706A",
"c* 	c #605B57",
"d* 	c #4E4A47",
"e* 	c #241F26",
"f* 	c #080109",
"g* 	c #060002",
"h* 	c #595051",
"i* 	c #FFF6F1",
"j* 	c #FFFCF1",
"k* 	c #FFFBEB",
"l* 	c #F2EBD8",
"m* 	c #6A6350",
"n* 	c #908976",
"o* 	c #C1BAA8",
"p* 	c #DBD5C7",
"q* 	c #E8E2D6",
"r* 	c #F9F5EC",
"s* 	c #FEF9F3",
"t* 	c #FFFEFA",
"u* 	c #F6F3EE",
"v* 	c #FFFEFB",
"w* 	c #FEFAF7",
"x* 	c #FFFCF9",
"y* 	c #F7F2EF",
"z* 	c #F1ECE9",
"A* 	c #C6BDBE",
"B* 	c #A6A19E",
"C* 	c #A89FA0",
"D* 	c #978F8D",
"E* 	c #918889",
"F* 	c #B3ABA9",
"G* 	c #9D9593",
"H* 	c #A7A29F",
"I* 	c #999393",
"J* 	c #868082",
"K* 	c #767072",
"L* 	c #888284",
"M* 	c #8B8585",
"N* 	c #898081",
"O* 	c #7F7775",
"P* 	c #695F5E",
"Q* 	c #534947",
"R* 	c #403634",
"S* 	c #5D544F",
"T* 	c #756A66",
"U* 	c #635852",
"V* 	c #473C36",
"W* 	c #7A7067",
"X* 	c #4A4037",
"Y* 	c #22180F",
"Z* 	c #382B23",
"`* 	c #463B35",
" = 	c #695E58",
".= 	c #4A413A",
"+= 	c #372E29",
"@= 	c #2F2621",
"#= 	c #2D2522",
"$= 	c #241C19",
"%= 	c #2F2A26",
"&= 	c #3E3935",
"*= 	c #302B27",
"== 	c #1A1512",
"-= 	c #0E0905",
";= 	c #110E09",
">= 	c #0F0C07",
",= 	c #191611",
"'= 	c #25221D",
")= 	c #262521",
"!= 	c #0D0C08",
"~= 	c #31302C",
"{= 	c #63625E",
"]= 	c #514E49",
"^= 	c #554E48",
"/= 	c #5F5850",
"(= 	c #605750",
"_= 	c #6B6259",
":= 	c #796F65",
"<= 	c #675D53",
"[= 	c #73655C",
"}= 	c #695B52",
"|= 	c #63564E",
"1= 	c #786B63",
"2= 	c #8C8279",
"3= 	c #756C65",
"4= 	c #867F79",
"5= 	c #706B67",
"6= 	c #8A8A88",
"7= 	c #262427",
"8= 	c #040009",
"9= 	c #130818",
"0= 	c #594F58",
"a= 	c #DCD3D6",
"b= 	c #FFFDFA",
"c= 	c #FFFDF3",
"d= 	c #FFF9E9",
"e= 	c #E7E2CE",
"f= 	c #C7C2AE",
"g= 	c #E8E6D1",
"h= 	c #F8F7E5",
"i= 	c #FBF9EA",
"j= 	c #FFFFF6",
"k= 	c #FDFCF7",
"l= 	c #F5F6F1",
"m= 	c #FFFFFD",
"n= 	c #FFFBF8",
"o= 	c #FFFEFD",
"p= 	c #F6F2F1",
"q= 	c #FCF8F7",
"r= 	c #FAF6F5",
"s= 	c #C1BBBD",
"t= 	c #908A8C",
"u= 	c #777173",
"v= 	c #635D5F",
"w= 	c #6E686C",
"x= 	c #6A6466",
"y= 	c #676165",
"z= 	c #797375",
"A= 	c #655F61",
"B= 	c #676163",
"C= 	c #837D7F",
"D= 	c #847E80",
"E= 	c #8D8789",
"F= 	c #8C8386",
"G= 	c #867D7E",
"H= 	c #847B7C",
"I= 	c #847A79",
"J= 	c #867C7B",
"K= 	c #564C4A",
"L= 	c #665C5A",
"M= 	c #716662",
"N= 	c #5E534F",
"O= 	c #40352F",
"P= 	c #473D34",
"Q= 	c #362C23",
"R= 	c #281E15",
"S= 	c #2C2219",
"T= 	c #1E130D",
"U= 	c #342B24",
"V= 	c #4F463F",
"W= 	c #645B56",
"X= 	c #463D38",
"Y= 	c #322826",
"Z= 	c #2F2724",
"`= 	c #1F1A17",
" - 	c #15100D",
".- 	c #0E0A07",
"+- 	c #0A0603",
"@- 	c #130F0C",
"#- 	c #1E1A17",
"$- 	c #16130E",
"%- 	c #0B0803",
"&- 	c #0A0702",
"*- 	c #12110D",
"=- 	c #0B0A06",
"-- 	c #24231F",
";- 	c #585753",
">- 	c #6C6964",
",- 	c #524F4A",
"'- 	c #6C655F",
")- 	c #5A514A",
"!- 	c #453C33",
"~- 	c #62584F",
"{- 	c #786B62",
"]- 	c #72655C",
"^- 	c #766961",
"/- 	c #756860",
"(- 	c #5F554C",
"_- 	c #6E6965",
":- 	c #53504B",
"<- 	c #171310",
"[- 	c #191816",
"}- 	c #1B1B19",
"|- 	c #010000",
"1- 	c #181119",
"2- 	c #E1D7E2",
"3- 	c #FFF8FF",
"4- 	c #F3EAEF",
"5- 	c #F6EDEE",
"6- 	c #FFFCF8",
"7- 	c #DFDBD2",
"8- 	c #F4F2E5",
"9- 	c #DFDDD0",
"0- 	c #E0E1D3",
"a- 	c #F2F4E7",
"b- 	c #FEFFF3",
"c- 	c #F5F8ED",
"d- 	c #F7FAF1",
"e- 	c #FEFFFA",
"f- 	c #F9FAF5",
"g- 	c #F1F0EC",
"h- 	c #D7D3D0",
"i- 	c #C3BFBE",
"j- 	c #BFBBBA",
"k- 	c #BBB7B8",
"l- 	c #969293",
"m- 	c #676266",
"n- 	c #5F5A5E",
"o- 	c #898488",
"p- 	c #757074",
"q- 	c #7E797F",
"r- 	c #7D787C",
"s- 	c #777278",
"t- 	c #878183",
"u- 	c #8F898B",
"v- 	c #8A8182",
"w- 	c #837A7B",
"x- 	c #908788",
"y- 	c #9D9394",
"z- 	c #A19796",
"A- 	c #8B8180",
"B- 	c #776B6B",
"C- 	c #6A5E5E",
"D- 	c #796E6C",
"E- 	c #897E7A",
"F- 	c #887B75",
"G- 	c #5B4E48",
"H- 	c #564943",
"I- 	c #594C46",
"J- 	c #42352D",
"K- 	c #40362D",
"L- 	c #382E24",
"M- 	c #2B2117",
"N- 	c #160C03",
"O- 	c #180E05",
"P- 	c #332920",
"Q- 	c #352A24",
"R- 	c #110801",
"S- 	c #352C27",
"T- 	c #1D1814",
"U- 	c #110C08",
"V- 	c #090502",
"W- 	c #0C0805",
"X- 	c #0F0E0A",
"Y- 	c #0F0B08",
"Z- 	c #1B1813",
"`- 	c #1A150F",
" ; 	c #16130C",
".; 	c #120F08",
"+; 	c #211E19",
"@; 	c #282723",
"#; 	c #5C5B57",
"$; 	c #797671",
"%; 	c #585550",
"&; 	c #7F7A74",
"*; 	c #665F57",
"=; 	c #383127",
"-; 	c #524940",
";; 	c #837970",
">; 	c #8E847A",
",; 	c #766960",
"'; 	c #73665D",
"); 	c #74675E",
"!; 	c #5D5349",
"~; 	c #423932",
"{; 	c #69625A",
"]; 	c #726D67",
"^; 	c #5C5753",
"/; 	c #817F7E",
"(; 	c #1E1614",
"_; 	c #1D1513",
":; 	c #120E0B",
"<; 	c #070602",
"[; 	c #ECE7EB",
"}; 	c #FFFCFF",
"|; 	c #F1EBEF",
"1; 	c #DCD6DA",
"2; 	c #DBD7D8",
"3; 	c #ECE8E7",
"4; 	c #FAF6F3",
"5; 	c #FFFFFB",
"6; 	c #F5F4EF",
"7; 	c #E3E2DD",
"8; 	c #F4F5ED",
"9; 	c #FFFFF8",
"0; 	c #F5F8EF",
"a; 	c #FDFFF7",
"b; 	c #FCFFF6",
"c; 	c #D8D9D1",
"d; 	c #A29F98",
"e; 	c #A9A4A0",
"f; 	c #8F8A86",
"g; 	c #6F6A67",
"h; 	c #5B5555",
"i; 	c #4D4747",
"j; 	c #585254",
"k; 	c #746E70",
"l; 	c #9B9599",
"m; 	c #A8A2A6",
"n; 	c #B1ABAF",
"o; 	c #8F898D",
"p; 	c #787276",
"q; 	c #A19B9D",
"r; 	c #ABA2A3",
"s; 	c #A79D9C",
"t; 	c #948A89",
"u; 	c #9F9594",
"v; 	c #9B918F",
"w; 	c #998E8C",
"x; 	c #7F7472",
"y; 	c #695E5A",
"z; 	c #6F6460",
"A; 	c #7B6E68",
"B; 	c #62554D",
"C; 	c #35261F",
"D; 	c #473831",
"E; 	c #62544B",
"F; 	c #3F3128",
"G; 	c #281C10",
"H; 	c #35291D",
"I; 	c #3F3327",
"J; 	c #392D21",
"K; 	c #382B22",
"L; 	c #31241B",
"M; 	c #23160E",
"N; 	c #0F0200",
"O; 	c #20150F",
"P; 	c #292019",
"Q; 	c #37302A",
"R; 	c #1F1A16",
"S; 	c #181510",
"T; 	c #15120D",
"U; 	c #100D08",
"V; 	c #1B1610",
"W; 	c #15100A",
"X; 	c #27221C",
"Y; 	c #2E2B24",
"Z; 	c #23201B",
"`; 	c #2F2C27",
" > 	c #2B2A26",
".> 	c #54534F",
"+> 	c #57544F",
"@> 	c #625F5A",
"#> 	c #77726C",
"$> 	c #554E46",
"%> 	c #59524A",
"&> 	c #746C61",
"*> 	c #82756C",
"=> 	c #6B6157",
"-> 	c #5F554B",
";> 	c #5A5047",
">> 	c #777068",
",> 	c #544F4B",
"'> 	c #B0AFAF",
")> 	c #7D7C7C",
"!> 	c #1A120F",
"~> 	c #1E1613",
"{> 	c #0D0804",
"]> 	c #080500",
"^> 	c #474641",
"/> 	c #AEADA8",
"(> 	c #EEEDE8",
"_> 	c #F7F6F2",
":> 	c #FDFCF8",
"<> 	c #FAF9F7",
"[> 	c #EAE8E9",
"}> 	c #ECEAED",
"|> 	c #F0EEF1",
"1> 	c #FEFCFF",
"2> 	c #F5F3F8",
"3> 	c #FFFEFF",
"4> 	c #F8F7F5",
"5> 	c #FEFEF6",
"6> 	c #F9F9EF",
"7> 	c #D2D0C4",
"8> 	c #A4A295",
"9> 	c #777165",
"0> 	c #9A9389",
"a> 	c #878078",
"b> 	c #574F4C",
"c> 	c #534B48",
"d> 	c #5D5553",
"e> 	c #857C7D",
"f> 	c #C9C0C1",
"g> 	c #ECE3E4",
"h> 	c #B6ADAE",
"i> 	c #A39D9D",
"j> 	c #C9C1BF",
"k> 	c #A49C99",
"l> 	c #A39997",
"m> 	c #C6BBB7",
"n> 	c #D0C5C1",
"o> 	c #A0958F",
"p> 	c #837670",
"q> 	c #857870",
"r> 	c #95887F",
"s> 	c #8D8077",
"t> 	c #615348",
"u> 	c #AC9E93",
"v> 	c #85776C",
"w> 	c #322215",
"x> 	c #47372A",
"y> 	c #453528",
"z> 	c #37271A",
"A> 	c #2A1D0D",
"B> 	c #453827",
"C> 	c #645445",
"D> 	c #59493A",
"E> 	c #58483B",
"F> 	c #443427",
"G> 	c #48372D",
"H> 	c #4B3A30",
"I> 	c #35271E",
"J> 	c #3C2F26",
"K> 	c #574A42",
"L> 	c #52483F",
"M> 	c #413831",
"N> 	c #403931",
"O> 	c #37332A",
"P> 	c #322E25",
"Q> 	c #2B271E",
"R> 	c #120B03",
"S> 	c #2A231B",
"T> 	c #39352C",
"U> 	c #221F18",
"V> 	c #2F2C25",
"W> 	c #302F2A",
"X> 	c #4E4D49",
"Y> 	c #504F4A",
"Z> 	c #565550",
"`> 	c #6C6962",
" , 	c #6F6C65",
"., 	c #736B60",
"+, 	c #857B6F",
"@, 	c #978D81",
"#, 	c #92887C",
"$, 	c #72685C",
"%, 	c #60564A",
"&, 	c #6C6258",
"*, 	c #645A51",
"=, 	c #645F5B",
"-, 	c #4D4B4B",
";, 	c #1E1412",
">, 	c #170D0B",
",, 	c #070000",
"', 	c #261E1B",
"), 	c #9B9692",
"!, 	c #F9F6F1",
"~, 	c #FFFFFA",
"{, 	c #FFFEF9",
"], 	c #FCFDF5",
"^, 	c #FDFFFA",
"/, 	c #F7F9F6",
"(, 	c #ECEDEF",
"_, 	c #F3F2F7",
":, 	c #FCFBFF",
"<, 	c #FFFDFF",
"[, 	c #D8D2C6",
"}, 	c #A1998C",
"|, 	c #756E5E",
"1, 	c #B8AFA0",
"2, 	c #BDB3A7",
"3, 	c #A79D93",
"4, 	c #8E847B",
"5, 	c #7B706A",
"6, 	c #786D67",
"7, 	c #5C514D",
"8, 	c #584D4B",
"9, 	c #948A88",
"0, 	c #D1C6C4",
"a, 	c #C8BEBC",
"b, 	c #A59B99",
"c, 	c #ACA39E",
"d, 	c #B4ABA4",
"e, 	c #B0A69D",
"f, 	c #C9BFB6",
"g, 	c #D3C9C0",
"h, 	c #DFD5CC",
"i, 	c #C3B6AD",
"j, 	c #BAAEA0",
"k, 	c #CFC3B5",
"l, 	c #998C7C",
"m, 	c #716454",
"n, 	c #BBAB9C",
"o, 	c #A49485",
"p, 	c #6A5A4A",
"q, 	c #756555",
"r, 	c #8C7C6C",
"s, 	c #BAAB98",
"t, 	c #867563",
"u, 	c #6B5A46",
"v, 	c #746150",
"w, 	c #695645",
"x, 	c #594637",
"y, 	c #422F20",
"z, 	c #5A4739",
"A, 	c #635042",
"B, 	c #564438",
"C, 	c #49392C",
"D, 	c #4C4238",
"E, 	c #564E43",
"F, 	c #484236",
"G, 	c #443E32",
"H, 	c #3D362C",
"I, 	c #140D03",
"J, 	c #1E170F",
"K, 	c #2C251D",
"L, 	c #1C1711",
"M, 	c #2A2720",
"N, 	c #393833",
"O, 	c #4A4944",
"P, 	c #51504C",
"Q, 	c #56534E",
"R, 	c #57544D",
"S, 	c #6A655F",
"T, 	c #757168",
"U, 	c #7E776D",
"V, 	c #7E766B",
"W, 	c #796F63",
"X, 	c #847A6E",
"Y, 	c #7E7468",
"Z, 	c #665C50",
"`, 	c #6B6155",
" ' 	c #6E645A",
".' 	c #756B62",
"+' 	c #6F665F",
"@' 	c #56514D",
"#' 	c #7F7D7C",
"$' 	c #170E09",
"%' 	c #1A0F0B",
"&' 	c #0C0100",
"*' 	c #1E1510",
"=' 	c #635A55",
"-' 	c #C0B9B3",
";' 	c #F9F4EE",
">' 	c #F8F8F0",
",' 	c #F0F1E9",
"'' 	c #E7EAE1",
")' 	c #FCFFFA",
"!' 	c #FCFFFB",
"~' 	c #F1F6F2",
"{' 	c #F1F5F4",
"]' 	c #FCFDFF",
"^' 	c #F9F9FB",
"/' 	c #FFFBFF",
"(' 	c #FAF4F8",
"_' 	c #FFFAFB",
":' 	c #FEF4F3",
"<' 	c #ECE1DD",
"[' 	c #E8DBD5",
"}' 	c #D2C5BD",
"|' 	c #A3978B",
"1' 	c #B3A896",
"2' 	c #D0C5B1",
"3' 	c #AFA492",
"4' 	c #AEA292",
"5' 	c #DACEC0",
"6' 	c #FBEFE3",
"7' 	c #DED1C8",
"8' 	c #53463E",
"9' 	c #968981",
"0' 	c #ACA299",
"a' 	c #A49A91",
"b' 	c #B6ACA3",
"c' 	c #C7BDB3",
"d' 	c #CCC0B4",
"e' 	c #C1B5A9",
"f' 	c #B4A89C",
"g' 	c #C9BDB1",
"h' 	c #D5C7BA",
"i' 	c #C4B7A7",
"j' 	c #D8CBBA",
"k' 	c #DFD2C1",
"l' 	c #948572",
"m' 	c #8F806D",
"n' 	c #AE9D89",
"o' 	c #BAA995",
"p' 	c #CFBEAA",
"q' 	c #D3C2AE",
"r' 	c #D9C8B4",
"s' 	c #EBDBC4",
"t' 	c #9F8D77",
"u' 	c #645038",
"v' 	c #76624A",
"w' 	c #8B775F",
"x' 	c #66503B",
"y' 	c #725C47",
"z' 	c #9E8775",
"A' 	c #8F7868",
"B' 	c #5E483A",
"C' 	c #513E2F",
"D' 	c #524032",
"E' 	c #3F2F20",
"F' 	c #392B1E",
"G' 	c #3D3123",
"H' 	c #342B1C",
"I' 	c #463E31",
"J' 	c #282015",
"K' 	c #261F15",
"L' 	c #251E16",
"M' 	c #211C16",
"N' 	c #373631",
"O' 	c #484742",
"P' 	c #5E5D59",
"Q' 	c #474642",
"R' 	c #4B4A45",
"S' 	c #3C3B36",
"T' 	c #54514C",
"U' 	c #736C62",
"V' 	c #827A6D",
"W' 	c #888073",
"X' 	c #8F8579",
"Y' 	c #8E8478",
"Z' 	c #8B7F73",
"`' 	c #897D71",
" ) 	c #83766D",
".) 	c #5A5551",
"+) 	c #4B4744",
"@) 	c #170F0C",
"#) 	c #19110E",
"$) 	c #CAC0BE",
"%) 	c #F3EBE8",
"&) 	c #FFFDF7",
"*) 	c #FBFBF3",
"=) 	c #F9FAF2",
"-) 	c #F6FBF4",
";) 	c #EBF0EA",
">) 	c #FBFFFD",
",) 	c #FCFFFF",
"') 	c #F9FAFC",
")) 	c #FDFDFF",
"!) 	c #F9F4F8",
"~) 	c #FFF7F9",
"{) 	c #EFE1E0",
"]) 	c #E4D5D2",
"^) 	c #CDBEB7",
"/) 	c #B4A69D",
"() 	c #ADA195",
"_) 	c #DFD3C3",
":) 	c #C6BEAB",
"<) 	c #928978",
"[) 	c #B6AA9A",
"}) 	c #F2E6D8",
"|) 	c #FFF3E8",
"1) 	c #B2A49B",
"2) 	c #65574E",
"3) 	c #92847B",
"4) 	c #C6B8AF",
"5) 	c #B6A89F",
"6) 	c #B7AAA1",
"7) 	c #BEB2A6",
"8) 	c #CFC3B7",
"9) 	c #D3C7B9",
"0) 	c #CCC0B2",
"a) 	c #C5B9AB",
"b) 	c #CDC0B0",
"c) 	c #AB9E8E",
"d) 	c #CABDAC",
"e) 	c #DDD0BF",
"f) 	c #DECFBC",
"g) 	c #CCBDAA",
"h) 	c #F0DFCD",
"i) 	c #D6C5B1",
"j) 	c #D9C8B6",
"k) 	c #E6D5C1",
"l) 	c #C1B09E",
"m) 	c #A2917D",
"n) 	c #5C4732",
"o) 	c #453119",
"p) 	c #8B7661",
"q) 	c #B8A38E",
"r) 	c #7F6954",
"s) 	c #C5AF9A",
"t) 	c #FFF2E0",
"u) 	c #D6C1B0",
"v) 	c #857261",
"w) 	c #685546",
"x) 	c #534232",
"y) 	c #39291A",
"z) 	c #3C2F1F",
"A) 	c #443727",
"B) 	c #35291B",
"C) 	c #463D2E",
"D) 	c #41392C",
"E) 	c #4D463C",
"F) 	c #3B372E",
"G) 	c #37342D",
"H) 	c #52514D",
"I) 	c #494844",
"J) 	c #2E2D28",
"K) 	c #3A3732",
"L) 	c #54514A",
"M) 	c #605C53",
"N) 	c #827C70",
"O) 	c #867C70",
"P) 	c #74685C",
"Q) 	c #897C73",
"R) 	c #6B6158",
"S) 	c #69615E",
"T) 	c #55504D",
"U) 	c #CECECD",
"V) 	c #FEFDF8",
"W) 	c #F9F9F1",
"X) 	c #F1EEE7",
"Y) 	c #EAE6DD",
"Z) 	c #F8F3ED",
"`) 	c #F9FFFB",
" ! 	c #F7FFFD",
".! 	c #FAFFFF",
"+! 	c #FDFEFF",
"@! 	c #FCF8F9",
"#! 	c #FFF6F7",
"$! 	c #FFFBFB",
"%! 	c #FAEBE8",
"&! 	c #BFB0A9",
"*! 	c #B2A69A",
"=! 	c #B7AB9D",
"-! 	c #D8D1C1",
";! 	c #D2CEC2",
">! 	c #CAC8BC",
",! 	c #C8C4B9",
"'! 	c #EBE4DA",
")! 	c #FFF7EE",
"!! 	c #FBECE5",
"~! 	c #C3B2AB",
"{! 	c #5D4A44",
"]! 	c #A08D87",
"^! 	c #C1B0A8",
"/! 	c #B9A8A0",
"(! 	c #C4B3A9",
"_! 	c #D8CABF",
":! 	c #D6C8BD",
"<! 	c #C7B9AE",
"[! 	c #CEC2B6",
"}! 	c #D9CDC1",
"|! 	c #D3C7BB",
"1! 	c #D2C4B7",
"2! 	c #DACCBF",
"3! 	c #D8CABD",
"4! 	c #D7C9BC",
"5! 	c #DDCDC0",
"6! 	c #F4E4D7",
"7! 	c #FFF0E3",
"8! 	c #8A786C",
"9! 	c #AF9D8F",
"0! 	c #857367",
"a! 	c #554335",
"b! 	c #675646",
"c! 	c #8B7A68",
"d! 	c #AE9D8D",
"e! 	c #BCAB9B",
"f! 	c #BAA999",
"g! 	c #CBBAAA",
"h! 	c #FEECDE",
"i! 	c #EBD9CB",
"j! 	c #DECEBF",
"k! 	c #8B7B6C",
"l! 	c #655546",
"m! 	c #66584B",
"n! 	c #56483B",
"o! 	c #524437",
"p! 	c #51493E",
"q! 	c #4E483C",
"r! 	c #353126",
"s! 	c #353128",
"t! 	c #38342B",
"u! 	c #423D37",
"v! 	c #4B4843",
"w! 	c #413D3A",
"x! 	c #282421",
"y! 	c #272320",
"z! 	c #45423B",
"A! 	c #5B5650",
"B! 	c #7F7870",
"C! 	c #8D847B",
"D! 	c #877D73",
"E! 	c #8A8074",
"F! 	c #94887C",
"G! 	c #908275",
"H! 	c #8E8075",
"I! 	c #8B7E75",
"J! 	c #847A71",
"K! 	c #7D7B7A",
"L! 	c #32312D",
"M! 	c #F0F0EE",
"N! 	c #FAFAF8",
"O! 	c #FEFEFC",
"P! 	c #FDFEF9",
"Q! 	c #FAFBF6",
"R! 	c #E6DFD9",
"S! 	c #F5FBF7",
"T! 	c #F2FBF8",
"U! 	c #F7FDFB",
"V! 	c #FBFDFC",
"W! 	c #FFF8F8",
"X! 	c #E2D0CC",
"Y! 	c #93857C",
"Z! 	c #A2968A",
"`! 	c #CAC3B1",
" ~ 	c #DAD7C6",
".~ 	c #DEDED2",
"+~ 	c #D2D3CB",
"@~ 	c #C2BFB8",
"#~ 	c #E6E1DB",
"$~ 	c #F2E9E2",
"%~ 	c #FEF3ED",
"&~ 	c #FFF9F4",
"*~ 	c #A99793",
"=~ 	c #8B7872",
"-~ 	c #D6C3BD",
";~ 	c #DDCAC3",
">~ 	c #BDACA4",
",~ 	c #D2C1B7",
"'~ 	c #E8DACF",
")~ 	c #E0D2C7",
"!~ 	c #DED0C5",
"~~ 	c #DDD1C5",
"{~ 	c #E2D6CA",
"]~ 	c #E1D3C8",
"^~ 	c #D9CBC0",
"/~ 	c #D4C6BB",
"(~ 	c #DECDC3",
"_~ 	c #EBDAD0",
":~ 	c #D8C7BD",
"<~ 	c #928076",
"[~ 	c #3D2B21",
"}~ 	c #554339",
"|~ 	c #A49389",
"1~ 	c #BFAFA2",
"2~ 	c #CCBCAD",
"3~ 	c #AC9C8D",
"4~ 	c #A89889",
"5~ 	c #D0C0B1",
"6~ 	c #D1C1B2",
"7~ 	c #E6D6C9",
"8~ 	c #F3E5D8",
"9~ 	c #DFD1C4",
"0~ 	c #8D7F72",
"a~ 	c #695B4E",
"b~ 	c #706255",
"c~ 	c #625449",
"d~ 	c #5C4E43",
"e~ 	c #5D4F44",
"f~ 	c #4C4034",
"g~ 	c #4D453A",
"h~ 	c #453E34",
"i~ 	c #433C32",
"j~ 	c #3D392E",
"k~ 	c #343025",
"l~ 	c #312D24",
"m~ 	c #252118",
"n~ 	c #534E48",
"o~ 	c #46433E",
"p~ 	c #3F3B38",
"q~ 	c #302C29",
"r~ 	c #2D2926",
"s~ 	c #302D28",
"t~ 	c #676058",
"u~ 	c #736A61",
"v~ 	c #8A7E72",
"w~ 	c #8B7D70",
"x~ 	c #796B60",
"y~ 	c #595049",
"z~ 	c #65615E",
"A~ 	c #FCFBF6",
"B~ 	c #F1F0EB",
"C~ 	c #E6E3DE",
"D~ 	c #E0D8D5",
"E~ 	c #F1ECE8",
"F~ 	c #FEFDF9",
"G~ 	c #FCFEF9",
"H~ 	c #F1F7F3",
"I~ 	c #EFF5F1",
"J~ 	c #F6F8F5",
"K~ 	c #FCFBF9",
"L~ 	c #FFFCFD",
"M~ 	c #F9EDED",
"N~ 	c #C8B9B6",
"O~ 	c #A08E8A",
"P~ 	c #B4AA9E",
"Q~ 	c #DDD7C7",
"R~ 	c #F0EDDE",
"S~ 	c #EBEBE1",
"T~ 	c #E3E4DC",
"U~ 	c #DCD9D2",
"V~ 	c #F2EDE7",
"W~ 	c #F7ECE6",
"X~ 	c #E3D4CF",
"Y~ 	c #887672",
"Z~ 	c #B7A49E",
"`~ 	c #EDDAD4",
" { 	c #ECD9D2",
".{ 	c #CCBBB3",
"+{ 	c #D7C6BC",
"@{ 	c #E2D4C9",
"#{ 	c #D4C8BC",
"${ 	c #CEC1B8",
"%{ 	c #D7CAC1",
"&{ 	c #DCCFC6",
"*{ 	c #C8BBB2",
"={ 	c #CEC0B7",
"-{ 	c #DACCC3",
";{ 	c #B7A9A0",
">{ 	c #86756D",
",{ 	c #85746C",
"'{ 	c #5F4E46",
"){ 	c #2D1C14",
"!{ 	c #8F7E76",
"~{ 	c #FBEAE0",
"{{ 	c #D8C8BB",
"]{ 	c #E2D4C7",
"^{ 	c #A19386",
"/{ 	c #77695C",
"({ 	c #9D8F82",
"_{ 	c #A09285",
":{ 	c #AD9F94",
"<{ 	c #C4B6AB",
"[{ 	c #B4A69B",
"}{ 	c #7D7165",
"|{ 	c #6B5F53",
"1{ 	c #685C50",
"2{ 	c #463930",
"3{ 	c #34271E",
"4{ 	c #3D3027",
"5{ 	c #392F25",
"6{ 	c #3C332A",
"7{ 	c #474036",
"8{ 	c #4E473D",
"9{ 	c #565249",
"0{ 	c #59554C",
"a{ 	c #413C38",
"b{ 	c #3C3733",
"c{ 	c #3B3833",
"d{ 	c #35322D",
"e{ 	c #393532",
"f{ 	c #27241F",
"g{ 	c #3C3731",
"h{ 	c #4B443C",
"i{ 	c #5B5249",
"j{ 	c #685E54",
"k{ 	c #776B5F",
"l{ 	c #867A6E",
"m{ 	c #615851",
"n{ 	c #6C6763",
"o{ 	c #9D9C9C",
"p{ 	c #E4E4E4",
"q{ 	c #FEFEFE",
"r{ 	c #FDFDFD",
"s{ 	c #FDFDFB",
"t{ 	c #E9E8E3",
"u{ 	c #E5E4DF",
"v{ 	c #ECE9E4",
"w{ 	c #DBD5D5",
"x{ 	c #EFEBEA",
"y{ 	c #FEFDFB",
"z{ 	c #FDFFFC",
"A{ 	c #F3F8F4",
"B{ 	c #F3F5F2",
"C{ 	c #F8F9F4",
"D{ 	c #FFFBF9",
"E{ 	c #D8CAC7",
"F{ 	c #82736E",
"G{ 	c #81726B",
"H{ 	c #DCD4C9",
"I{ 	c #EBE5D7",
"J{ 	c #F2F0E3",
"K{ 	c #E2E2D8",
"L{ 	c #F2F2EA",
"M{ 	c #F3F0E9",
"N{ 	c #F3EAE3",
"O{ 	c #ADA09A",
"P{ 	c #8B7C77",
"Q{ 	c #DECDC6",
"R{ 	c #E6D5CE",
"S{ 	c #F0DFD7",
"T{ 	c #E8DAD1",
"U{ 	c #DBCDC4",
"V{ 	c #DCD0C4",
"W{ 	c #E0D4C8",
"X{ 	c #D7CBBF",
"Y{ 	c #DDD0C7",
"Z{ 	c #F6E9E0",
"`{ 	c #EFE1D8",
" ] 	c #96887F",
".] 	c #46382F",
"+] 	c #27160E",
"@] 	c #4F3E36",
"#] 	c #918078",
"$] 	c #CFBEB6",
"%] 	c #AEA095",
"&] 	c #AC9E91",
"*] 	c #85776A",
"=] 	c #5B4D40",
"-] 	c #5E5045",
";] 	c #77695E",
">] 	c #796D61",
",] 	c #716559",
"'] 	c #706458",
")] 	c #63564D",
"!] 	c #372A21",
"~] 	c #33291F",
"{] 	c #423930",
"]] 	c #4A4339",
"^] 	c #4C453B",
"/] 	c #514A40",
"(] 	c #40392F",
"_] 	c #49453C",
":] 	c #514D44",
"<] 	c #3A352F",
"[] 	c #3F3A34",
"}] 	c #3F3A36",
"|] 	c #45403C",
"1] 	c #2E2B26",
"2] 	c #25211E",
"3] 	c #26211B",
"4] 	c #453E36",
"5] 	c #5A5148",
"6] 	c #6A6056",
"7] 	c #857C75",
"8] 	c #6E6761",
"9] 	c #585453",
"0] 	c #4C4B49",
"a] 	c #2C2A2B",
"b] 	c #FFFFFF",
"c] 	c #FCFCFC",
"d] 	c #F4F5F0",
"e] 	c #EAE9E5",
"f] 	c #E4E3DF",
"g] 	c #E7E3E0",
"h] 	c #D9D7D8",
"i] 	c #FBFDFA",
"j] 	c #FBFCF7",
"k] 	c #FCF1EB",
"l] 	c #AD9E99",
"m] 	c #6B5C55",
"n] 	c #91837A",
"o] 	c #D3C9BF",
"p] 	c #EEE8DC",
"q] 	c #F7F3E7",
"r] 	c #E1E1D5",
"s] 	c #E1E3D8",
"t] 	c #E9EAE2",
"u] 	c #FCFCF4",
"v] 	c #F7F4ED",
"w] 	c #FFF7F0",
"x] 	c #C5B8B2",
"y] 	c #B7A8A3",
"z] 	c #E0D1CA",
"A] 	c #DECFC8",
"B] 	c #E5D6CF",
"C] 	c #E6D8CF",
"D] 	c #DDCFC6",
"E] 	c #E6D9D0",
"F] 	c #E4DAD0",
"G] 	c #DDD3CA",
"H] 	c #D8CEC5",
"I] 	c #D6CCC3",
"J] 	c #D1C7BE",
"K] 	c #DFD2CA",
"L] 	c #D6C9C1",
"M] 	c #C3B6AE",
"N] 	c #90837B",
"O] 	c #6B5E56",
"P] 	c #70635B",
"Q] 	c #6C5F57",
"R] 	c #574841",
"S] 	c #A3948D",
"T] 	c #D1C2BB",
"U] 	c #AFA099",
"V] 	c #A1938A",
"W] 	c #87796E",
"X] 	c #605448",
"Y] 	c #5C4F46",
"Z] 	c #51443B",
"`] 	c #5D5047",
" ^ 	c #544A40",
".^ 	c #5E544A",
"+^ 	c #584E45",
"@^ 	c #564D44",
"#^ 	c #4E453C",
"$^ 	c #524B41",
"%^ 	c #534C42",
"&^ 	c #3B342C",
"*^ 	c #2D2920",
"=^ 	c #2A251F",
"-^ 	c #2D2822",
";^ 	c #48433F",
">^ 	c #363530",
",^ 	c #383732",
"'^ 	c #312E27",
")^ 	c #3A3128",
"!^ 	c #4F463D",
"~^ 	c #6E655C",
"{^ 	c #81786F",
"]^ 	c #8D847D",
"^^ 	c #A5A4A3",
"/^ 	c #4C4845",
"(^ 	c #BCBBBB",
"_^ 	c #4F4E4C",
":^ 	c #626061",
"<^ 	c #FBFBFD",
"[^ 	c #F8F8F8",
"}^ 	c #E3E3E1",
"|^ 	c #E0DFDB",
"1^ 	c #ECEBE7",
"2^ 	c #EBE8E3",
"3^ 	c #D9D8D4",
"4^ 	c #DEDEE0",
"5^ 	c #ECEBF0",
"6^ 	c #FAFAFC",
"7^ 	c #FFFCF4",
"8^ 	c #DBCEC6",
"9^ 	c #5E5047",
"0^ 	c #867970",
"a^ 	c #DAD2C7",
"b^ 	c #F7F3E8",
"c^ 	c #F9F7EB",
"d^ 	c #EDEFE4",
"e^ 	c #EFF0E8",
"f^ 	c #FEFAF1",
"g^ 	c #FFF9F1",
"h^ 	c #F0E5DF",
"i^ 	c #B9ACA6",
"j^ 	c #BEB1A9",
"k^ 	c #DDCEC7",
"l^ 	c #D9CAC3",
"m^ 	c #CEC1B9",
"n^ 	c #D6C9C0",
"o^ 	c #C4BAB0",
"p^ 	c #CDC3B9",
"q^ 	c #C3B9B0",
"r^ 	c #AFA59C",
"s^ 	c #665951",
"t^ 	c #6F625A",
"u^ 	c #897C74",
"v^ 	c #887B73",
"w^ 	c #8A7D75",
"x^ 	c #9F9089",
"y^ 	c #8E7F78",
"z^ 	c #70615A",
"A^ 	c #61544C",
"B^ 	c #695C53",
"C^ 	c #61544B",
"D^ 	c #65584F",
"E^ 	c #71645B",
"F^ 	c #645A50",
"G^ 	c #63594F",
"H^ 	c #61574D",
"I^ 	c #4F453C",
"J^ 	c #51483F",
"K^ 	c #645B52",
"L^ 	c #4B4239",
"M^ 	c #494238",
"N^ 	c #463F35",
"O^ 	c #60594F",
"P^ 	c #5B544C",
"Q^ 	c #4A463D",
"R^ 	c #3D3930",
"S^ 	c #2E2923",
"T^ 	c #423D39",
"U^ 	c #46413D",
"V^ 	c #312E29",
"W^ 	c #45443F",
"X^ 	c #4C4942",
"Y^ 	c #423F38",
"Z^ 	c #322D27",
"`^ 	c #29221A",
" / 	c #312821",
"./ 	c #6B645C",
"+/ 	c #504F4D",
"@/ 	c #8A888B",
"#/ 	c #F5F5F7",
"$/ 	c #FEFEFF",
"%/ 	c #F1EFF0",
"&/ 	c #E1E0DE",
"*/ 	c #E8E5E0",
"=/ 	c #D9D8D6",
"-/ 	c #EBECF0",
";/ 	c #F2F3F8",
">/ 	c #FEFCFD",
",/ 	c #FAF0E7",
"'/ 	c #EFE3D7",
")/ 	c #807267",
"!/ 	c #65574C",
"~/ 	c #8B8177",
"{/ 	c #E9E3D7",
"]/ 	c #FAF8EC",
"^/ 	c #EFEFE5",
"// 	c #FDFEF6",
"(/ 	c #F3F4EC",
"_/ 	c #FBFCF4",
":/ 	c #FCF9F2",
"</ 	c #EEEAE1",
"[/ 	c #ECE5DD",
"}/ 	c #E5DCD5",
"|/ 	c #AA9F99",
"1/ 	c #B5A8A2",
"2/ 	c #DBCEC8",
"3/ 	c #DACDC5",
"4/ 	c #E3D6CE",
"5/ 	c #CEC4BB",
"6/ 	c #B8AEA5",
"7/ 	c #C0B6AD",
"8/ 	c #968C83",
"9/ 	c #8D837A",
"0/ 	c #6F655C",
"a/ 	c #948A81",
"b/ 	c #7B7168",
"c/ 	c #7E7169",
"d/ 	c #655850",
"e/ 	c #5A4D45",
"f/ 	c #564941",
"g/ 	c #5E544B",
"h/ 	c #6A6057",
"i/ 	c #5F564D",
"j/ 	c #675E55",
"k/ 	c #484139",
"l/ 	c #463F37",
"m/ 	c #342D25",
"n/ 	c #362F27",
"o/ 	c #4C453D",
"p/ 	c #585149",
"q/ 	c #4F4840",
"r/ 	c #514A42",
"s/ 	c #544D45",
"t/ 	c #45403A",
"u/ 	c #5D5852",
"v/ 	c #4F4A44",
"w/ 	c #4E4945",
"x/ 	c #34332E",
"y/ 	c #282722",
"z/ 	c #2C2922",
"A/ 	c #39342E",
"B/ 	c #423E35",
"C/ 	c #3D362E",
"D/ 	c #2D261E",
"E/ 	c #39322A",
"F/ 	c #5C554D",
"G/ 	c #424043",
"H/ 	c #F4F4F6",
"I/ 	c #ECEAEB",
"J/ 	c #EAE9E7",
"K/ 	c #E5E4E0",
"L/ 	c #DEDDD9",
"M/ 	c #E0DDD8",
"N/ 	c #E4E3E1",
"O/ 	c #F7F8FC",
"P/ 	c #F9FAFF",
"Q/ 	c #FBFAFF",
"R/ 	c #FEFAF9",
"S/ 	c #FFF4EE",
"T/ 	c #EFE2D9",
"U/ 	c #DDCFC2",
"V/ 	c #A59588",
"W/ 	c #6E6053",
"X/ 	c #C5BBB1",
"Y/ 	c #F7F0E6",
"Z/ 	c #F0EDE4",
"`/ 	c #E6E7DF",
" ( 	c #EEF1E8",
".( 	c #EFEBE2",
"+( 	c #C8BFB8",
"@( 	c #C2B7B1",
"#( 	c #D0C3BD",
"$( 	c #D8CBC3",
"%( 	c #C8BEB5",
"&( 	c #B7ADA4",
"*( 	c #BDB3AA",
"=( 	c #958B82",
"-( 	c #70665D",
";( 	c #857B72",
">( 	c #675D54",
",( 	c #463C33",
"'( 	c #453B32",
")( 	c #5F524A",
"!( 	c #453830",
"~( 	c #362921",
"{( 	c #483E35",
"]( 	c #3F362D",
"^( 	c #342B22",
"/( 	c #433A31",
"(( 	c #4C433A",
"_( 	c #453C35",
":( 	c #575048",
"<( 	c #4A433B",
"[( 	c #474038",
"}( 	c #443D35",
"|( 	c #3A332B",
"1( 	c #443F39",
"2( 	c #4B4640",
"3( 	c #393430",
"4( 	c #3D3834",
"5( 	c #4A4541",
"6( 	c #3D3A35",
"7( 	c #2B2A25",
"8( 	c #201D18",
"9( 	c #5A534B",
"0( 	c #322B23",
"a( 	c #58514B",
"b( 	c #746F6B",
"c( 	c #6B6662",
"d( 	c #CDCDCD",
"e( 	c #848483",
"f( 	c #F8F8FA",
"g( 	c #E9E7E8",
"h( 	c #E3DFDC",
"i( 	c #F1EDEA",
"j( 	c #FFFAF6",
"k( 	c #FFFDFC",
"l( 	c #F6F7FB",
"m( 	c #FEFFFF",
"n( 	c #FDFBFE",
"o( 	c #FBF5F5",
"p( 	c #FAEDE5",
"q( 	c #BCAEA3",
"r( 	c #AFA194",
"s( 	c #9E9083",
"t( 	c #C5BBAF",
"u( 	c #E6DED3",
"v( 	c #F3F0E7",
"w( 	c #E8E9E3",
"x( 	c #F0F1EB",
"y( 	c #F5F5ED",
"z( 	c #FAFAF2",
"A( 	c #FDFAF3",
"B( 	c #F5F2EB",
"C( 	c #EAE5DF",
"D( 	c #DDD8D2",
"E( 	c #D2C9C2",
"F( 	c #C7BEB7",
"G( 	c #BCB1AB",
"H( 	c #B9AEA8",
"I( 	c #BEB3AD",
"J( 	c #C1B6B0",
"K( 	c #BBB0AA",
"L( 	c #B6ABA5",
"M( 	c #B1A6A0",
"N( 	c #B6A9A1",
"O( 	c #A59890",
"P( 	c #83766E",
"Q( 	c #7F726A",
"R( 	c #9D9088",
"S( 	c #978D84",
"T( 	c #392F26",
"U( 	c #3A3027",
"V( 	c #3F352C",
"W( 	c #31271E",
"X( 	c #271D14",
"Y( 	c #393027",
"Z( 	c #2C231C",
"`( 	c #211811",
" _ 	c #1A130B",
"._ 	c #1B140C",
"+_ 	c #261F17",
"@_ 	c #27201A",
"#_ 	c #2E2721",
"$_ 	c #2F2A24",
"%_ 	c #3E372F",
"&_ 	c #352C25",
"*_ 	c #3B322B",
"=_ 	c #332C24",
"-_ 	c #3B342E",
";_ 	c #4C453F",
">_ 	c #3D3630",
",_ 	c #3E3933",
"'_ 	c #433E38",
")_ 	c #46413B",
"!_ 	c #494641",
"~_ 	c #383530",
"{_ 	c #3D3A33",
"]_ 	c #17120C",
"^_ 	c #514C46",
"/_ 	c #4C4741",
"(_ 	c #66615D",
"__ 	c #F2F2F4",
":_ 	c #F3F3F5",
"<_ 	c #ECEBE9",
"[_ 	c #F4F3EF",
"}_ 	c #FFFBF7",
"|_ 	c #FFFDFB",
"1_ 	c #E3D4CD",
"2_ 	c #CBBAB0",
"3_ 	c #CCBCAF",
"4_ 	c #AD9F92",
"5_ 	c #C1B8A9",
"6_ 	c #DCD4C7",
"7_ 	c #EFE9DD",
"8_ 	c #F3EFE6",
"9_ 	c #FEFBF4",
"0_ 	c #F0EFEA",
"a_ 	c #EFEEE9",
"b_ 	c #EBE8E1",
"c_ 	c #E4E1DA",
"d_ 	c #DCD7D1",
"e_ 	c #CFCAC4",
"f_ 	c #C2BBB5",
"g_ 	c #BBB2AB",
"h_ 	c #B9B0A9",
"i_ 	c #C9BEB8",
"j_ 	c #C3B8B2",
"k_ 	c #BDB2AC",
"l_ 	c #B3A8A2",
"m_ 	c #ABA09A",
"n_ 	c #A69B95",
"o_ 	c #9F948E",
"p_ 	c #B7AAA2",
"q_ 	c #AEA199",
"r_ 	c #958880",
"s_ 	c #675A52",
"t_ 	c #594F46",
"u_ 	c #4D433A",
"v_ 	c #372D24",
"w_ 	c #3D332A",
"x_ 	c #352B22",
"y_ 	c #30261D",
"z_ 	c #3E342B",
"A_ 	c #382E25",
"B_ 	c #3B3229",
"C_ 	c #332A21",
"D_ 	c #2E251E",
"E_ 	c #281F18",
"F_ 	c #221B13",
"G_ 	c #1F1812",
"H_ 	c #221B15",
"I_ 	c #201B15",
"J_ 	c #221D17",
"K_ 	c #28231D",
"L_ 	c #271E17",
"M_ 	c #38312B",
"N_ 	c #4A433D",
"O_ 	c #433C36",
"P_ 	c #4A453F",
"Q_ 	c #47423C",
"R_ 	c #4F4C45",
"S_ 	c #302D26",
"T_ 	c #322F28",
"U_ 	c #25201A",
"V_ 	c #413C36",
"W_ 	c #57524E",
"X_ 	c #4F4B48",
"Y_ 	c #3D3936",
"Z_ 	c #5B5A59",
"`_ 	c #A6A6A7",
" : 	c #EEEEEE",
".: 	c #F3F2F0",
"+: 	c #FDF9F6",
"@: 	c #E0E0E0",
"#: 	c #888282",
"$: 	c #716765",
"%: 	c #8E817B",
"&: 	c #7E6F68",
"*: 	c #AA998F",
"=: 	c #B3A598",
"-: 	c #AFA395",
";: 	c #D4CDBD",
">: 	c #DAD4C6",
",: 	c #F8F4E8",
"': 	c #F0EDE8",
"): 	c #D2CDC7",
"!: 	c #D0C9C3",
"~: 	c #C8C1BB",
"{: 	c #BEB7B1",
"]: 	c #C1B8B3",
"^: 	c #CAC1BC",
"/: 	c #CDC2BC",
"(: 	c #AEA39D",
"_: 	c #A2958F",
":: 	c #9A8D87",
"<: 	c #968983",
"[: 	c #8F827C",
"}: 	c #84756E",
"|: 	c #766760",
"1: 	c #6C5D56",
"2: 	c #5D5048",
"3: 	c #4E4139",
"4: 	c #44372F",
"5: 	c #41342C",
"6: 	c #4A3D35",
"7: 	c #43362E",
"8: 	c #3B3128",
"9: 	c #281F16",
"0: 	c #2C231A",
"a: 	c #322922",
"b: 	c #352E26",
"c: 	c #383129",
"d: 	c #211A14",
"e: 	c #1F1A14",
"f: 	c #1D1812",
"g: 	c #1E1913",
"h: 	c #29201B",
"i: 	c #241B16",
"j: 	c #251C17",
"k: 	c #2B221D",
"l: 	c #2D241F",
"m: 	c #453E38",
"n: 	c #4D4640",
"o: 	c #5D5650",
"p: 	c #524D47",
"q: 	c #545047",
"r: 	c #3E3A31",
"s: 	c #3D3832",
"t: 	c #241F19",
"u: 	c #A1A1A1",
"v: 	c #C7C7C7",
"w: 	c #D2D2D0",
"x: 	c #E7E6E2",
"y: 	c #F3F2ED",
"z: 	c #F3F0EB",
"A: 	c #FFFCF5",
"B: 	c #EDECE8",
"C: 	c #76726F",
"D: 	c #342C29",
"E: 	c #392E2A",
"F: 	c #3D302A",
"G: 	c #564740",
"H: 	c #918579",
"I: 	c #C2BAAD",
"J: 	c #E6E3D4",
"K: 	c #DDDBCE",
"L: 	c #FFFFF3",
"M: 	c #ECE4E2",
"N: 	c #ECE4E1",
"O: 	c #D4CDC7",
"P: 	c #CCC5BF",
"Q: 	c #C5BEB8",
"R: 	c #C3BCB6",
"S: 	c #BFB8B2",
"T: 	c #BAB3AD",
"U: 	c #BFB6B1",
"V: 	c #C7BEB9",
"W: 	c #AFA49E",
"X: 	c #A39892",
"Y: 	c #968B85",
"Z: 	c #8B7E78",
"`: 	c #897C76",
" < 	c #6E5F58",
".< 	c #6A5B54",
"+< 	c #6D5E57",
"@< 	c #60534B",
"#< 	c #54473F",
"$< 	c #4F423A",
"%< 	c #433930",
"&< 	c #362D24",
"*< 	c #413A32",
"=< 	c #2E271F",
"-< 	c #2B241C",
";< 	c #29221C",
">< 	c #2B241E",
",< 	c #29241E",
"'< 	c #231E18",
")< 	c #261F19",
"!< 	c #2A211C",
"~< 	c #322924",
"{< 	c #342B26",
"]< 	c #352E28",
"^< 	c #3E3731",
"/< 	c #403933",
"(< 	c #3C382F",
"_< 	c #454138",
":< 	c #4C483F",
"<< 	c #524E45",
"[< 	c #444037",
"}< 	c #403B37",
"|< 	c #3B3633",
"1< 	c #ABABAB",
"2< 	c #E5E5E5",
"3< 	c #E4E4E2",
"4< 	c #F8F5EE",
"5< 	c #FFFEF5",
"6< 	c #D5D1C8",
"7< 	c #6B6660",
"8< 	c #41342E",
"9< 	c #41322B",
"0< 	c #9A8B84",
"a< 	c #998B82",
"b< 	c #7B7167",
"c< 	c #D1CBBF",
"d< 	c #FBF9ED",
"e< 	c #F3F3E7",
"f< 	c #FCFEF3",
"g< 	c #FDFDF5",
"h< 	c #FEF9F5",
"i< 	c #EAE0DF",
"j< 	c #D8CDCB",
"k< 	c #D1C8C3",
"l< 	c #CFC6BF",
"m< 	c #CAC1BA",
"n< 	c #C0B7B0",
"o< 	c #B5ACA7",
"p< 	c #ADA49F",
"q< 	c #A79E99",
"r< 	c #A29994",
"s< 	c #A39894",
"t< 	c #998E8A",
"u< 	c #918380",
"v< 	c #877976",
"w< 	c #80726F",
"x< 	c #847673",
"y< 	c #887976",
"z< 	c #83746F",
"A< 	c #7E6D66",
"B< 	c #7D6C64",
"C< 	c #7C6B63",
"D< 	c #78675F",
"E< 	c #6C5E55",
"F< 	c #605249",
"G< 	c #584A41",
"H< 	c #55473E",
"I< 	c #50433A",
"J< 	c #483B32",
"K< 	c #4F4239",
"L< 	c #493F35",
"M< 	c #382F26",
"N< 	c #322920",
"O< 	c #3E352C",
"P< 	c #2E2520",
"Q< 	c #312823",
"R< 	c #302722",
"S< 	c #2F2822",
"T< 	c #433C34",
"U< 	c #3F3830",
"V< 	c #585147",
"W< 	c #423B33",
"X< 	c #28211B",
"Y< 	c #5B544E",
"Z< 	c #48413B",
"`< 	c #4B443E",
" [ 	c #DEDEDE",
".[ 	c #959593",
"+[ 	c #CFCEC9",
"@[ 	c #EFECE5",
"#[ 	c #FAF6EB",
"$[ 	c #FFFEF4",
"%[ 	c #C0B9AF",
"&[ 	c #373026",
"*[ 	c #7B6C65",
"=[ 	c #93827B",
"-[ 	c #A08F88",
";[ 	c #ACA39A",
">[ 	c #E1DDD2",
",[ 	c #FAFAF0",
"'[ 	c #FEFFF6",
")[ 	c #FEFFF7",
"![ 	c #FBFAF5",
"~[ 	c #EFE7E4",
"{[ 	c #DED2D2",
"][ 	c #D2C4C3",
"^[ 	c #D6CBC7",
"/[ 	c #D6CDC6",
"([ 	c #D0C7C0",
"_[ 	c #B1A8A3",
":[ 	c #A59C97",
"<[ 	c #988F8A",
"[[ 	c #8E8580",
"}[ 	c #968B87",
"|[ 	c #8F8480",
"1[ 	c #8A7C79",
"2[ 	c #817370",
"3[ 	c #887A77",
"4[ 	c #8D7E7B",
"5[ 	c #867772",
"6[ 	c #897871",
"7[ 	c #7E6D65",
"8[ 	c #726159",
"9[ 	c #6F5E56",
"0[ 	c #75645C",
"a[ 	c #4E4037",
"b[ 	c #56483F",
"c[ 	c #53463D",
"d[ 	c #43362D",
"e[ 	c #3F3229",
"f[ 	c #2F261D",
"g[ 	c #41382F",
"h[ 	c #40372E",
"i[ 	c #241D15",
"j[ 	c #282119",
"k[ 	c #2C231E",
"l[ 	c #332A25",
"m[ 	c #494037",
"n[ 	c #443B32",
"o[ 	c #423B31",
"p[ 	c #3C352D",
"q[ 	c #5D564E",
"r[ 	c #534C46",
"s[ 	c #504943",
"t[ 	c #81817F",
"u[ 	c #E6E7E2",
"v[ 	c #BBBAB5",
"w[ 	c #F4F1EA",
"x[ 	c #FBF7EC",
"y[ 	c #AFA99D",
"z[ 	c #585244",
"A[ 	c #574F42",
"B[ 	c #D3C5BC",
"C[ 	c #BBAAA2",
"D[ 	c #B8A7A0",
"E[ 	c #F1E4DC",
"F[ 	c #CEC7BF",
"G[ 	c #F6F6EC",
"H[ 	c #F8FBF2",
"I[ 	c #FEFFF8",
"J[ 	c #FCFFF8",
"K[ 	c #F2EFEA",
"L[ 	c #E3DBD8",
"M[ 	c #CBBDBC",
"N[ 	c #C2B2B2",
"O[ 	c #B9AEAA",
"P[ 	c #A19692",
"Q[ 	c #988D89",
"R[ 	c #938884",
"S[ 	c #918682",
"T[ 	c #958A86",
"U[ 	c #908581",
"V[ 	c #8E807D",
"W[ 	c #857673",
"X[ 	c #8A7B78",
"Y[ 	c #8B7977",
"Z[ 	c #816F6B",
"`[ 	c #917E77",
" } 	c #7A685E",
".} 	c #635147",
"+} 	c #5F4D43",
"@} 	c #66554B",
"#} 	c #68574D",
"$} 	c #5B4A40",
"%} 	c #4C3B31",
"&} 	c #3A2C21",
"*} 	c #413328",
"=} 	c #45372C",
"-} 	c #3B2D22",
";} 	c #362A1E",
">} 	c #483C30",
",} 	c #4F4337",
"'} 	c #3D3125",
")} 	c #291F15",
"!} 	c #2A2016",
"~} 	c #2B2118",
"{} 	c #2E241B",
"]} 	c #2A2118",
"^} 	c #261D14",
"/} 	c #2F261F",
"(} 	c #2B221B",
"_} 	c #272018",
":} 	c #3C352F",
"<} 	c #50483D",
"[} 	c #443C31",
"}} 	c #463D34",
"|} 	c #4D463E",
"1} 	c #7D746D",
"2} 	c #7A716A",
"3} 	c #6C635C",
"4} 	c #625751",
"5} 	c #423B35",
"6} 	c #DAD9D5",
"7} 	c #B6B2A9",
"8} 	c #F6F2E7",
"9} 	c #EDE7DB",
"0} 	c #F9F3E5",
"a} 	c #E0D8CB",
"b} 	c #736A5B",
"c} 	c #625948",
"d} 	c #514535",
"e} 	c #BDAFA2",
"f} 	c #E4D4C7",
"g} 	c #B7A69C",
"h} 	c #CCBEB5",
"i} 	c #FFFAF4",
"j} 	c #F2EBE3",
"k} 	c #FBF8F1",
"l} 	c #F8F9F3",
"m} 	c #E0DFDA",
"n} 	c #CEC9C5",
"o} 	c #D8CECC",
"p} 	c #B0A2A1",
"q} 	c #8E7F7C",
"r} 	c #8C817D",
"s} 	c #8D827E",
"t} 	c #938882",
"u} 	c #A0938D",
"v} 	c #92837E",
"w} 	c #877571",
"x} 	c #84716D",
"y} 	c #77645E",
"z} 	c #78665C",
"A} 	c #675549",
"B} 	c #4E3C30",
"C} 	c #49372B",
"D} 	c #433326",
"E} 	c #463629",
"F} 	c #403023",
"G} 	c #382A1F",
"H} 	c #2C2014",
"I} 	c #2E2216",
"J} 	c #23170B",
"K} 	c #2A1E12",
"L} 	c #2E2118",
"M} 	c #2F2219",
"N} 	c #2C1F16",
"O} 	c #291C14",
"P} 	c #291F16",
"Q} 	c #2D231A",
"R} 	c #30271E",
"S} 	c #211813",
"T} 	c #312A24",
"U} 	c #2D2620",
"V} 	c #251E14",
"W} 	c #31281F",
"X} 	c #6E675D",
"Y} 	c #302921",
"Z} 	c #5E554E",
"`} 	c #766D66",
" | 	c #736A63",
".| 	c #696059",
"+| 	c #5D544D",
"@| 	c #504A4A",
"#| 	c #C3BEBA",
"$| 	c #CAC3BB",
"%| 	c #D0C8BD",
"&| 	c #DED5C6",
"*| 	c #F2E6D6",
"=| 	c #E6DBC9",
"-| 	c #B7AA99",
";| 	c #8B7E6D",
">| 	c #685745",
",| 	c #988775",
"'| 	c #C8B7A7",
")| 	c #A39384",
"!| 	c #DFCFC2",
"~| 	c #E7D9D0",
"{| 	c #E0D5CF",
"]| 	c #F7EEE9",
"^| 	c #FDF5F2",
"/| 	c #DAD2CF",
"(| 	c #CBC3C0",
"_| 	c #9F9490",
":| 	c #948683",
"<| 	c #897B78",
"[| 	c #958A88",
"}| 	c #988E8C",
"|| 	c #9D9290",
"1| 	c #9E938F",
"2| 	c #9D8F8C",
"3| 	c #998C84",
"4| 	c #8D7F76",
"5| 	c #908279",
"6| 	c #907F77",
"7| 	c #8A7971",
"8| 	c #86736C",
"9| 	c #806D66",
"0| 	c #735F58",
"a| 	c #655148",
"b| 	c #524034",
"c| 	c #4C3A2C",
"d| 	c #483527",
"e| 	c #4A3729",
"f| 	c #4C392B",
"g| 	c #463426",
"h| 	c #382618",
"i| 	c #2B1B0C",
"j| 	c #362617",
"k| 	c #38281B",
"l| 	c #37291C",
"m| 	c #36281B",
"n| 	c #261C10",
"o| 	c #241A10",
"p| 	c #271D11",
"q| 	c #2C1E13",
"r| 	c #2E2015",
"s| 	c #302217",
"t| 	c #2E2017",
"u| 	c #2D2017",
"v| 	c #2C2218",
"w| 	c #2C251F",
"x| 	c #28201D",
"y| 	c #2A221F",
"z| 	c #302923",
"A| 	c #332C22",
"B| 	c #312A20",
"C| 	c #5E574F",
"D| 	c #332F26",
"E| 	c #363229",
"F| 	c #4E473F",
"G| 	c #615A52",
"H| 	c #B9B9B9",
"I| 	c #A09A9A",
"J| 	c #C4BAB8",
"K| 	c #C9C0B7",
"L| 	c #E9DDCF",
"M| 	c #F7ECDA",
"N| 	c #EBDECD",
"O| 	c #E5D8C5",
"P| 	c #CFC0AD",
"Q| 	c #9D8C7A",
"R| 	c #65533F",
"S| 	c #9E8C78",
"T| 	c #E7D4C3",
"U| 	c #E2D2C2",
"V| 	c #FFF2E5",
"W| 	c #EEE0D7",
"X| 	c #DACDC7",
"Y| 	c #DBD0CC",
"Z| 	c #DBD0CE",
"`| 	c #968B89",
" 1 	c #9A8F8B",
".1 	c #978C88",
"+1 	c #978A84",
"@1 	c #9A8C89",
"#1 	c #988D8B",
"$1 	c #9E9493",
"%1 	c #A79C9A",
"&1 	c #A99E9A",
"*1 	c #A59794",
"=1 	c #9A8D85",
"-1 	c #91827B",
";1 	c #8C7E75",
">1 	c #8B7A70",
",1 	c #8D7C72",
"'1 	c #8D7B71",
")1 	c #87756B",
"!1 	c #7F6B62",
"~1 	c #77635A",
"{1 	c #715A52",
"]1 	c #6A534B",
"^1 	c #6B574C",
"/1 	c #5C493B",
"(1 	c #584536",
"_1 	c #534031",
":1 	c #493627",
"<1 	c #402F1F",
"[1 	c #3D2B1D",
"}1 	c #372718",
"|1 	c #2D1F12",
"11 	c #281E12",
"21 	c #33271B",
"31 	c #322419",
"41 	c #352518",
"51 	c #35241A",
"61 	c #342319",
"71 	c #2F2116",
"81 	c #2F251C",
"91 	c #2D241D",
"01 	c #29211E",
"a1 	c #2C2421",
"b1 	c #30291F",
"c1 	c #4D4842",
"d1 	c #3A362D",
"e1 	c #524B43",
"f1 	c #55504A",
"g1 	c #A1A1A0",
"h1 	c #B4AEAE",
"i1 	c #CBC1BF",
"j1 	c #DAD1C8",
"k1 	c #FCF0E2",
"l1 	c #FCF1DF",
"m1 	c #DBCEBD",
"n1 	c #C6B9A6",
"o1 	c #AE9E8E",
"p1 	c #857462",
"q1 	c #7C6A56",
"r1 	c #C0AE9A",
"s1 	c #F6E3D2",
"t1 	c #E7D7C8",
"u1 	c #E8D7CD",
"v1 	c #E8D9D2",
"w1 	c #EDE0DA",
"x1 	c #E0D5D1",
"y1 	c #A09593",
"z1 	c #746868",
"A1 	c #6E6361",
"B1 	c #847977",
"C1 	c #978986",
"D1 	c #A0928F",
"E1 	c #A39592",
"F1 	c #9F9492",
"G1 	c #A19595",
"H1 	c #A19694",
"I1 	c #988A87",
"J1 	c #8F827A",
"K1 	c #897A73",
"L1 	c #86786F",
"M1 	c #918076",
"N1 	c #948379",
"O1 	c #98867C",
"P1 	c #96847A",
"Q1 	c #8D7970",
"R1 	c #826E65",
"S1 	c #7F6860",
"T1 	c #806961",
"U1 	c #867065",
"V1 	c #816B5E",
"W1 	c #7C6659",
"X1 	c #786255",
"Y1 	c #755F52",
"Z1 	c #705A4D",
"`1 	c #695345",
" 2 	c #634D3F",
".2 	c #5B4538",
"+2 	c #4B382A",
"@2 	c #3B281A",
"#2 	c #332115",
"$2 	c #332218",
"%2 	c #35271C",
"&2 	c #392B20",
"*2 	c #3C2E23",
"=2 	c #3C2B21",
"-2 	c #3A291F",
";2 	c #37261C",
">2 	c #32241B",
",2 	c #31231A",
"'2 	c #271C16",
")2 	c #281D17",
"!2 	c #281F1A",
"~2 	c #2A261D",
"{2 	c #4F4B42",
"]2 	c #5A564D",
"^2 	c #848383",
"/2 	c #8A8484",
"(2 	c #C4BBB6",
"_2 	c #E8DFD6",
":2 	c #F7EBDD",
"<2 	c #EADECE",
"[2 	c #E0D3C2",
"}2 	c #C8BBA8",
"|2 	c #A59585",
"12 	c #8F7E6E",
"22 	c #756251",
"32 	c #C3B09F",
"42 	c #E5D4C4",
"52 	c #DBC9BB",
"62 	c #C9B8AE",
"72 	c #C0B1AA",
"82 	c #C2B3AE",
"92 	c #B4A6A3",
"02 	c #837575",
"a2 	c #7C7070",
"b2 	c #897E7C",
"c2 	c #908583",
"d2 	c #998B8A",
"e2 	c #A69895",
"f2 	c #928785",
"g2 	c #867B77",
"h2 	c #82756F",
"i2 	c #95877E",
"j2 	c #95847A",
"k2 	c #97867C",
"l2 	c #9C8A80",
"m2 	c #9D8B81",
"n2 	c #937F76",
"o2 	c #836F66",
"p2 	c #7E675F",
"q2 	c #866F67",
"r2 	c #887267",
"s2 	c #8A7469",
"t2 	c #8A7467",
"u2 	c #897165",
"v2 	c #846C60",
"w2 	c #7E665A",
"x2 	c #7B6456",
"y2 	c #71594D",
"z2 	c #5F493C",
"A2 	c #4C3629",
"B2 	c #433022",
"C2 	c #443226",
"D2 	c #47352B",
"E2 	c #46352B",
"F2 	c #443329",
"G2 	c #402F25",
"H2 	c #3B2A20",
"I2 	c #33251C",
"J2 	c #2B1E15",
"K2 	c #261B15",
"L2 	c #271E19",
"M2 	c #302720",
"N2 	c #343027",
"O2 	c #2F2B22",
"P2 	c #433F36",
"Q2 	c #645D55",
"R2 	c #5F5A54",
"S2 	c #5B5858",
"T2 	c #6F6969",
"U2 	c #BBB2AD",
"V2 	c #E7DFD4",
"W2 	c #F1E5D7",
"X2 	c #E1D5C5",
"Y2 	c #EBDBCB",
"Z2 	c #C4B2A4",
"`2 	c #9D8C7C",
" 3 	c #958273",
".3 	c #CEBBAC",
"+3 	c #DAC8BA",
"@3 	c #E1CFC3",
"#3 	c #CAB9B1",
"$3 	c #95867F",
"%3 	c #80716C",
"&3 	c #867875",
"*3 	c #8B7D7D",
"=3 	c #9A8C8C",
"-3 	c #AB9D9D",
";3 	c #9F9190",
">3 	c #978988",
",3 	c #A09291",
"'3 	c #9B8C89",
")3 	c #90827F",
"!3 	c #A49997",
"~3 	c #9A8F8D",
"{3 	c #8E807F",
"]3 	c #827471",
"^3 	c #80736D",
"/3 	c #9F9188",
"(3 	c #A19086",
"_3 	c #A08E84",
":3 	c #9E8C82",
"<3 	c #948077",
"[3 	c #847067",
"}3 	c #79655C",
"|3 	c #78645B",
"13 	c #7D665E",
"23 	c #856C65",
"33 	c #876F65",
"43 	c #866E64",
"53 	c #856A5F",
"63 	c #6C5245",
"73 	c #5E4739",
"83 	c #523A2E",
"93 	c #503A2D",
"03 	c #543E33",
"a3 	c #533F34",
"b3 	c #503C31",
"c3 	c #4C3A2E",
"d3 	c #4C3A30",
"e3 	c #47362C",
"f3 	c #3E3025",
"g3 	c #36281F",
"h3 	c #2E2119",
"i3 	c #2C1F17",
"j3 	c #291E18",
"k3 	c #2A1F19",
"l3 	c #2B201A",
"m3 	c #2A211A",
"n3 	c #534C44",
"o3 	c #49423A",
"p3 	c #3A3633",
"q3 	c #393534",
"r3 	c #726A68",
"s3 	c #E5D9CB",
"t3 	c #E7DACA",
"u3 	c #E9D9C9",
"v3 	c #EADACA",
"w3 	c #C0AEA0",
"x3 	c #7C6A5C",
"y3 	c #E8D5C7",
"z3 	c #F9E6D8",
"A3 	c #D9C7BB",
"B3 	c #C6B4AA",
"C3 	c #B6A59D",
"D3 	c #918079",
"E3 	c #8A7876",
"F3 	c #9F908D",
"G3 	c #938383",
"H3 	c #9B8D8D",
"I3 	c #A89A9A",
"J3 	c #A39594",
"K3 	c #958683",
"L3 	c #91827F",
"M3 	c #908281",
"N3 	c #8B807C",
"O3 	c #877A74",
"P3 	c #867973",
"Q3 	c #8E8077",
"R3 	c #8F7E74",
"S3 	c #89786E",
"T3 	c #837167",
"U3 	c #7C6A60",
"V3 	c #766259",
"W3 	c #6E5A51",
"X3 	c #6A564D",
"Y3 	c #69554C",
"Z3 	c #604C45",
"`3 	c #5F4B44",
" 4 	c #5E4741",
".4 	c #5A433B",
"+4 	c #59423A",
"@4 	c #5D453B",
"#4 	c #654D41",
"$4 	c #6D5247",
"%4 	c #63493C",
"&4 	c #5D4336",
"*4 	c #573F33",
"=4 	c #594135",
"-4 	c #5A4439",
";4 	c #574136",
">4 	c #523C31",
",4 	c #4D392E",
"'4 	c #524036",
")4 	c #4E3D33",
"!4 	c #46382D",
"~4 	c #403227",
"{4 	c #3A2C23",
"]4 	c #2F221A",
"^4 	c #2C211B",
"/4 	c #393029",
"(4 	c #49443E",
"_4 	c #403B38",
":4 	c #3D3938",
"<4 	c #9F9E9F",
"[4 	c #9B9391",
"}4 	c #B2A89E",
"|4 	c #CDC1B3",
"14 	c #EEE1D1",
"24 	c #F2E2D2",
"34 	c #D7C7B7",
"44 	c #B5A395",
"54 	c #9B897D",
"64 	c #F8E4D9",
"74 	c #EBD7CC",
"84 	c #C3B1A5",
"94 	c #A49288",
"04 	c #A08D86",
"a4 	c #9A8982",
"b4 	c #A2908E",
"c4 	c #A89996",
"d4 	c #968686",
"e4 	c #9C8C8C",
"f4 	c #9D8D8D",
"g4 	c #A29292",
"h4 	c #A1928F",
"i4 	c #928380",
"j4 	c #857872",
"k4 	c #83726A",
"l4 	c #817068",
"m4 	c #86746A",
"n4 	c #827066",
"o4 	c #7B695F",
"p4 	c #726056",
"q4 	c #6F5B52",
"r4 	c #705C53",
"s4 	c #68554E",
"t4 	c #635049",
"u4 	c #5A463F",
"v4 	c #513D34",
"w4 	c #4F3B32",
"x4 	c #6F574B",
"y4 	c #634B3F",
"z4 	c #61493D",
"A4 	c #5F473B",
"B4 	c #5A4437",
"C4 	c #553F32",
"D4 	c #503D2F",
"E4 	c #4F3D31",
"F4 	c #544339",
"G4 	c #504239",
"H4 	c #4B3D34",
"I4 	c #44362D",
"J4 	c #3C2E25",
"K4 	c #31221B",
"L4 	c #2F2019",
"M4 	c #2D2018",
"N4 	c #2D221C",
"O4 	c #32281F",
"P4 	c #372E25",
"Q4 	c #433A33",
"R4 	c #48433D",
"S4 	c #423E3B",
"T4 	c #292327",
"U4 	c #DBD3D1",
"V4 	c #E5DCD7",
"W4 	c #C7B9AC",
"X4 	c #F7EADA",
"Y4 	c #FFFAEA",
"Z4 	c #CEBEAF",
"`4 	c #BAA89C",
" 5 	c #F2E0D4",
".5 	c #E2CEC3",
"+5 	c #B8A49B",
"@5 	c #A39187",
"#5 	c #9D8A83",
"$5 	c #A18E88",
"%5 	c #998680",
"&5 	c #9F8D89",
"*5 	c #A08E8C",
"=5 	c #A59393",
"-5 	c #9E8E8E",
";5 	c #9A8888",
">5 	c #988986",
",5 	c #857774",
"'5 	c #81746E",
")5 	c #7F726C",
"!5 	c #82746B",
"~5 	c #87766E",
"{5 	c #847268",
"]5 	c #7E6C62",
"^5 	c #736157",
"/5 	c #6D5950",
"(5 	c #6A5750",
"_5 	c #695851",
":5 	c #60514A",
"<5 	c #56453D",
"[5 	c #4B3A32",
"}5 	c #49372D",
"|5 	c #523E35",
"15 	c #614B40",
"25 	c #6C5649",
"35 	c #624C3F",
"45 	c #614B3E",
"55 	c #564335",
"65 	c #523F31",
"75 	c #534032",
"85 	c #534238",
"95 	c #51433A",
"05 	c #34261D",
"a5 	c #30211A",
"b5 	c #2E1F18",
"c5 	c #2F241E",
"d5 	c #2E231D",
"e5 	c #2A2017",
"f5 	c #2B2219",
"g5 	c #45413E",
"h5 	c #403C39",
"i5 	c #3B3734",
"j5 	c #535155",
"k5 	c #CCCBCC",
"l5 	c #443E42",
"m5 	c #E3DBD9",
"n5 	c #D5CCC7",
"o5 	c #BFB5AB",
"p5 	c #DED0C3",
"q5 	c #FFF8E8",
"r5 	c #FBEBDC",
"s5 	c #988678",
"t5 	c #89756A",
"u5 	c #D2BEB5",
"v5 	c #B7A59B",
"w5 	c #A8958E",
"x5 	c #A18E87",
"y5 	c #9A8781",
"z5 	c #917E78",
"A5 	c #988581",
"B5 	c #AA9793",
"C5 	c #A18D8C",
"D5 	c #9C8A88",
"E5 	c #988483",
"F5 	c #948280",
"G5 	c #93817F",
"H5 	c #917F7B",
"I5 	c #8E7C78",
"J5 	c #897A75",
"K5 	c #847572",
"L5 	c #82716A",
"M5 	c #806F67",
"N5 	c #7A695F",
"O5 	c #76645A",
"P5 	c #746258",
"Q5 	c #6C584F",
"R5 	c #645047",
"S5 	c #5E4B44",
"T5 	c #5C4D46",
"U5 	c #473930",
"V5 	c #4A392F",
"W5 	c #534135",
"X5 	c #59473B",
"Y5 	c #574436",
"Z5 	c #5B493B",
"`5 	c #534133",
" 6 	c #49392A",
".6 	c #3E2E21",
"+6 	c #37291E",
"@6 	c #42342B",
"#6 	c #483A31",
"$6 	c #41332A",
"%6 	c #392B22",
"&6 	c #2B1C15",
"*6 	c #2D1E17",
"=6 	c #30231B",
"-6 	c #31241C",
";6 	c #32251D",
">6 	c #34271F",
",6 	c #33261D",
"'6 	c #362920",
")6 	c #35281F",
"!6 	c #30231A",
"~6 	c #31271D",
"{6 	c #32281E",
"]6 	c #3D342B",
"^6 	c #382F28",
"/6 	c #3C332C",
"(6 	c #504941",
"_6 	c #564F47",
":6 	c #56514B",
"<6 	c #4D4844",
"[6 	c #3E3B36",
"}6 	c #393631",
"|6 	c #383431",
"16 	c #28272F",
"26 	c #3D383C",
"36 	c #C6BEBC",
"46 	c #ACA39C",
"56 	c #A2988E",
"66 	c #FFF3E3",
"76 	c #C6B4A6",
"86 	c #655347",
"96 	c #806C63",
"06 	c #A18D84",
"a6 	c #94817A",
"b6 	c #AB9891",
"c6 	c #9E8B85",
"d6 	c #98857F",
"e6 	c #998682",
"f6 	c #9C8985",
"g6 	c #978480",
"h6 	c #95827E",
"i6 	c #937F7E",
"j6 	c #93807C",
"k6 	c #8F7D79",
"l6 	c #8B7975",
"m6 	c #827370",
"n6 	c #81726D",
"o6 	c #80716A",
"p6 	c #77665C",
"q6 	c #6F5D53",
"r6 	c #6A584E",
"s6 	c #67554B",
"t6 	c #634F46",
"u6 	c #5B473E",
"v6 	c #55413A",
"w6 	c #523F38",
"x6 	c #4A3D34",
"y6 	c #423429",
"z6 	c #48382B",
"A6 	c #4B3B2E",
"B6 	c #504031",
"C6 	c #554536",
"D6 	c #4B3E2E",
"E6 	c #473728",
"F6 	c #423427",
"G6 	c #3D2F22",
"H6 	c #36281D",
"I6 	c #43352C",
"J6 	c #3D2F26",
"K6 	c #2D1F16",
"L6 	c #2C1D16",
"M6 	c #352820",
"N6 	c #32251C",
"O6 	c #4D4A45",
"P6 	c #44413C",
"Q6 	c #4E4A4B",
"R6 	c #BCB4B2",
"S6 	c #BEB4A8",
"T6 	c #D4C6B9",
"U6 	c #FEF1E1",
"V6 	c #C4B2A6",
"W6 	c #776559",
"X6 	c #A8948B",
"Y6 	c #A49089",
"Z6 	c #95827C",
"`6 	c #9D8C85",
" 7 	c #9D8A84",
".7 	c #9B8681",
"+7 	c #9A8580",
"@7 	c #95807B",
"#7 	c #8D7873",
"$7 	c #96817C",
"%7 	c #95807D",
"&7 	c #94817B",
"*7 	c #8A7972",
"=7 	c #85746D",
"-7 	c #7F6D69",
";7 	c #7F6E67",
">7 	c #79675D",
",7 	c #78665A",
"'7 	c #736155",
")7 	c #6E5C52",
"!7 	c #6B594F",
"~7 	c #67534A",
"{7 	c #5E4A41",
"]7 	c #57433C",
"^7 	c #4B3E35",
"/7 	c #47392E",
"(7 	c #43352A",
"_7 	c #453828",
":7 	c #493C2C",
"<7 	c #493B2E",
"[7 	c #413527",
"}7 	c #34281C",
"|7 	c #2A1C13",
"17 	c #382922",
"27 	c #3A2B24",
"37 	c #2A1B14",
"47 	c #33241D",
"57 	c #372920",
"67 	c #382A21",
"77 	c #34251E",
"87 	c #3E352E",
"97 	c #564F49",
"07 	c #4C4944",
"a7 	c #45423D",
"b7 	c #535256",
"c7 	c #5E5A5B",
"d7 	c #B8B0AD",
"e7 	c #CCC3BC",
"f7 	c #EBDFD3",
"g7 	c #EBDBCC",
"h7 	c #D5C3B7",
"i7 	c #9D8B7F",
"j7 	c #B39F98",
"k7 	c #A9958E",
"l7 	c #988780",
"m7 	c #947F7A",
"n7 	c #917C77",
"o7 	c #907B76",
"p7 	c #917D76",
"q7 	c #9A867F",
"r7 	c #98837E",
"s7 	c #97837C",
"t7 	c #8E7B74",
"u7 	c #87746E",
"v7 	c #817069",
"w7 	c #7C6B64",
"x7 	c #77655B",
"y7 	c #746256",
"z7 	c #726054",
"A7 	c #705E54",
"B7 	c #604C43",
"C7 	c #58443D",
"D7 	c #54413A",
"E7 	c #594B42",
"F7 	c #574A41",
"G7 	c #524439",
"H7 	c #44362B",
"I7 	c #413124",
"J7 	c #3F3222",
"K7 	c #362A1C",
"L7 	c #32261A",
"M7 	c #302418",
"N7 	c #2C2216",
"O7 	c #281E14",
"P7 	c #291A13",
"Q7 	c #3B2C25",
"R7 	c #362720",
"S7 	c #32231C",
"T7 	c #34261B",
"U7 	c #3B2D24",
"V7 	c #362D26",
"W7 	c #413E39",
"X7 	c #808081",
"Y7 	c #9C9C9C",
"Z7 	c #6C6869",
"`7 	c #C3BBB8",
" 8 	c #BEB5AE",
".8 	c #F2E6DA",
"+8 	c #D7C7B8",
"@8 	c #C6B4A8",
"#8 	c #9A867B",
"$8 	c #917A74",
"%8 	c #8C7871",
"&8 	c #8D7A74",
"*8 	c #907F78",
"=8 	c #97847D",
"-8 	c #98857E",
";8 	c #927E77",
">8 	c #8E7A73",
",8 	c #97807A",
"'8 	c #A18A82",
")8 	c #A28B85",
"!8 	c #9F8880",
"~8 	c #9B847E",
"{8 	c #958178",
"]8 	c #8B796F",
"^8 	c #84716A",
"/8 	c #7F6C65",
"(8 	c #7B6862",
"_8 	c #7C6963",
":8 	c #7D6A63",
"<8 	c #7C6962",
"[8 	c #6E5C50",
"}8 	c #705E52",
"|8 	c #5D4942",
"18 	c #5B4841",
"28 	c #58473F",
"38 	c #56483D",
"48 	c #56453B",
"58 	c #514036",
"68 	c #49382E",
"78 	c #3C2A1E",
"88 	c #3B291D",
"98 	c #39291C",
"08 	c #33251A",
"a8 	c #2A1D14",
"b8 	c #281912",
"c8 	c #312018",
"d8 	c #322119",
"e8 	c #362619",
"f8 	c #39281E",
"g8 	c #3B2A22",
"h8 	c #3C2B23",
"i8 	c #3A2921",
"j8 	c #392820",
"k8 	c #392821",
"l8 	c #312519",
"m8 	c #3B3736",
"n8 	c #7F8082",
"o8 	c #9F9FA0",
"p8 	c #F7EFEC",
"q8 	c #CEC5BE",
"r8 	c #EDE1D5",
"s8 	c #CBBBAC",
"t8 	c #AB978C",
"u8 	c #968279",
"v8 	c #8E7771",
"w8 	c #826E67",
"x8 	c #92817A",
"y8 	c #96837C",
"z8 	c #938079",
"A8 	c #95817A",
"B8 	c #9C887F",
"C8 	c #A28B83",
"D8 	c #A79088",
"E8 	c #A38C84",
"F8 	c #9D867E",
"G8 	c #988179",
"H8 	c #927E75",
"I8 	c #816F65",
"J8 	c #7B6861",
"K8 	c #7A6761",
"L8 	c #7A6760",
"M8 	c #756357",
"N8 	c #6A584C",
"O8 	c #6C5A4E",
"P8 	c #715F55",
"Q8 	c #68544B",
"R8 	c #634F48",
"S8 	c #59473D",
"T8 	c #59453C",
"U8 	c #554138",
"V8 	c #4E3A2F",
"W8 	c #463227",
"X8 	c #402C21",
"Y8 	c #3D291E",
"Z8 	c #3C281D",
"`8 	c #372519",
" 9 	c #312016",
".9 	c #2B1D12",
"+9 	c #2B1E16",
"@9 	c #38271D",
"#9 	c #38271F",
"$9 	c #37261E",
"%9 	c #382720",
"&9 	c #312318",
"*9 	c #342F29",
"=9 	c #4A4742",
"-9 	c #B7B7B8",
";9 	c #AFABAC",
">9 	c #FFF8F5",
",9 	c #E6DDD6",
"'9 	c #ECE0D4",
")9 	c #C8BAAD",
"!9 	c #B0A091",
"~9 	c #917D72",
"{9 	c #917D74",
"]9 	c #8F7C75",
"^9 	c #9F8B82",
"/9 	c #AA938B",
"(9 	c #A78E87",
"_9 	c #9F877D",
":9 	c #AB9389",
"<9 	c #A78F85",
"[9 	c #A08A7F",
"}9 	c #9B857A",
"|9 	c #948075",
"19 	c #8D796E",
"29 	c #867468",
"39 	c #79665F",
"49 	c #78655F",
"59 	c #76635C",
"69 	c #756359",
"79 	c #625044",
"89 	c #614F45",
"99 	c #655349",
"09 	c #624E47",
"a9 	c #614D46",
"b9 	c #5C463B",
"c9 	c #5D473C",
"d9 	c #503A2F",
"e9 	c #4B352A",
"f9 	c #483227",
"g9 	c #402A1F",
"h9 	c #3A261B",
"i9 	c #342218",
"j9 	c #2C1F19",
"k9 	c #2B1E18",
"l9 	c #301F17",
"m9 	c #33221A",
"n9 	c #34231B",
"o9 	c #3E2D23",
"p9 	c #3E2D25",
"q9 	c #3D2D20",
"r9 	c #514C48",
"s9 	c #3C3837",
"t9 	c #252733",
"u9 	c #2D2D37",
"v9 	c #C1BCB8",
"w9 	c #E6DDD4",
"x9 	c #F1E7DB",
"y9 	c #B8AA9D",
"z9 	c #9C8C7F",
"A9 	c #827064",
"B9 	c #967E7A",
"C9 	c #9C8784",
"D9 	c #8D7A73",
"E9 	c #937F78",
"F9 	c #A69289",
"G9 	c #B19A92",
"H9 	c #A89287",
"I9 	c #A28A80",
"J9 	c #A68E84",
"K9 	c #AA9288",
"L9 	c #9F897E",
"M9 	c #9A8479",
"N9 	c #927E73",
"O9 	c #8A766B",
"P9 	c #816D62",
"Q9 	c #79655E",
"R9 	c #75615A",
"S9 	c #735F56",
"T9 	c #705C51",
"U9 	c #665448",
"V9 	c #614F43",
"W9 	c #6C5A50",
"X9 	c #6B574E",
"Y9 	c #543C32",
"Z9 	c #584036",
"`9 	c #5B4339",
" 0 	c #5C443A",
".0 	c #594137",
"+0 	c #533B31",
"@0 	c #4D352B",
"#0 	c #493328",
"$0 	c #422C21",
"%0 	c #38261C",
"&0 	c #37251B",
"*0 	c #35241C",
"=0 	c #302219",
"-0 	c #2E1D15",
";0 	c #3A2A1D",
">0 	c #3B2B1E",
",0 	c #3D2C22",
"'0 	c #3F2E24",
")0 	c #413026",
"!0 	c #423127",
"~0 	c #423225",
"{0 	c #252831",
"]0 	c #535353",
"^0 	c #B2B1AC",
"/0 	c #E8E4D9",
"(0 	c #8B7F71",
"_0 	c #87796C",
":0 	c #816C67",
"<0 	c #907878",
"[0 	c #988080",
"}0 	c #917975",
"|0 	c #A08983",
"10 	c #B09790",
"20 	c #AE968C",
"30 	c #A1897D",
"40 	c #A58F82",
"50 	c #9E887B",
"60 	c #9A8477",
"70 	c #957F74",
"80 	c #897368",
"90 	c #7F695E",
"00 	c #79655A",
"a0 	c #755E56",
"b0 	c #7A635B",
"c0 	c #6E5A4F",
"d0 	c #6D574C",
"e0 	c #725E53",
"f0 	c #766055",
"g0 	c #6C594B",
"h0 	c #6A5749",
"i0 	c #665345",
"j0 	c #6A564B",
"k0 	c #6F5B50",
"l0 	c #6C564B",
"m0 	c #654D43",
"n0 	c #63483F",
"o0 	c #553F34",
"p0 	c #523C2F",
"q0 	c #513B2E",
"r0 	c #463325",
"s0 	c #443224",
"t0 	c #433125",
"u0 	c #402E22",
"v0 	c #35271A",
"w0 	c #302215",
"x0 	c #2F1E16",
"y0 	c #332316",
"z0 	c #3F2D21",
"A0 	c #412F23",
"B0 	c #423024",
"C0 	c #412F21",
"D0 	c #413122",
"E0 	c #423223",
"F0 	c #4A4643",
"G0 	c #1F2531",
"H0 	c #242834",
"I0 	c #7F7F82",
"J0 	c #2B2E37",
"K0 	c #343539",
"L0 	c #5D5D5B",
"M0 	c #B9B8B3",
"N0 	c #D7D3C8",
"O0 	c #A59D92",
"P0 	c #84786C",
"Q0 	c #98877F",
"R0 	c #917E7A",
"S0 	c #917B7D",
"T0 	c #967E7E",
"U0 	c #9D8480",
"V0 	c #A28984",
"W0 	c #A88F88",
"X0 	c #AC938C",
"Y0 	c #AD958B",
"Z0 	c #A68E82",
"`0 	c #A48C80",
" a 	c #A28C7F",
".a 	c #9B8578",
"+a 	c #998376",
"@a 	c #937D72",
"#a 	c #7E685D",
"$a 	c #786257",
"%a 	c #705A4F",
"&a 	c #6E584D",
"*a 	c #755F54",
"=a 	c #7B655A",
"-a 	c #736052",
";a 	c #705D4F",
">a 	c #6B584A",
",a 	c #6E5B4D",
"'a 	c #715E50",
")a 	c #6D5A4C",
"!a 	c #685245",
"~a 	c #674F45",
"{a 	c #664B42",
"]a 	c #5F473D",
"^a 	c #564035",
"/a 	c #4E382B",
"(a 	c #4B3528",
"_a 	c #453325",
":a 	c #433123",
"<a 	c #403021",
"[a 	c #3B2B1C",
"}a 	c #332616",
"|a 	c #2F2114",
"1a 	c #2C1B11",
"2a 	c #2C1B13",
"3a 	c #2B1A12",
"4a 	c #3C2C1F",
"5a 	c #3E2C1E",
"6a 	c #402E20",
"7a 	c #423022",
"8a 	c #3F2D1F",
"9a 	c #3D2D1D",
"0a 	c #3E2E1F",
"aa 	c #4C4744",
"ba 	c #212733",
"ca 	c #9E9EA0",
"da 	c #515256",
"ea 	c #3C3C44",
"fa 	c #3A393E",
"ga 	c #5C5857",
"ha 	c #BCB7B1",
"ia 	c #B8AFA6",
"ja 	c #76685D",
"ka 	c #907D76",
"la 	c #9B8884",
"ma 	c #968180",
"na 	c #9E8686",
"oa 	c #A58C88",
"pa 	c #AC908C",
"qa 	c #B1968F",
"ra 	c #A58D83",
"sa 	c #A38B7F",
"ta 	c #A48D7F",
"ua 	c #A38C7E",
"va 	c #9F877B",
"wa 	c #967E72",
"xa 	c #8D7569",
"ya 	c #7B6359",
"za 	c #745C52",
"Aa 	c #735B51",
"Ba 	c #755D53",
"Ca 	c #775F55",
"Da 	c #786056",
"Ea 	c #745E53",
"Fa 	c #725C51",
"Ga 	c #725C4F",
"Ha 	c #715B4E",
"Ia 	c #746153",
"Ja 	c #776456",
"Ka 	c #6B5548",
"La 	c #685044",
"Ma 	c #674C41",
"Na 	c #5C4438",
"Oa 	c #51392D",
"Pa 	c #4A3427",
"Qa 	c #463023",
"Ra 	c #473426",
"Sa 	c #453224",
"Ta 	c #342415",
"Ua 	c #2F1F12",
"Va 	c #2A190F",
"Wa 	c #2A1911",
"Xa 	c #301F15",
"Ya 	c #362418",
"Za 	c #39271B",
"`a 	c #3E2C20",
" b 	c #493628",
".b 	c #3C2C1C",
"+b 	c #433324",
"@b 	c #4D443D",
"#b 	c #524B45",
"$b 	c #4D4845",
"%b 	c #4A4542",
"&b 	c #2E313A",
"*b 	c #545359",
"=b 	c #5B565A",
"-b 	c #726D6A",
";b 	c #93867E",
">b 	c #64564D",
",b 	c #7D6C62",
"'b 	c #917F75",
")b 	c #998481",
"!b 	c #A58D8B",
"~b 	c #A58C87",
"{b 	c #AD928B",
"]b 	c #B39891",
"^b 	c #B1968D",
"/b 	c #A0887C",
"(b 	c #AC9587",
"_b 	c #AA9385",
":b 	c #9F887A",
"<b 	c #8E766A",
"[b 	c #826A5E",
"}b 	c #7D6559",
"|b 	c #796157",
"1b 	c #765E54",
"2b 	c #776156",
"3b 	c #735D50",
"4b 	c #786557",
"5b 	c #695346",
"6b 	c #654A3F",
"7b 	c #60483C",
"8b 	c #493326",
"9b 	c #443123",
"0b 	c #352516",
"ab 	c #2D1C12",
"bb 	c #2E1D13",
"cb 	c #312114",
"db 	c #352317",
"eb 	c #3D2B1F",
"fb 	c #413020",
"gb 	c #3E2E1E",
"hb 	c #463627",
"ib 	c #3E3027",
"jb 	c #372D23",
"kb 	c #524944",
"lb 	c #544D47",
"mb 	c #413D3C",
"nb 	c #3F3B3A",
"ob 	c #1E2631",
"pb 	c #262A35",
"qb 	c #3D3D45",
"rb 	c #68666B",
"sb 	c #A69993",
"tb 	c #8C7972",
"ub 	c #9C8881",
"vb 	c #A38E89",
"wb 	c #AD9289",
"xb 	c #AF948B",
"yb 	c #AB9087",
"zb 	c #A4897E",
"Ab 	c #A08679",
"Bb 	c #A3897C",
"Cb 	c #A88E7F",
"Db 	c #B29889",
"Eb 	c #AC9283",
"Fb 	c #9C8273",
"Gb 	c #876D60",
"Hb 	c #7C6255",
"Ib 	c #7D6356",
"Jb 	c #80655A",
"Kb 	c #7F6459",
"Lb 	c #886D64",
"Mb 	c #7B6057",
"Nb 	c #745950",
"Ob 	c #7A5F56",
"Pb 	c #80655C",
"Qb 	c #7C645A",
"Rb 	c #775F53",
"Sb 	c #755D51",
"Tb 	c #725A4E",
"Ub 	c #745E51",
"Vb 	c #644C40",
"Wb 	c #64493E",
"Xb 	c #62473C",
"Yb 	c #5F4439",
"Zb 	c #5A4236",
"`b 	c #2F1E14",
" c 	c #2B1A10",
".c 	c #342216",
"+c 	c #362217",
"@c 	c #3F2B20",
"#c 	c #412D22",
"$c 	c #483225",
"%c 	c #453424",
"&c 	c #433222",
"*c 	c #473527",
"=c 	c #4A382A",
"-c 	c #433228",
";c 	c #362C22",
">c 	c #504742",
",c 	c #46413E",
"'c 	c #433E3B",
")c 	c #7E7F82",
"!c 	c #252932",
"~c 	c #48474D",
"{c 	c #726D71",
"]c 	c #988E8D",
"^c 	c #A99A97",
"/c 	c #A28E87",
"(c 	c #BCA59F",
"_c 	c #B89F98",
":c 	c #AB948C",
"<c 	c #9D8680",
"[c 	c #9E8B84",
"}c 	c #A7938C",
"|c 	c #A58A7F",
"1c 	c #A08478",
"2c 	c #9F8576",
"3c 	c #A5897B",
"4c 	c #A98F80",
"5c 	c #AA8E80",
"6c 	c #A28879",
"7c 	c #95796B",
"8c 	c #876B5D",
"9c 	c #816557",
"0c 	c #85695D",
"ac 	c #8B6F63",
"bc 	c #8E7267",
"cc 	c #8D7269",
"dc 	c #82675E",
"ec 	c #795E55",
"fc 	c #7C6158",
"gc 	c #745C50",
"hc 	c #735B4F",
"ic 	c #70584C",
"jc 	c #6F594C",
"kc 	c #624A3E",
"lc 	c #684D42",
"mc 	c #604A3D",
"nc 	c #4D3B2D",
"oc 	c #483829",
"pc 	c #453526",
"qc 	c #3C2C1D",
"rc 	c #372318",
"sc 	c #3B271C",
"tc 	c #422E23",
"uc 	c #463525",
"vc 	c #45342A",
"wc 	c #392C23",
"xc 	c #392C24",
"yc 	c #564D48",
"zc 	c #554D4A",
"Ac 	c #4B4643",
"Bc 	c #47423F",
"Cc 	c #23262F",
"Dc 	c #4C4B50",
"Ec 	c #766D6E",
"Fc 	c #857776",
"Gc 	c #9C857F",
"Hc 	c #B19893",
"Ic 	c #BEA39C",
"Jc 	c #A38881",
"Kc 	c #9A867D",
"Lc 	c #A9978D",
"Mc 	c #AA968D",
"Nc 	c #B49990",
"Oc 	c #B1958A",
"Pc 	c #AC9085",
"Qc 	c #A5897D",
"Rc 	c #A28479",
"Sc 	c #9F8375",
"Tc 	c #A18476",
"Uc 	c #A18675",
"Vc 	c #9C7F6F",
"Wc 	c #957A69",
"Xc 	c #907363",
"Yc 	c #8E7161",
"Zc 	c #8F7262",
"`c 	c #917466",
" d 	c #937668",
".d 	c #96786D",
"+d 	c #8A6E63",
"@d 	c #866961",
"#d 	c #80635B",
"$d 	c #7A5D55",
"%d 	c #765A4F",
"&d 	c #74594E",
"*d 	c #775C51",
"=d 	c #7B6055",
"-d 	c #73594C",
";d 	c #71574A",
">d 	c #6F584A",
",d 	c #6B5446",
"'d 	c #675042",
")d 	c #6D5346",
"!d 	c #6E5447",
"~d 	c #685143",
"{d 	c #664F41",
"]d 	c #654F41",
"^d 	c #584537",
"/d 	c #513F31",
"(d 	c #4D3D2E",
"_d 	c #36251B",
":d 	c #352116",
"<d 	c #382419",
"[d 	c #412B20",
"}d 	c #432D22",
"|d 	c #4A3226",
"1d 	c #4B3327",
"2d 	c #4D3529",
"3d 	c #4D372A",
"4d 	c #3A2E22",
"5d 	c #514843",
"6d 	c #524A47",
"7d 	c #4F4A47",
"8d 	c #494441",
"9d 	c #313743",
"0d 	c #30333A",
"ad 	c #4B494C",
"bd 	c #766C6B",
"cd 	c #877873",
"dd 	c #A78A84",
"ed 	c #A2857F",
"fd 	c #A38680",
"gd 	c #A1867F",
"hd 	c #A28982",
"id 	c #B39F94",
"jd 	c #A79186",
"kd 	c #B2978C",
"ld 	c #B29489",
"md 	c #AE9085",
"nd 	c #AA8D7F",
"od 	c #A6897B",
"pd 	c #A08373",
"qd 	c #997C6C",
"rd 	c #947765",
"sd 	c #937462",
"td 	c #8D705E",
"ud 	c #90715F",
"vd 	c #987869",
"wd 	c #9D7D6E",
"xd 	c #9A7A6B",
"yd 	c #987768",
"zd 	c #98786B",
"Ad 	c #8F7167",
"Bd 	c #84685D",
"Cd 	c #785B53",
"Dd 	c #74584D",
"Ed 	c #785C51",
"Fd 	c #7C6055",
"Gd 	c #795D52",
"Hd 	c #72574C",
"Id 	c #7B5F54",
"Jd 	c #7A6053",
"Kd 	c #775D50",
"Ld 	c #72584B",
"Md 	c #6F5548",
"Nd 	c #6B5144",
"Od 	c #674D40",
"Pd 	c #705649",
"Qd 	c #6C5547",
"Rd 	c #644E40",
"Sd 	c #5C4639",
"Td 	c #5B483A",
"Ud 	c #584638",
"Vd 	c #4C3C2D",
"Wd 	c #352319",
"Xd 	c #473124",
"Yd 	c #4C3428",
"Zd 	c #4D3A2C",
"`d 	c #493729",
" e 	c #453327",
".e 	c #534B49",
"+e 	c #1E2430",
"@e 	c #292D39",
"#e 	c #34343C",
"$e 	c #474546",
"%e 	c #817775",
"&e 	c #B29B93",
"*e 	c #AF948D",
"=e 	c #AA8B86",
"-e 	c #AB8C89",
";e 	c #AC8F89",
">e 	c #AE938C",
",e 	c #AE988D",
"'e 	c #AD9A8C",
")e 	c #AF998B",
"!e 	c #B3978B",
"~e 	c #B39386",
"{e 	c #AB8B7E",
"]e 	c #A38374",
"^e 	c #9F7F70",
"/e 	c #9F806E",
"(e 	c #9E7F6D",
"_e 	c #9C7D69",
":e 	c #987764",
"<e 	c #9A7B67",
"[e 	c #A1806D",
"}e 	c #A58473",
"|e 	c #A38271",
"1e 	c #9C7B6A",
"2e 	c #936F5F",
"3e 	c #8A695A",
"4e 	c #87675C",
"5e 	c #795B50",
"6e 	c #74564C",
"7e 	c #7A5C51",
"8e 	c #7C5E53",
"9e 	c #74564B",
"0e 	c #705247",
"ae 	c #73574B",
"be 	c #806257",
"ce 	c #735749",
"de 	c #725648",
"ee 	c #694D3F",
"fe 	c #684C3E",
"ge 	c #6F5345",
"he 	c #6C5042",
"ie 	c #785E4F",
"je 	c #765C4D",
"ke 	c #624B3D",
"le 	c #60493B",
"me 	c #614B3D",
"ne 	c #5A4436",
"oe 	c #4E3C2E",
"pe 	c #4F3D2F",
"qe 	c #4B392B",
"re 	c #3A281C",
"se 	c #38261A",
"te 	c #39251A",
"ue 	c #3E281D",
"ve 	c #493125",
"we 	c #483024",
"xe 	c #3F2F22",
"ye 	c #3F3126",
"ze 	c #3F322A",
"Ae 	c #493E38",
"Be 	c #534A45",
"Ce 	c #57504A",
"De 	c #544C49",
"Ee 	c #272B37",
"Fe 	c #2D313C",
"Ge 	c #39383E",
"He 	c #4E4A49",
"Ie 	c #847B74",
"Je 	c #B1A098",
"Ke 	c #AD978C",
"Le 	c #A68B82",
"Me 	c #AC8D88",
"Ne 	c #AD8E8B",
"Oe 	c #AE918B",
"Pe 	c #B0988C",
"Qe 	c #AE988A",
"Re 	c #AE9787",
"Se 	c #B09385",
"Te 	c #AF8F80",
"Ue 	c #A88879",
"Ve 	c #A18270",
"We 	c #A0816D",
"Xe 	c #A2816E",
"Ye 	c #A0806B",
"Ze 	c #9E7D6A",
"`e 	c #A3836E",
" f 	c #AA8774",
".f 	c #A4816E",
"+f 	c #9B7767",
"@f 	c #936E5E",
"#f 	c #8D6959",
"$f 	c #876559",
"%f 	c #816156",
"&f 	c #7D5D52",
"*f 	c #7B5E50",
"=f 	c #7A5D4F",
"-f 	c #785A4F",
";f 	c #76594B",
">f 	c #8E7163",
",f 	c #816454",
"'f 	c #7D6052",
")f 	c #785D4C",
"!f 	c #694E3D",
"~f 	c #705446",
"{f 	c #6E5445",
"]f 	c #6D5344",
"^f 	c #6A5043",
"/f 	c #644A3D",
"(f 	c #5A4335",
"_f 	c #563F31",
":f 	c #513B2D",
"<f 	c #584234",
"[f 	c #554234",
"}f 	c #342015",
"|f 	c #3D271C",
"1f 	c #3F291E",
"2f 	c #442E21",
"3f 	c #402F27",
"4f 	c #40332B",
"5f 	c #544943",
"6f 	c #574E49",
"7f 	c #2F313E",
"8f 	c #31333F",
"9f 	c #403E43",
"0f 	c #595451",
"af 	c #B6A89B",
"bf 	c #AC998B",
"cf 	c #9E867A",
"df 	c #A68981",
"ef 	c #A88984",
"ff 	c #AA8B88",
"gf 	c #AF908B",
"hf 	c #B3968E",
"if 	c #B2988B",
"jf 	c #AE9485",
"kf 	c #A98F7E",
"lf 	c #AC8C7D",
"mf 	c #AB8A79",
"nf 	c #A68574",
"of 	c #A28170",
"pf 	c #A6836F",
"qf 	c #A5826C",
"rf 	c #A17E6A",
"sf 	c #A6836D",
"tf 	c #AA8572",
"uf 	c #A7826F",
"vf 	c #9F7A67",
"wf 	c #95705E",
"xf 	c #8F6857",
"yf 	c #8C6757",
"zf 	c #826054",
"Af 	c #846256",
"Bf 	c #815F53",
"Cf 	c #7B5B4C",
"Df 	c #7C5C4F",
"Ef 	c #7F5F50",
"Ff 	c #7E5E51",
"Gf 	c #7A5A4B",
"Hf 	c #927263",
"If 	c #876A58",
"Jf 	c #846757",
"Kf 	c #806351",
"Lf 	c #755848",
"Mf 	c #705341",
"Nf 	c #6F5242",
"Of 	c #6B4E3E",
"Pf 	c #6D5241",
"Qf 	c #6E5342",
"Rf 	c #6B503F",
"Sf 	c #614738",
"Tf 	c #583E2F",
"Uf 	c #523C2E",
"Vf 	c #3C2A1C",
"Wf 	c #352315",
"Xf 	c #332113",
"Yf 	c #342214",
"Zf 	c #362416",
"`f 	c #372517",
" g 	c #392719",
".g 	c #3F2C1E",
"+g 	c #422F21",
"@g 	c #4B3E36",
"#g 	c #534842",
"$g 	c #564D46",
"%g 	c #514946",
"&g 	c #333240",
"*g 	c #353340",
"=g 	c #454348",
"-g 	c #9D9389",
";g 	c #C3B6A6",
">g 	c #B5A494",
",g 	c #9F897B",
"'g 	c #9F847B",
")g 	c #A98C88",
"!g 	c #B1928D",
"~g 	c #B59890",
"{g 	c #AB907F",
"]g 	c #A58876",
"^g 	c #A78876",
"/g 	c #A98877",
"(g 	c #A78675",
"_g 	c #A48370",
":g 	c #A4846F",
"<g 	c #A6866F",
"[g 	c #A7846E",
"}g 	c #A4816B",
"|g 	c #A07C66",
"1g 	c #A27E68",
"2g 	c #A37F69",
"3g 	c #A07A65",
"4g 	c #997360",
"5g 	c #916B58",
"6g 	c #8C6653",
"7g 	c #8A6352",
"8g 	c #815D4F",
"9g 	c #805F50",
"0g 	c #7F5E4F",
"ag 	c #7B5A49",
"bg 	c #7B5A4B",
"cg 	c #7D5E4C",
"dg 	c #7E5E4F",
"eg 	c #7C5D4B",
"fg 	c #856654",
"gg 	c #846553",
"hg 	c #826651",
"ig 	c #7E614F",
"jg 	c #795D48",
"kg 	c #745745",
"lg 	c #715442",
"mg 	c #6A4F3E",
"ng 	c #6C5140",
"og 	c #5E4435",
"pg 	c #573D2E",
"qg 	c #594234",
"rg 	c #634C3E",
"sg 	c #533D2F",
"tg 	c #4F392B",
"ug 	c #483628",
"vg 	c #322012",
"wg 	c #311F11",
"xg 	c #412E20",
"yg 	c #453126",
"zg 	c #453329",
"Ag 	c #514640",
"Bg 	c #564B45",
"Cg 	c #544B46",
"Dg 	c #343142",
"Eg 	c #383442",
"Fg 	c #524D53",
"Gg 	c #776F6C",
"Hg 	c #A69E91",
"Ig 	c #C8BDAB",
"Jg 	c #B9AA97",
"Kg 	c #A08F7F",
"Lg 	c #9E887D",
"Mg 	c #A48B84",
"Ng 	c #AE918D",
"Og 	c #B69995",
"Pg 	c #BA9C94",
"Qg 	c #B5978C",
"Rg 	c #AA8D7B",
"Sg 	c #A38470",
"Tg 	c #A88774",
"Ug 	c #A98875",
"Vg 	c #AB8875",
"Wg 	c #A98672",
"Xg 	c #A88571",
"Yg 	c #A8856F",
"Zg 	c #A5816B",
"`g 	c #A17D65",
" h 	c #A37D66",
".h 	c #A27C65",
"+h 	c #9F7962",
"@h 	c #9E755F",
"#h 	c #99705C",
"$h 	c #936A56",
"%h 	c #8D6450",
"&h 	c #8A614F",
"*h 	c #866151",
"=h 	c #825E4E",
"-h 	c #815D4D",
";h 	c #805F4C",
">h 	c #81604F",
",h 	c #846350",
"'h 	c #82614E",
")h 	c #836450",
"!h 	c #82634F",
"~h 	c #80614C",
"{h 	c #80614D",
"]h 	c #7D5E49",
"^h 	c #795A46",
"/h 	c #755944",
"(h 	c #725744",
"_h 	c #634837",
":h 	c #654A39",
"<h 	c #664C3B",
"[h 	c #634938",
"}h 	c #604939",
"|h 	c #624B3B",
"1h 	c #543E30",
"2h 	c #4E3B2D",
"3h 	c #463428",
"4h 	c #3B291B",
"5h 	c #4F392C",
"6h 	c #483B33",
"7h 	c #4E433D",
"8h 	c #554A44",
"9h 	c #2E2E3A",
"0h 	c #363243",
"ah 	c #413B49",
"bh 	c #655F63",
"ch 	c #87807A",
"dh 	c #A7A090",
"eh 	c #BEB6A1",
"fh 	c #B2A690",
"gh 	c #9E8F7C",
"hh 	c #A18D82",
"ih 	c #A89189",
"jh 	c #B19591",
"kh 	c #B79A96",
"lh 	c #B79991",
"mh 	c #B19184",
"nh 	c #A78874",
"oh 	c #AA8976",
"ph 	c #AB8874",
"qh 	c #A07C64",
"rh 	c #9B775F",
"sh 	c #9D745E",
"th 	c #99705A",
"uh 	c #956C58",
"vh 	c #906753",
"wh 	c #8C614E",
"xh 	c #875E4C",
"yh 	c #8E6957",
"zh 	c #876451",
"Ah 	c #85624F",
"Bh 	c #896653",
"Ch 	c #886754",
"Dh 	c #876653",
"Eh 	c #8C6B58",
"Fh 	c #8A6956",
"Gh 	c #8C6C57",
"Hh 	c #83644F",
"Ih 	c #7A5B46",
"Jh 	c #795A45",
"Kh 	c #765742",
"Lh 	c #755846",
"Mh 	c #684D3C",
"Nh 	c #684E3D",
"Oh 	c #644A39",
"Ph 	c #614A3A",
"Qh 	c #644D3D",
"Rh 	c #5B4537",
"Sh 	c #473529",
"Th 	c #301E10",
"Uh 	c #2F1D0F",
"Vh 	c #452F22",
"Wh 	c #4F3C2E",
"Xh 	c #473328",
"Yh 	c #45342C",
"Zh 	c #4D403A",
"`h 	c #32313F",
" i 	c #4E4655",
".i 	c #7B7579",
"+i 	c #97908A",
"@i 	c #A29B89",
"#i 	c #AEA68F",
"$i 	c #A89D87",
"%i 	c #9B8F79",
"&i 	c #A49284",
"*i 	c #B09792",
"=i 	c #B49793",
"-i 	c #B19389",
";i 	c #AD8D80",
">i 	c #A78673",
",i 	c #AD8A77",
"'i 	c #AC8976",
")i 	c #A78470",
"!i 	c #A27F6B",
"~i 	c #9E7A64",
"{i 	c #9C765F",
"]i 	c #98725B",
"^i 	c #9D755C",
"/i 	c #9C745B",
"(i 	c #9B715B",
"_i 	c #976D57",
":i 	c #936953",
"<i 	c #8E644E",
"[i 	c #8D604D",
"}i 	c #8A5F4C",
"|i 	c #8E6956",
"1i 	c #8B6854",
"2i 	c #886551",
"3i 	c #876450",
"4i 	c #8A6753",
"5i 	c #8F6C58",
"6i 	c #8D6A56",
"7i 	c #876752",
"8i 	c #8B6B54",
"9i 	c #82624B",
"0i 	c #785841",
"ai 	c #7B5B44",
"bi 	c #7B5C47",
"ci 	c #694E3B",
"di 	c #674C3B",
"ei 	c #674D3C",
"fi 	c #604635",
"gi 	c #5E4737",
"hi 	c #654E3E",
"ii 	c #564032",
"ji 	c #544133",
"ki 	c #4A382C",
"li 	c #3A281A",
"mi 	c #2E1C0E",
"ni 	c #2D1B0D",
"oi 	c #472F23",
"pi 	c #4E3B2C",
"qi 	c #4D3A2B",
"ri 	c #4C392A",
"si 	c #4B3829",
"ti 	c #4A3728",
"ui 	c #43322A",
"vi 	c #4A3D37",
"wi 	c #524741",
"xi 	c #353541",
"yi 	c #383240",
"zi 	c #584E59",
"Ai 	c #8D8487",
"Bi 	c #A39A95",
"Ci 	c #A09788",
"Di 	c #A59A88",
"Ei 	c #A29582",
"Fi 	c #9F8F7F",
"Gi 	c #A89587",
"Hi 	c #B29790",
"Ii 	c #B29188",
"Ji 	c #AF8E7F",
"Ki 	c #AF8C79",
"Li 	c #AF8C78",
"Mi 	c #AE8B77",
"Ni 	c #AC8774",
"Oi 	c #9D7963",
"Pi 	c #9A745D",
"Qi 	c #9A715B",
"Ri 	c #986F59",
"Si 	c #976F56",
"Ti 	c #9A7058",
"Ui 	c #986E58",
"Vi 	c #916852",
"Wi 	c #8E654F",
"Xi 	c #8F6451",
"Yi 	c #8F6652",
"Zi 	c #89654F",
"`i 	c #8B6852",
" j 	c #805D49",
".j 	c #85624E",
"+j 	c #86634F",
"@j 	c #795942",
"#j 	c #83634C",
"$j 	c #7E5E47",
"%j 	c #80604B",
"&j 	c #806049",
"*j 	c #7B5B46",
"=j 	c #7E5F4A",
"-j 	c #735845",
";j 	c #634835",
">j 	c #5B402F",
",j 	c #6B5140",
"'j 	c #664F3D",
")j 	c #5F4838",
"!j 	c #5B4635",
"~j 	c #574133",
"{j 	c #503D2E",
"]j 	c #311F13",
"^j 	c #301E12",
"/j 	c #462E22",
"(j 	c #503A2C",
"_j 	c #4E382A",
":j 	c #423026",
"<j 	c #343642",
"[j 	c #3B363C",
"}j 	c #64595D",
"|j 	c #A69991",
"1j 	c #AC9B93",
"2j 	c #A58F84",
"3j 	c #B49C92",
"4j 	c #B59A91",
"5j 	c #B4968C",
"6j 	c #B49489",
"7j 	c #B8988B",
"8j 	c #BE9D8E",
"9j 	c #BE9A8A",
"0j 	c #B99682",
"aj 	c #B08C74",
"bj 	c #A27D63",
"cj 	c #9A755B",
"dj 	c #9E765D",
"ej 	c #A0765E",
"fj 	c #9D735B",
"gj 	c #9E745C",
"hj 	c #956B53",
"ij 	c #926A51",
"jj 	c #8D6750",
"kj 	c #8B654E",
"lj 	c #947058",
"mj 	c #7F5B43",
"nj 	c #79553D",
"oj 	c #76523C",
"pj 	c #7B5741",
"qj 	c #7F5C46",
"rj 	c #7E5B45",
"sj 	c #7C5C45",
"tj 	c #81614C",
"uj 	c #7F5F4A",
"vj 	c #7E5F4B",
"wj 	c #785944",
"xj 	c #755642",
"yj 	c #745843",
"zj 	c #765B48",
"Aj 	c #5E4433",
"Bj 	c #5A402F",
"Cj 	c #5C4233",
"Dj 	c #503B2A",
"Ej 	c #332314",
"Fj 	c #302013",
"Gj 	c #392618",
"Hj 	c #382516",
"Ij 	c #382517",
"Jj 	c #3C291B",
"Kj 	c #3D2A1C",
"Lj 	c #4C3628",
"Mj 	c #4E3928",
"Nj 	c #4D3827",
"Oj 	c #4C3726",
"Pj 	c #4B3625",
"Qj 	c #4A3524",
"Rj 	c #50433B",
"Sj 	c #544A41",
"Tj 	c #373A43",
"Uj 	c #474143",
"Vj 	c #776D6C",
"Wj 	c #A49693",
"Xj 	c #9F8D8B",
"Yj 	c #9F8C86",
"Zj 	c #9F8783",
"`j 	c #AA8F88",
" k 	c #B5978D",
".k 	c #B7978C",
"+k 	c #B79788",
"@k 	c #BA998A",
"#k 	c #BD9C8B",
"$k 	c #BD9989",
"%k 	c #B89581",
"&k 	c #AD886E",
"*k 	c #A17C61",
"=k 	c #9C745A",
"-k 	c #9B7359",
";k 	c #9A7057",
">k 	c #9B7158",
",k 	c #9F725B",
"'k 	c #9C6F58",
")k 	c #976A53",
"!k 	c #9C725A",
"~k 	c #966E55",
"{k 	c #946C53",
"]k 	c #926C55",
"^k 	c #916D55",
"/k 	c #937158",
"(k 	c #89674E",
"_k 	c #8F6B53",
":k 	c #825E46",
"<k 	c #724E36",
"[k 	c #6F4B33",
"}k 	c #795640",
"|k 	c #83604A",
"1k 	c #7C5C47",
"2k 	c #81624E",
"3k 	c #765743",
"4k 	c #6D513C",
"5k 	c #6A4F3A",
"6k 	c #5D4231",
"7k 	c #573D2C",
"8k 	c #553B2A",
"9k 	c #523827",
"0k 	c #4E3727",
"ak 	c #533C2C",
"bk 	c #564130",
"ck 	c #483526",
"dk 	c #322213",
"ek 	c #302011",
"fk 	c #322014",
"gk 	c #2C1E15",
"hk 	c #2D1F14",
"ik 	c #392617",
"jk 	c #3A2719",
"kk 	c #3E2B1D",
"lk 	c #402D1F",
"mk 	c #4D3729",
"nk 	c #513C2B",
"ok 	c #4E3926",
"pk 	c #4D3825",
"qk 	c #4C3724",
"rk 	c #4C3F36",
"sk 	c #554840",
"tk 	c #564C43",
"uk 	c #554C47",
"vk 	c #3A3D46",
"wk 	c #4F494B",
"xk 	c #827877",
"yk 	c #9E9391",
"zk 	c #978583",
"Ak 	c #A8908C",
"Bk 	c #B1948C",
"Ck 	c #BA9A8D",
"Dk 	c #BB9A8B",
"Ek 	c #BC9888",
"Fk 	c #BB9885",
"Gk 	c #B79481",
"Hk 	c #B28F79",
"Ik 	c #A68167",
"Jk 	c #9B765B",
"Kk 	c #987056",
"Lk 	c #966C53",
"Mk 	c #986E55",
"Nk 	c #9E715A",
"Ok 	c #976D55",
"Pk 	c #9F755D",
"Qk 	c #8E664D",
"Rk 	c #8F6A50",
"Sk 	c #977359",
"Tk 	c #9E7C63",
"Uk 	c #957159",
"Vk 	c #88644C",
"Wk 	c #76523A",
"Xk 	c #6E4A32",
"Yk 	c #76533D",
"Zk 	c #7F5F48",
"`k 	c #75553E",
" l 	c #7F604C",
".l 	c #775844",
"+l 	c #694E39",
"@l 	c #593E2D",
"#l 	c #543A29",
"$l 	c #533928",
"%l 	c #503625",
"&l 	c #493222",
"*l 	c #4C3525",
"=l 	c #453223",
"-l 	c #2F1F10",
";l 	c #2D1D0E",
">l 	c #2F2118",
",l 	c #342417",
"'l 	c #372416",
")l 	c #3A2718",
"!l 	c #483224",
"~l 	c #4A3426",
"{l 	c #4F3A27",
"]l 	c #473A31",
"^l 	c #52453D",
"/l 	c #3D4049",
"(l 	c #5D5759",
"_l 	c #8B7F7F",
":l 	c #958786",
"<l 	c #9A8685",
"[l 	c #A28D88",
"}l 	c #B59C97",
"|l 	c #B2948A",
"1l 	c #BA9988",
"2l 	c #B89582",
"3l 	c #B28F7B",
"4l 	c #AC8975",
"5l 	c #A9856D",
"6l 	c #9E795F",
"7l 	c #936E53",
"8l 	c #926A50",
"9l 	c #956D53",
"0l 	c #976D54",
"al 	c #9C7259",
"bl 	c #A2755E",
"cl 	c #A27860",
"dl 	c #A47A62",
"el 	c #956D54",
"fl 	c #8D654C",
"gl 	c #8A654B",
"hl 	c #906B51",
"il 	c #99755D",
"jl 	c #89654D",
"kl 	c #87634B",
"ll 	c #7D5941",
"ml 	c #7B5842",
"nl 	c #7D5A44",
"ol 	c #896954",
"pl 	c #846551",
"ql 	c #7D5E4A",
"rl 	c #785945",
"sl 	c #735742",
"tl 	c #725641",
"ul 	c #5D4332",
"vl 	c #563C2B",
"wl 	c #503929",
"xl 	c #523B2B",
"yl 	c #4F3A29",
"zl 	c #473221",
"Al 	c #463324",
"Bl 	c #312112",
"Cl 	c #362315",
"Dl 	c #3B2819",
"El 	c #493325",
"Fl 	c #513C29",
"Gl 	c #503B28",
"Hl 	c #554C45",
"Il 	c #383C47",
"Jl 	c #42424A",
"Kl 	c #71686D",
"Ll 	c #958989",
"Ml 	c #9C8887",
"Nl 	c #A6918C",
"Ol 	c #B69D98",
"Pl 	c #AC9188",
"Ql 	c #B09287",
"Rl 	c #B59588",
"Sl 	c #B79685",
"Tl 	c #B18C79",
"Ul 	c #A9856F",
"Vl 	c #A48068",
"Wl 	c #A27E64",
"Xl 	c #91694F",
"Yl 	c #8E664C",
"Zl 	c #9E745B",
"`l 	c #A57B62",
" m 	c #A77D64",
".m 	c #A1775E",
"+m 	c #A77D65",
"@m 	c #A67C64",
"#m 	c #997158",
"$m 	c #876248",
"%m 	c #7D583E",
"&m 	c #805C42",
"*m 	c #815D43",
"=m 	c #856149",
"-m 	c #8E6A52",
";m 	c #87644E",
">m 	c #8A6A55",
",m 	c #856652",
"'m 	c #7C5D49",
")m 	c #7A5B47",
"!m 	c #775B46",
"~m 	c #765A45",
"{m 	c #6F5443",
"]m 	c #644938",
"^m 	c #5C4231",
"/m 	c #583E2D",
"(m 	c #513A2A",
"_m 	c #533E2D",
":m 	c #533E2B",
"<m 	c #553F31",
"[m 	c #523F30",
"}m 	c #3C404B",
"|m 	c #46464E",
"1m 	c #756C71",
"2m 	c #978989",
"3m 	c #988684",
"4m 	c #9A8582",
"5m 	c #A58D89",
"6m 	c #B19186",
"7m 	c #B19081",
"8m 	c #B18E7B",
"9m 	c #A27E66",
"0m 	c #9F7B61",
"am 	c #9F775D",
"bm 	c #90684E",
"cm 	c #997157",
"dm 	c #A47A61",
"em 	c #AA8067",
"fm 	c #A97F66",
"gm 	c #A57B63",
"hm 	c #A1775F",
"im 	c #90684F",
"jm 	c #825D43",
"km 	c #755036",
"lm 	c #7B573D",
"mm 	c #825E44",
"nm 	c #8A664E",
"om 	c #8F6C56",
"pm 	c #85624C",
"qm 	c #8B6B56",
"rm 	c #886955",
"sm 	c #705544",
"tm 	c #694F3E",
"um 	c #614736",
"vm 	c #513728",
"wm 	c #4D3626",
"xm 	c #4F3828",
"ym 	c #4B3527",
"zm 	c #543F2C",
"Am 	c #55402D",
"Bm 	c #523D2A",
"Cm 	c #4F3C2D",
"Dm 	c #4A3C33",
"Em 	c #41444D",
"Fm 	c #4B4A50",
"Gm 	c #7B7074",
"Hm 	c #928484",
"Im 	c #A09090",
"Jm 	c #9B8683",
"Km 	c #A9928C",
"Lm 	c #B0958C",
"Mm 	c #B89C90",
"Nm 	c #B49487",
"Om 	c #B08F7E",
"Pm 	c #A7836D",
"Qm 	c #9D785D",
"Rm 	c #9C775C",
"Sm 	c #9F7A5D",
"Tm 	c #A27B5E",
"Um 	c #977053",
"Vm 	c #956E51",
"Wm 	c #9D7659",
"Xm 	c #A37960",
"Ym 	c #A67C63",
"Zm 	c #A27A60",
"`m 	c #946C52",
" n 	c #896148",
".n 	c #875F46",
"+n 	c #805B41",
"@n 	c #7C573D",
"#n 	c #886349",
"$n 	c #8C674D",
"%n 	c #9C7860",
"&n 	c #886851",
"*n 	c #907059",
"=n 	c #8A6B57",
"-n 	c #785C47",
";n 	c #715645",
">n 	c #553B2C",
",n 	c #4B3122",
"'n 	c #4B3424",
")n 	c #2A1C11",
"!n 	c #291B12",
"~n 	c #523D2C",
"{n 	c #493B32",
"]n 	c #444750",
"^n 	c #504D54",
"/n 	c #8A8081",
"(n 	c #978787",
"_n 	c #9B8786",
":n 	c #A28A86",
"<n 	c #B29994",
"[n 	c #BB9D92",
"}n 	c #B3907D",
"|n 	c #AA8670",
"1n 	c #A37F67",
"2n 	c #987356",
"3n 	c #997457",
"4n 	c #9F785B",
"5n 	c #A37C5F",
"6n 	c #9A7356",
"7n 	c #997255",
"8n 	c #9E775A",
"9n 	c #A0765D",
"0n 	c #9F755C",
"an 	c #7F573D",
"bn 	c #886046",
"cn 	c #855D44",
"dn 	c #865E45",
"en 	c #845F45",
"fn 	c #89644A",
"gn 	c #98745C",
"hn 	c #84614B",
"in 	c #825F49",
"jn 	c #91715A",
"kn 	c #7B5C48",
"ln 	c #6E523D",
"mn 	c #664B3A",
"nn 	c #5D4334",
"on 	c #463022",
"pn 	c #291B10",
"qn 	c #483A2F",
"rn 	c #5D5B60",
"sn 	c #968A8A",
"tn 	c #A89493",
"un 	c #A99491",
"vn 	c #AB948E",
"wn 	c #B7998F",
"xn 	c #BC9C8F",
"yn 	c #BC9B8A",
"zn 	c #B3907C",
"An 	c #A6826A",
"Bn 	c #A07B61",
"Cn 	c #A57E5F",
"Dn 	c #A47D5E",
"En 	c #A2795B",
"Fn 	c #A47B5F",
"Gn 	c #A77E62",
"Hn 	c #9C7357",
"In 	c #9F765A",
"Jn 	c #876043",
"Kn 	c #8B6349",
"Ln 	c #865E44",
"Mn 	c #876247",
"Nn 	c #845F44",
"On 	c #886348",
"Pn 	c #946F54",
"Qn 	c #9B765C",
"Rn 	c #987359",
"Sn 	c #99745A",
"Tn 	c #96725A",
"Un 	c #8C6953",
"Vn 	c #856550",
"Wn 	c #735440",
"Xn 	c #71523E",
"Yn 	c #604637",
"Zn 	c #5A4031",
"`n 	c #473123",
" o 	c #2B1D14",
".o 	c #352214",
"+o 	c #563F2F",
"@o 	c #563F2D",
"#o 	c #523B29",
"$o 	c #513B26",
"%o 	c #543E29",
"&o 	c #553F2A",
"*o 	c #56402B",
"=o 	c #553E2C",
"-o 	c #4E3725",
";o 	c #534A43",
">o 	c #494A4F",
",o 	c #696468",
"'o 	c #A5928E",
")o 	c #A5908D",
"!o 	c #B3988F",
"~o 	c #BEA095",
"{o 	c #C6A596",
"]o 	c #B99585",
"^o 	c #A8826B",
"/o 	c #A57D63",
"(o 	c #A67F62",
"_o 	c #A87F61",
":o 	c #A67D5D",
"<o 	c #A27959",
"[o 	c #AC8365",
"}o 	c #A87F63",
"|o 	c #997054",
"1o 	c #90694C",
"2o 	c #8A6248",
"3o 	c #8B664B",
"4o 	c #8F6A4F",
"5o 	c #987358",
"6o 	c #9F7A60",
"7o 	c #9D785E",
"8o 	c #936F57",
"9o 	c #8D6A54",
"0o 	c #88654F",
"ao 	c #8D6D58",
"bo 	c #72533F",
"co 	c #6B4F3A",
"do 	c #694D38",
"eo 	c #53392A",
"fo 	c #543D2D",
"go 	c #523B2D",
"ho 	c #553E2E",
"io 	c #543D2B",
"jo 	c #523C27",
"ko 	c #58422D",
"lo 	c #59432E",
"mo 	c #594230",
"no 	c #58412F",
"oo 	c #503927",
"po 	c #4C4B51",
"qo 	c #504F54",
"ro 	c #726E6F",
"so 	c #A4918B",
"to 	c #A68F87",
"uo 	c #B2968B",
"vo 	c #B69689",
"wo 	c #B59483",
"xo 	c #B08B79",
"yo 	c #AB8570",
"zo 	c #A77F66",
"Ao 	c #AA8165",
"Bo 	c #AD8164",
"Co 	c #AA7F5F",
"Do 	c #A57A5A",
"Eo 	c #AF8366",
"Fo 	c #AA7E63",
"Go 	c #9B7256",
"Ho 	c #9A7155",
"Io 	c #966F52",
"Jo 	c #8F684B",
"Ko 	c #8F6A4D",
"Lo 	c #8B6649",
"Mo 	c #926D52",
"No 	c #957055",
"Oo 	c #997459",
"Po 	c #9E795E",
"Qo 	c #A67E64",
"Ro 	c #A98167",
"So 	c #926E56",
"To 	c #906C54",
"Uo 	c #85654E",
"Vo 	c #81614A",
"Wo 	c #84644F",
"Xo 	c #82624D",
"Yo 	c #70513D",
"Zo 	c #654934",
"`o 	c #694C3C",
" p 	c #654838",
".p 	c #614635",
"+p 	c #593F30",
"@p 	c #3C291A",
"#p 	c #3E2B1C",
"$p 	c #553E30",
"%p 	c #533C2A",
"&p 	c #5A442F",
"*p 	c #5B4530",
"=p 	c #5B4432",
"-p 	c #5A4331",
";p 	c #57402E",
">p 	c #543F2E",
",p 	c #4E4138",
"'p 	c #4D4C51",
")p 	c #535355",
"!p 	c #797373",
"~p 	c #9E8F8A",
"{p 	c #A38F88",
"]p 	c #A99187",
"^p 	c #AF9388",
"/p 	c #B19388",
"(p 	c #AE8D7E",
"_p 	c #A88474",
":p 	c #A7816E",
"<p 	c #A57C66",
"[p 	c #A37961",
"}p 	c #AB7F64",
"|p 	c #AE8265",
"1p 	c #AC8161",
"2p 	c #A87D5D",
"3p 	c #A5795C",
"4p 	c #A77B60",
"5p 	c #A0775B",
"6p 	c #986F53",
"7p 	c #8D6649",
"8p 	c #855E41",
"9p 	c #876245",
"0p 	c #A27D62",
"ap 	c #A58065",
"bp 	c #A68166",
"cp 	c #AD856B",
"dp 	c #B1896F",
"ep 	c #AC846A",
"fp 	c #A47C62",
"gp 	c #956F58",
"hp 	c #916E58",
"ip 	c #8E6B55",
"jp 	c #84644D",
"kp 	c #83634E",
"lp 	c #70543F",
"mp 	c #6C503B",
"np 	c #6A4D3D",
"op 	c #634636",
"pp 	c #5F4433",
"qp 	c #684E3F",
"rp 	c #674D3E",
"sp 	c #4F382A",
"tp 	c #533D30",
"up 	c #281A0F",
"vp 	c #3F2C1D",
"wp 	c #57412C",
"xp 	c #5A585B",
"yp 	c #837E7B",
"zp 	c #A2938C",
"Ap 	c #A59186",
"Bp 	c #A69085",
"Cp 	c #A78F83",
"Dp 	c #AF9387",
"Ep 	c #B39688",
"Fp 	c #B39281",
"Gp 	c #B08D7A",
"Hp 	c #A6806B",
"Ip 	c #A47B65",
"Jp 	c #A4785D",
"Kp 	c #A97B61",
"Lp 	c #AD8063",
"Mp 	c #AC7F60",
"Np 	c #AA7D5E",
"Op 	c #A4785B",
"Pp 	c #A67A5D",
"Qp 	c #A57C60",
"Rp 	c #9D7458",
"Sp 	c #926B4E",
"Tp 	c #8A6548",
"Up 	c #8E694C",
"Vp 	c #906D4F",
"Wp 	c #926F51",
"Xp 	c #8F674D",
"Yp 	c #936D56",
"Zp 	c #906D57",
"`p 	c #86664F",
" q 	c #604333",
".q 	c #65493B",
"+q 	c #63493A",
"@q 	c #654B3C",
"#q 	c #5C4537",
"$q 	c #543E31",
"%q 	c #533C2E",
"&q 	c #533D28",
"*q 	c #563D29",
"=q 	c #554B42",
"-q 	c #565658",
";q 	c #646263",
">q 	c #938B89",
",q 	c #A6958D",
"'q 	c #AC9689",
")q 	c #AF978B",
"!q 	c #B39789",
"~q 	c #B49485",
"{q 	c #AF8E7D",
"]q 	c #AC8671",
"^q 	c #A98168",
"/q 	c #A67962",
"(q 	c #A7795F",
"_q 	c #AA7D60",
":q 	c #A97C5D",
"<q 	c #AF8265",
"[q 	c #AB7F62",
"}q 	c #AC8367",
"|q 	c #A88164",
"1q 	c #9B7659",
"2q 	c #A17E60",
"3q 	c #A07D5F",
"4q 	c #9E765C",
"5q 	c #A0785E",
"6q 	c #916B54",
"7q 	c #684C37",
"8q 	c #614434",
"9q 	c #664A3C",
"0q 	c #5F4536",
"aq 	c #574032",
"bq 	c #513E30",
"cq 	c #3D2A1B",
"dq 	c #50392B",
"eq 	c #583D2A",
"fq 	c #48362A",
"gq 	c #574C46",
"hq 	c #5C5A5D",
"iq 	c #6D696A",
"jq 	c #9D9592",
"kq 	c #A8978D",
"lq 	c #B39D8F",
"mq 	c #B9A294",
"nq 	c #B99F90",
"oq 	c #B4988A",
"pq 	c #AF907E",
"qq 	c #A47F6C",
"rq 	c #AE8873",
"sq 	c #AA8269",
"tq 	c #A77A63",
"uq 	c #A6785E",
"vq 	c #A87B5E",
"wq 	c #A97A5C",
"xq 	c #A77A5B",
"yq 	c #B08366",
"zq 	c #AF8668",
"Aq 	c #AA8163",
"Bq 	c #AC8568",
"Cq 	c #B18A6D",
"Dq 	c #A17C5F",
"Eq 	c #9C795B",
"Fq 	c #A78466",
"Gq 	c #9F7C5E",
"Hq 	c #977257",
"Iq 	c #966E54",
"Jq 	c #876750",
"Kq 	c #674A3A",
"Lq 	c #5E4131",
"Mq 	c #593C2C",
"Nq 	c #4E3729",
"Oq 	c #4D3628",
"Pq 	c #513A28",
"Qq 	c #4E3823",
"Rq 	c #564029",
"Sq 	c #57412A",
"Tq 	c #58422B",
"Uq 	c #584131",
"Vq 	c #5A3F2C",
"Wq 	c #573E2A",
"Xq 	c #565459",
"Yq 	c #706A6C",
"Zq 	c #A29795",
"`q 	c #B19F95",
" r 	c #B8A294",
".r 	c #B9A292",
"+r 	c #B49A89",
"@r 	c #AF9282",
"#r 	c #AD8E7C",
"$r 	c #B08D79",
"%r 	c #B08C76",
"&r 	c #AC836D",
"*r 	c #A97F67",
"=r 	c #A57960",
"-r 	c #A3775C",
";r 	c #A4775A",
">r 	c #A37858",
",r 	c #A47B5D",
"'r 	c #A1785A",
")r 	c #A47D60",
"!r 	c #977255",
"~r 	c #977456",
"{r 	c #A27F61",
"]r 	c #8D684D",
"^r 	c #8C674C",
"/r 	c #8B664C",
"(r 	c #936E54",
"_r 	c #8C6850",
":r 	c #8A6A53",
"<r 	c #7D5D48",
"[r 	c #745541",
"}r 	c #725543",
"|r 	c #614436",
"1r 	c #5F4234",
"2r 	c #5D4133",
"3r 	c #5C4032",
"4r 	c #4F3826",
"5r 	c #4B3422",
"6r 	c #4C3523",
"7r 	c #594232",
"8r 	c #5A4333",
"9r 	c #5A412D",
"0r 	c #593F2E",
"ar 	c #45372E",
"br 	c #50413A",
"cr 	c #494951",
"dr 	c #585359",
"er 	c #6C6366",
"fr 	c #8A7E80",
"gr 	c #A49592",
"hr 	c #AA968B",
"ir 	c #BCA597",
"jr 	c #BDA394",
"kr 	c #B49988",
"lr 	c #B39482",
"mr 	c #A8826D",
"nr 	c #AF8670",
"or 	c #AE816A",
"pr 	c #AD8168",
"qr 	c #A97B63",
"rr 	c #A07258",
"sr 	c #9B6F54",
"tr 	c #9F7358",
"ur 	c #A97D62",
"vr 	c #B08467",
"wr 	c #AB8060",
"xr 	c #A37856",
"yr 	c #996E4E",
"zr 	c #976E4E",
"Ar 	c #A17858",
"Br 	c #A88162",
"Cr 	c #A78061",
"Dr 	c #9E7A5A",
"Er 	c #9C775A",
"Fr 	c #967357",
"Gr 	c #89664A",
"Hr 	c #846046",
"Ir 	c #89654B",
"Jr 	c #8A664C",
"Kr 	c #8C684E",
"Lr 	c #906C52",
"Mr 	c #916F56",
"Nr 	c #896650",
"Or 	c #815E48",
"Pr 	c #7A5A45",
"Qr 	c #785843",
"Rr 	c #694A38",
"Sr 	c #644735",
"Tr 	c #664B38",
"Ur 	c #614633",
"Vr 	c #543928",
"Wr 	c #5B3F33",
"Xr 	c #593D31",
"Yr 	c #583C30",
"Zr 	c #563C2F",
"`r 	c #443323",
" s 	c #473425",
".s 	c #5B4434",
"+s 	c #5C4535",
"@s 	c #574030",
"#s 	c #483932",
"$s 	c #584D49",
"%s 	c #4F4E56",
"&s 	c #5D565D",
"*s 	c #706569",
"=s 	c #8D7D7E",
"-s 	c #B49D8D",
";s 	c #B59A89",
">s 	c #AD907E",
",s 	c #AB8A77",
"'s 	c #AA846F",
")s 	c #AF856D",
"!s 	c #AB7E67",
"~s 	c #A87A62",
"{s 	c #A17359",
"]s 	c #9B6D53",
"^s 	c #9A6E53",
"/s 	c #A1755A",
"(s 	c #B1886A",
"_s 	c #A97E5E",
":s 	c #9D7250",
"<s 	c #9B704E",
"[s 	c #9F7656",
"}s 	c #A47B5B",
"|s 	c #A0795A",
"1s 	c #9B7455",
"2s 	c #8A674B",
"3s 	c #866347",
"4s 	c #876349",
"5s 	c #8D6B50",
"6s 	c #8A684D",
"7s 	c #7F5B41",
"8s 	c #88644A",
"9s 	c #8E6C53",
"0s 	c #71513A",
"as 	c #70503B",
"bs 	c #72533E",
"cs 	c #6F503C",
"ds 	c #674A38",
"es 	c #644936",
"fs 	c #654A37",
"gs 	c #624736",
"hs 	c #573B2D",
"is 	c #573B2F",
"js 	c #54392E",
"ks 	c #52372C",
"ls 	c #50382C",
"ms 	c #3D2C1C",
"ns 	c #433127",
"os 	c #574A44",
"ps 	c #54535B",
"qs 	c #625B62",
"rs 	c #746A6B",
"ss 	c #8E7E7E",
"ts 	c #A3908A",
"us 	c #B19B8E",
"vs 	c #AF9483",
"ws 	c #AE8976",
"xs 	c #B48B77",
"ys 	c #B28870",
"zs 	c #A0735C",
"As 	c #9F7159",
"Bs 	c #9D6F55",
"Cs 	c #9F7157",
"Ds 	c #AE8567",
"Es 	c #9F7454",
"Fs 	c #9A6F4D",
"Gs 	c #926745",
"Hs 	c #8D6240",
"Is 	c #8C6343",
"Js 	c #906747",
"Ks 	c #8F6849",
"Ls 	c #8C6546",
"Ms 	c #845F42",
"Ns 	c #8C694D",
"Os 	c #8E6A50",
"Ps 	c #8F6B51",
"Qs 	c #8C6A4F",
"Rs 	c #826047",
"Ss 	c #88664D",
"Ts 	c #8D6B52",
"Us 	c #8B6950",
"Vs 	c #775742",
"Ws 	c #775843",
"Xs 	c #6A4B37",
"Ys 	c #664A35",
"Zs 	c #684B39",
"`s 	c #5F4534",
" t 	c #52382B",
".t 	c #4F3429",
"+t 	c #4C3126",
"@t 	c #5D4634",
"#t 	c #443228",
"$t 	c #45362F",
"%t 	c #4D3E37",
"&t 	c #544741",
"*t 	c #574C48",
"=t 	c #56555B",
"-t 	c #796D6F",
";t 	c #928282",
">t 	c #A6938D",
",t 	c #B49C90",
"'t 	c #AD9382",
")t 	c #B09383",
"!t 	c #B28E78",
"~t 	c #B78E78",
"{t 	c #9E7058",
"]t 	c #9B6D55",
"^t 	c #A4765C",
"/t 	c #B08469",
"(t 	c #AF866A",
"_t 	c #976C4A",
":t 	c #8A5F3D",
"<t 	c #825735",
"[t 	c #815838",
"}t 	c #875E3E",
"|t 	c #886142",
"1t 	c #876041",
"2t 	c #8C674A",
"3t 	c #8E6B4F",
"4t 	c #8B694E",
"5t 	c #87654C",
"6t 	c #87674E",
"7t 	c #896952",
"8t 	c #866850",
"9t 	c #775B45",
"0t 	c #715540",
"at 	c #6B503B",
"bt 	c #684D3A",
"ct 	c #5B4130",
"dt 	c #563C2D",
"et 	c #3E2A1F",
"ft 	c #5E4735",
"gt 	c #483429",
"ht 	c #51423D",
"it 	c #584B45",
"jt 	c #5A575E",
"kt 	c #6B6267",
"lt 	c #807474",
"mt 	c #AE9A93",
"nt 	c #B69C8F",
"ot 	c #AE9382",
"pt 	c #B39686",
"qt 	c #B79884",
"rt 	c #B08A75",
"st 	c #AD846E",
"tt 	c #A5775F",
"ut 	c #A87A60",
"vt 	c #B28669",
"wt 	c #B3876A",
"xt 	c #B4886B",
"yt 	c #9E7351",
"zt 	c #926747",
"At 	c #8C6141",
"Bt 	c #8E6545",
"Ct 	c #946B4B",
"Dt 	c #946D4E",
"Et 	c #90694A",
"Ft 	c #8D684B",
"Gt 	c #98745A",
"Ht 	c #916D53",
"It 	c #85634A",
"Jt 	c #805D47",
"Kt 	c #7A5A43",
"Lt 	c #7F604B",
"Mt 	c #6F533E",
"Nt 	c #775A48",
"Ot 	c #6E5340",
"Pt 	c #624837",
"Qt 	c #443025",
"Rt 	c #3C2A20",
"St 	c #3A281E",
"Tt 	c #39251C",
"Ut 	c #38241B",
"Vt 	c #4C3527",
"Wt 	c #5C4533",
"Xt 	c #4B372C",
"Yt 	c #44332B",
"Zt 	c #605B61",
"`t 	c #71686B",
" u 	c #897B7A",
".u 	c #A3908C",
"+u 	c #B59E96",
"@u 	c #B89C8E",
"#u 	c #B59886",
"$u 	c #B79886",
"%u 	c #B89784",
"&u 	c #B38F79",
"*u 	c #A9836C",
"=u 	c #A17960",
"-u 	c #A3755B",
";u 	c #AC7E64",
">u 	c #B7896F",
",u 	c #B98D70",
"'u 	c #AA7E61",
")u 	c #A77B5E",
"!u 	c #A27757",
"~u 	c #966B4B",
"{u 	c #997050",
"]u 	c #9D7454",
"^u 	c #987152",
"/u 	c #916A4B",
"(u 	c #916C4F",
"_u 	c #937054",
":u 	c #947056",
"<u 	c #88664B",
"[u 	c #7D5D46",
"}u 	c #6A4F3C",
"|u 	c #654B3A",
"1u 	c #483322",
"2u 	c #3B291F",
"3u 	c #39271D",
"4u 	c #4B3426",
"5u 	c #4C3B34",
"6u 	c #584D47",
"7u 	c #57565E",
"8u 	c #656066",
"9u 	c #766C6D",
"0u 	c #A5928B",
"au 	c #BA9D8D",
"bu 	c #BC9B88",
"cu 	c #B69582",
"du 	c #AE8A74",
"eu 	c #B5886B",
"fu 	c #BF9275",
"gu 	c #BB8E71",
"hu 	c #AC7F62",
"iu 	c #9F7356",
"ju 	c #9B6F52",
"ku 	c #986D4D",
"lu 	c #976C4C",
"mu 	c #9A7153",
"nu 	c #9C7355",
"ou 	c #8D694F",
"pu 	c #8B674D",
"qu 	c #86644B",
"ru 	c #846249",
"su 	c #7C5D48",
"tu 	c #6B503D",
"uu 	c #36251D",
"vu 	c #3A2720",
"wu 	c #3B2821",
"xu 	c #3B271E",
"yu 	c #4A3325",
"zu 	c #493224",
"Au 	c #493830",
"Bu 	c #55463F",
"Cu 	c #594E48",
"Du 	c #5B5861",
"Eu 	c #696367",
"Fu 	c #796D6D",
"Gu 	c #907E7A",
"Hu 	c #A38F86",
"Iu 	c #BC9985",
"Ju 	c #B28D7A",
"Ku 	c #A7816A",
"Lu 	c #A0785F",
"Mu 	c #9D735A",
"Nu 	c #B2846A",
"Ou 	c #B18467",
"Pu 	c #B4876A",
"Qu 	c #A17457",
"Ru 	c #9C7053",
"Su 	c #A07457",
"Tu 	c #9B7050",
"Uu 	c #9B7254",
"Vu 	c #9E7557",
"Wu 	c #9C7558",
"Xu 	c #906B50",
"Yu 	c #856147",
"Zu 	c #76563F",
"`u 	c #37241D",
" v 	c #584133",
".v 	c #412F25",
"+v 	c #49362F",
"@v 	c #54453E",
"#v 	c #59504B",
"$v 	c #5C5960",
"%v 	c #666062",
"&v 	c #807271",
"*v 	c #9F8C85",
"=v 	c #B18B78",
"-v 	c #AD8470",
";v 	c #A67D67",
">v 	c #B6886E",
",v 	c #B98C6F",
"'v 	c #B78A6D",
")v 	c #AD8061",
"!v 	c #A47758",
"~v 	c #A07354",
"{v 	c #9D7051",
"]v 	c #9B6E4F",
"^v 	c #9C7151",
"/v 	c #956C4E",
"(v 	c #92694B",
"_v 	c #8E674A",
":v 	c #815C41",
"<v 	c #7F5A3F",
"[v 	c #846048",
"}v 	c #805C44",
"|v 	c #7C5A41",
"1v 	c #7E5C43",
"2v 	c #674C39",
"3v 	c #5B4132",
"4v 	c #43301F",
"5v 	c #443122",
"6v 	c #32211A",
"7v 	c #312019",
"8v 	c #321F18",
"9v 	c #322016",
"0v 	c #483123",
"av 	c #48362C",
"bv 	c #584F4A",
"cv 	c #656067",
"dv 	c #6D6467",
"ev 	c #B49D8F",
"fv 	c #B38E7C",
"gv 	c #B58C78",
"hv 	c #B28975",
"iv 	c #AD836D",
"jv 	c #A87E66",
"kv 	c #A87E65",
"lv 	c #B5896C",
"mv 	c #BA8D70",
"nv 	c #B78A6B",
"ov 	c #AF8263",
"pv 	c #A27556",
"qv 	c #9C6F50",
"rv 	c #976A4B",
"sv 	c #946949",
"tv 	c #936A4C",
"uv 	c #91684A",
"vv 	c #805B40",
"wv 	c #86624A",
"xv 	c #836148",
"yv 	c #7C5943",
"zv 	c #755540",
"Av 	c #755641",
"Bv 	c #463120",
"Cv 	c #412E1D",
"Dv 	c #3D2A19",
"Ev 	c #392818",
"Fv 	c #332117",
"Gv 	c #49352C",
"Hv 	c #4E3D35",
"Iv 	c #696269",
"Jv 	c #8C7D78",
"Kv 	c #AC988D",
"Lv 	c #BBA192",
"Mv 	c #B7917E",
"Nv 	c #B78D77",
"Ov 	c #B28872",
"Pv 	c #AC7F68",
"Qv 	c #AF836A",
"Rv 	c #BC8F72",
"Sv 	c #B48768",
"Tv 	c #AE8162",
"Uv 	c #A37657",
"Vv 	c #9A6D4E",
"Wv 	c #926546",
"Xv 	c #9A6F4F",
"Yv 	c #956A4A",
"Zv 	c #916548",
"`v 	c #906749",
" w 	c #8F6648",
".w 	c #835F45",
"+w 	c #805E45",
"@w 	c #75553C",
"#w 	c #74543D",
"$w 	c #75573F",
"%w 	c #73543F",
"&w 	c #6B4F39",
"*w 	c #624631",
"=w 	c #634833",
"-w 	c #5B402D",
";w 	c #4A3321",
">w 	c #422D1A",
",w 	c #3A2514",
"'w 	c #352213",
")w 	c #2F1E17",
"!w 	c #4C3225",
"~w 	c #59402C",
"{w 	c #4A362B",
"]w 	c #676067",
"^w 	c #9F8E87",
"/w 	c #B49E91",
"(w 	c #BCA190",
"_w 	c #B4947F",
":w 	c #B88F7B",
"<w 	c #B88B74",
"[w 	c #B3866F",
"}w 	c #B2866B",
"|w 	c #BA8D6E",
"1w 	c #B08364",
"2w 	c #956849",
"3w 	c #8F6346",
"4w 	c #906447",
"5w 	c #8E6547",
"6w 	c #8C6548",
"7w 	c #835E43",
"8w 	c #7E5A40",
"9w 	c #815D45",
"0w 	c #815F46",
"aw 	c #7F5D44",
"bw 	c #7B5940",
"cw 	c #77553C",
"dw 	c #78553F",
"ew 	c #71523D",
"fw 	c #694A36",
"gw 	c #6A4E39",
"hw 	c #6A4D3B",
"iw 	c #604532",
"jw 	c #5E4332",
"kw 	c #523925",
"lw 	c #49331E",
"mw 	c #402917",
"nw 	c #3B2615",
"ow 	c #3B2518",
"pw 	c #583F2B",
"qw 	c #593E2B",
"rw 	c #4C362B",
"sw 	c #686266",
"tw 	c #978B8B",
"uw 	c #BBAAA3",
"vw 	c #BEA89A",
"ww 	c #BCA18E",
"xw 	c #B18E78",
"yw 	c #B58B75",
"zw 	c #B58770",
"Aw 	c #B1836C",
"Bw 	c #B0826A",
"Cw 	c #B1836B",
"Dw 	c #AC7F5E",
"Ew 	c #AF8261",
"Fw 	c #AD805F",
"Gw 	c #A87A59",
"Hw 	c #A07251",
"Iw 	c #9B6C4E",
"Jw 	c #996C4D",
"Kw 	c #94684B",
"Lw 	c #91684C",
"Mw 	c #8F664A",
"Nw 	c #8C644A",
"Ow 	c #866147",
"Pw 	c #835F47",
"Qw 	c #7D593F",
"Rw 	c #7C583E",
"Sw 	c #7E5A42",
"Tw 	c #674B36",
"Uw 	c #624734",
"Vw 	c #573C29",
"Ww 	c #513625",
"Xw 	c #452D21",
"Yw 	c #4E3328",
"Zw 	c #5C412E",
"`w 	c #6C666A",
" x 	c #AA9F9D",
".x 	c #D0BDB6",
"+x 	c #C6AFA1",
"@x 	c #BCA08B",
"#x 	c #AD8B72",
"$x 	c #B2856E",
"%x 	c #B1816B",
"&x 	c #AF7F68",
"*x 	c #AF8169",
"=x 	c #B18369",
"-x 	c #A57859",
";x 	c #A37655",
">x 	c #A57857",
",x 	c #A87B5A",
"'x 	c #A77A59",
")x 	c #A17352",
"!x 	c #996B4A",
"~x 	c #966749",
"{x 	c #94674A",
"]x 	c #93674A",
"^x 	c #936A4E",
"/x 	c #8D654B",
"(x 	c #856046",
"_x 	c #835E44",
":x 	c #765641",
"<x 	c #644833",
"[x 	c #634732",
"}x 	c #604331",
"|x 	c #503629",
"1x 	c #3A261D",
"2x 	c #36231C",
"3x 	c #4B3124",
"4x 	c #4D3326",
"5x 	c #5E4330",
"6x 	c #6D6469",
"7x 	c #C7B4AD",
"8x 	c #BDA696",
"9x 	c #B99D87",
"0x 	c #AD8971",
"ax 	c #AF7F69",
"bx 	c #AE7E67",
"cx 	c #B1816A",
"dx 	c #B4856B",
"ex 	c #B28367",
"fx 	c #A87B5C",
"gx 	c #9F7251",
"hx 	c #9E7150",
"ix 	c #A07352",
"jx 	c #9D6F4E",
"kx 	c #986A49",
"lx 	c #96694C",
"mx 	c #866146",
"nx 	c #6E4F3A",
"ox 	c #6D4E39",
"px 	c #604534",
"qx 	c #573D30",
"rx 	c #452F24",
"sx 	c #402C23",
"tx 	c #38251E",
"ux 	c #322417",
"vx 	c #322515",
"wx 	c #4D3227",
"xx 	c #5D4636",
"yx 	c #695D5F",
"zx 	c #958681",
"Ax 	c #B49E93",
"Bx 	c #B19685",
"Cx 	c #B89883",
"Dx 	c #AD8770",
"Ex 	c #B3856E",
"Fx 	c #B7886E",
"Gx 	c #A17455",
"Hx 	c #9C6F4E",
"Ix 	c #9B6E4D",
"Jx 	c #9E7152",
"Kx 	c #9F7253",
"Lx 	c #9D6E52",
"Mx 	c #9D7053",
"Nx 	c #976B50",
"Ox 	c #906449",
"Px 	c #90674B",
"Qx 	c #936B51",
"Rx 	c #926D53",
"Sx 	c #77533B",
"Tx 	c #8A654A",
"Ux 	c #896449",
"Vx 	c #886549",
"Wx 	c #8A684F",
"Xx 	c #6F503B",
"Yx 	c #5A4033",
"Zx 	c #53382D",
"`x 	c #4A3228",
" y 	c #452E26",
".y 	c #39251E",
"+y 	c #432D20",
"@y 	c #493423",
"#y 	c #5B422E",
"$y 	c #583D2C",
"%y 	c #624839",
"&y 	c #665A5C",
"*y 	c #7E6C68",
"=y 	c #978078",
"-y 	c #A88A7F",
";y 	c #AE8D7C",
">y 	c #B38D78",
",y 	c #B89077",
"'y 	c #B4866F",
")y 	c #B98B73",
"!y 	c #B98D72",
"~y 	c #B4866C",
"{y 	c #A67B5B",
"]y 	c #A17656",
"^y 	c #976B4E",
"/y 	c #986A50",
"(y 	c #8F654C",
"_y 	c #92684F",
":y 	c #845E47",
"<y 	c #7F5942",
"[y 	c #77533D",
"}y 	c #7F5B45",
"|y 	c #906E55",
"1y 	c #8B684C",
"2y 	c #947257",
"3y 	c #927057",
"4y 	c #8C6A51",
"5y 	c #866651",
"6y 	c #7E5D4A",
"7y 	c #7C5B48",
"8y 	c #7D5C49",
"9y 	c #795D47",
"0y 	c #745842",
"ay 	c #6C513E",
"by 	c #593F32",
"cy 	c #4C342A",
"dy 	c #49322A",
"ey 	c #402923",
"fy 	c #3E2A23",
"gy 	c #3D2920",
"hy 	c #422C1F",
"iy 	c #55402F",
"jy 	c #4A3931",
"ky 	c #4F423C",
"ly 	c #6E605F",
"my 	c #85726C",
"ny 	c #9D8277",
"oy 	c #A9897A",
"py 	c #AC8775",
"qy 	c #AE856F",
"ry 	c #B0866E",
"sy 	c #B78A73",
"ty 	c #B1846D",
"uy 	c #B2866D",
"vy 	c #B78B72",
"wy 	c #BA8E71",
"xy 	c #A77C5C",
"yy 	c #9E7255",
"zy 	c #9C7055",
"Ay 	c #9C7057",
"By 	c #9B735A",
"Cy 	c #8F674E",
"Dy 	c #7F5A40",
"Ey 	c #7A543D",
"Fy 	c #78523B",
"Gy 	c #734F39",
"Hy 	c #805C46",
"Iy 	c #8A6650",
"Jy 	c #8F6C50",
"Ky 	c #8D6A4E",
"Ly 	c #876549",
"My 	c #87654A",
"Ny 	c #795845",
"Oy 	c #755441",
"Py 	c #745340",
"Qy 	c #715641",
"Ry 	c #6E533E",
"Sy 	c #462D26",
"Ty 	c #422B23",
"Uy 	c #3F2822",
"Vy 	c #3C281F",
"Wy 	c #372616",
"Xy 	c #362515",
"Yy 	c #402A1D",
"Zy 	c #412B1E",
"`y 	c #4F403B",
" z 	c #6F6160",
".z 	c #88756F",
"+z 	c #9E8378",
"@z 	c #A78778",
"#z 	c #A98471",
"$z 	c #B48A72",
"%z 	c #AD836B",
"&z 	c #AE846B",
"*z 	c #B48A71",
"=z 	c #B88F73",
"-z 	c #BA9173",
";z 	c #B68D6F",
">z 	c #AB8264",
",z 	c #896147",
"'z 	c #815C42",
")z 	c #7A553B",
"!z 	c #79543A",
"~z 	c #6C4830",
"{z 	c #7B573F",
"]z 	c #8A6751",
"^z 	c #926F59",
"/z 	c #927055",
"(z 	c #836146",
"_z 	c #7F5F46",
":z 	c #735442",
"<z 	c #6E4F3D",
"[z 	c #6A4B39",
"}z 	c #644934",
"|z 	c #614832",
"1z 	c #5D4430",
"2z 	c #3F261F",
"3z 	c #3A231B",
"4z 	c #3E2721",
"5z 	c #3C2821",
"6z 	c #3E281B",
"7z 	c #3F291C",
"8z 	c #452F21",
"9z 	c #47362E",
"0z 	c #4D3E39",
"az 	c #554842",
"bz 	c #5C5354",
"cz 	c #70625F",
"dz 	c #8A766F",
"ez 	c #A58475",
"fz 	c #B1876E",
"gz 	c #B38970",
"hz 	c #AE8569",
"iz 	c #AD8468",
"jz 	c #AD8466",
"kz 	c #A07759",
"lz 	c #997052",
"mz 	c #976E52",
"nz 	c #966D51",
"oz 	c #845C42",
"pz 	c #755139",
"qz 	c #7A563E",
"rz 	c #8F6D54",
"sz 	c #8E6C51",
"tz 	c #7A5A41",
"uz 	c #775740",
"vz 	c #735644",
"wz 	c #6F5240",
"xz 	c #654836",
"yz 	c #452E20",
"zz 	c #39221A",
"Az 	c #342017",
"Bz 	c #3A261F",
"Cz 	c #442E20",
"Dz 	c #45301F",
"Ez 	c #48372F",
"Fz 	c #63595A",
"Gz 	c #756764",
"Hz 	c #9B8174",
"Iz 	c #A1806F",
"Jz 	c #A57F6A",
"Kz 	c #AD8069",
"Lz 	c #B1856C",
"Mz 	c #B1876F",
"Nz 	c #AC826A",
"Oz 	c #AC8269",
"Pz 	c #A37A5E",
"Qz 	c #956C50",
"Rz 	c #92694D",
"Sz 	c #90664D",
"Tz 	c #8F654D",
"Uz 	c #8E644B",
"Vz 	c #8B6447",
"Wz 	c #886144",
"Xz 	c #825A40",
"Yz 	c #81593F",
"Zz 	c #79553B",
"`z 	c #7C5840",
" A 	c #7A583F",
".A 	c #73533C",
"+A 	c #705039",
"@A 	c #7A5E49",
"#A 	c #4D3823",
"$A 	c #493220",
"%A 	c #422D1C",
"&A 	c #3C2618",
"*A 	c #382215",
"=A 	c #361F17",
"-A 	c #321E15",
";A 	c #38241D",
">A 	c #36241A",
",A 	c #432D1F",
"'A 	c #442F1E",
")A 	c #4B392F",
"!A 	c #4E3F38",
"~A 	c #776865",
"{A 	c #9A7E72",
"]A 	c #A27F6C",
"^A 	c #B0846B",
"/A 	c #8C6347",
"(A 	c #8D6448",
"_A 	c #8A6145",
":A 	c #895F46",
"<A 	c #8A6047",
"[A 	c #8A6048",
"}A 	c #885E45",
"|A 	c #896245",
"1A 	c #7D5B42",
"2A 	c #72523B",
"3A 	c #6E523C",
"4A 	c #715643",
"5A 	c #3D2719",
"6A 	c #321F11",
"7A 	c #311D14",
"8A 	c #301E14",
"9A 	c #35221B",
"0A 	c #432E1D",
"aA 	c #503F37",
"bA 	c #635958",
"cA 	c #776863",
"dA 	c #8E776F",
"eA 	c #9A7E70",
"fA 	c #A4816D",
"gA 	c #AB836A",
"hA 	c #B3856B",
"iA 	c #9B7457",
"jA 	c #936C4F",
"kA 	c #8A6346",
"lA 	c #835C3F",
"mA 	c #865F42",
"nA 	c #855D43",
"oA 	c #875F45",
"pA 	c #8B6244",
"qA 	c #705542",
"rA 	c #664C3D",
"sA 	c #453221",
"tA 	c #3E2B1A",
"uA 	c #372415",
"vA 	c #332012",
"wA 	c #2F1D13",
"xA 	c #503F35",
"yA 	c #53453C",
"zA 	c #7C6D68",
"AA 	c #927C71",
"BA 	c #9E8173",
"CA 	c #A5806D",
"DA 	c #815A3D",
"EA 	c #7C5538",
"FA 	c #825B3E",
"GA 	c #8A6249",
"HA 	c #896044",
"IA 	c #8A6143",
"JA 	c #8E6549",
"KA 	c #916C51",
"LA 	c #75523C",
"MA 	c #725742",
"NA 	c #6F5441",
"OA 	c #6B523E",
"PA 	c #6C5241",
"QA 	c #5A4534",
"RA 	c #412E1F",
"SA 	c #402D1E",
"TA 	c #342112",
"UA 	c #2F1D11",
"VA 	c #4F3E34",
"WA 	c #55443A",
"XA 	c #635757",
"YA 	c #9B7E6E",
"ZA 	c #AB8168",
"`A 	c #AA7B5F",
" B 	c #A47557",
".B 	c #82593B",
"+B 	c #81583A",
"@B 	c #805739",
"#B 	c #835A3C",
"$B 	c #885F43",
"%B 	c #8B6148",
"&B 	c #8D634A",
"*B 	c #91674E",
"=B 	c #946A51",
"-B 	c #987154",
";B 	c #946D50",
">B 	c #8E694E",
",B 	c #745946",
"'B 	c #422C1E",
")B 	c #412B1D",
"!B 	c #4D3D30",
"~B 	c #544E50",
"{B 	c #6A5F5D",
"]B 	c #887770",
"^B 	c #9C8478",
"/B 	c #A28371",
"(B 	c #AA846D",
"_B 	c #A8795B",
":B 	c #A27453",
"<B 	c #996E4C",
"[B 	c #885F3F",
"}B 	c #7F5636",
"|B 	c #7E5537",
"1B 	c #875E40",
"2B 	c #996F56",
"3B 	c #956B52",
"4B 	c #9A6E51",
"5B 	c #8E694F",
"6B 	c #866248",
"7B 	c #795C4A",
"8B 	c #634C3C",
"9B 	c #6C615F",
"0B 	c #89766F",
"aB 	c #9D8376",
"bB 	c #A58066",
"cB 	c #A17050",
"dB 	c #9A6948",
"eB 	c #936744",
"fB 	c #875C3A",
"gB 	c #835836",
"hB 	c #865B3B",
"iB 	c #895E3E",
"jB 	c #9D7154",
"kB 	c #A5795E",
"lB 	c #A07459",
"mB 	c #9D7156",
"nB 	c #996D50",
"oB 	c #996D52",
"pB 	c #87634D",
"qB 	c #84614D",
"rB 	c #7A5D4B",
"sB 	c #7B5E4C",
"tB 	c #775C4B",
"uB 	c #6C5243",
"vB 	c #503E32",
"wB 	c #574E4F",
"xB 	c #6E605D",
"yB 	c #977D70",
"zB 	c #997865",
"AB 	c #986746",
"BB 	c #93633F",
"CB 	c #8E623D",
"DB 	c #8B603D",
"EB 	c #916643",
"FB 	c #966B49",
"GB 	c #9D7252",
"HB 	c #A2765B",
"IB 	c #A67A5F",
"JB 	c #966A4D",
"KB 	c #966A4F",
"LB 	c #936950",
"MB 	c #916950",
"NB 	c #906A53",
"OB 	c #8C6852",
"PB 	c #81604D",
"QB 	c #7A5B49",
"RB 	c #785B49",
"SB 	c #745948",
"TB 	c #694F40",
"UB 	c #5D4638",
"VB 	c #736562",
"WB 	c #947A6B",
"XB 	c #957560",
"YB 	c #9A7258",
"ZB 	c #9C6A49",
"`B 	c #9B6944",
" C 	c #966942",
".C 	c #996D48",
"+C 	c #A27651",
"@C 	c #A67A57",
"#C 	c #A67958",
"$C 	c #A77A5D",
"%C 	c #A97C5F",
"&C 	c #AB7E61",
"*C 	c #A6795C",
"=C 	c #95684B",
"-C 	c #95694E",
";C 	c #966A51",
">C 	c #936951",
",C 	c #906751",
"'C 	c #8E6851",
")C 	c #8D6953",
"!C 	c #8B6653",
"~C 	c #805F4E",
"{C 	c #7B5C4A",
"]C 	c #785947",
"^C 	c #775846",
"/C 	c #725746",
"(C 	c #331F14",
"_C 	c #3D271A",
":C 	c #927869",
"<C 	c #94745F",
"[C 	c #A17453",
"}C 	c #A57350",
"|C 	c #A97752",
"1C 	c #A57851",
"2C 	c #A77B54",
"3C 	c #AE825B",
"4C 	c #AF835E",
"5C 	c #AA7E5B",
"6C 	c #B38667",
"7C 	c #B28566",
"8C 	c #96694A",
"9C 	c #94664C",
"0C 	c #956950",
"aC 	c #926850",
"bC 	c #8F6650",
"cC 	c #8D6752",
"dC 	c #896652",
"eC 	c #866350",
"fC 	c #7E5F4D",
"gC 	c #7C5C4D",
"hC 	c #79594A",
"iC 	c #755644",
"jC 	c #735646",
"kC 	c #311F15",
"lC 	c #321E13",
"mC 	c #3C2619",
"nC 	c #402A1C",
"oC 	c #584F50",
"pC 	c #867269",
"qC 	c #917567",
"rC 	c #977460",
"sC 	c #B27D5B",
"tC 	c #B8845D",
"uC 	c #B2825A",
"vC 	c #B0835A",
"wC 	c #B48760",
"xC 	c #B58763",
"yC 	c #B28462",
"zC 	c #B48665",
"AC 	c #B38466",
"BC 	c #AB7C5E",
"CC 	c #A7785C",
"DC 	c #A27357",
"EC 	c #9A6B4D",
"FC 	c #946547",
"GC 	c #916244",
"HC 	c #926443",
"IC 	c #956746",
"JC 	c #97694F",
"KC 	c #976951",
"LC 	c #94684F",
"MC 	c #90664E",
"NC 	c #8E6551",
"OC 	c #886350",
"PC 	c #846050",
"QC 	c #7D5C4B",
"RC 	c #78584B",
"SC 	c #745445",
"TC 	c #745342",
"UC 	c #745543",
"VC 	c #6D523F",
"WC 	c #3A2417",
"XC 	c #57422F",
"YC 	c #594F4E",
"ZC 	c #75645D",
"`C 	c #867063",
" D 	c #937664",
".D 	c #AF8160",
"+D 	c #B78562",
"@D 	c #BF8D68",
"#D 	c #B5855D",
"$D 	c #B2855C",
"%D 	c #B68962",
"&D 	c #B98B67",
"*D 	c #B98B69",
"=D 	c #B98B6A",
"-D 	c #B08261",
";D 	c #A07153",
">D 	c #9F7054",
",D 	c #9B6C50",
"'D 	c #956648",
")D 	c #936645",
"!D 	c #98694B",
"~D 	c #9A6C52",
"{D 	c #986C53",
"]D 	c #8E644C",
"^D 	c #8C634D",
"/D 	c #8C6651",
"(D 	c #86614E",
"_D 	c #7F5E4D",
":D 	c #755546",
"<D 	c #715142",
"[D 	c #6C4C3D",
"}D 	c #725341",
"|D 	c #301C13",
"1D 	c #594431",
"2D 	c #4F464B",
"3D 	c #5C4E4D",
"4D 	c #876C5B",
"5D 	c #9B7862",
"6D 	c #A77F65",
"7D 	c #AE8363",
"8D 	c #B38665",
"9D 	c #BA8969",
"0D 	c #BE8D6C",
"aD 	c #BD8D69",
"bD 	c #BB8B67",
"cD 	c #B68662",
"dD 	c #B38261",
"eD 	c #B1805F",
"fD 	c #AF7E5E",
"gD 	c #A77958",
"hD 	c #936647",
"iD 	c #916447",
"jD 	c #926548",
"kD 	c #9A6D50",
"lD 	c #986C4F",
"mD 	c #91674F",
"nD 	c #866049",
"oD 	c #7F5E4B",
"pD 	c #6E5141",
"qD 	c #6D5040",
"rD 	c #6C4F3F",
"sD 	c #64483A",
"tD 	c #604436",
"uD 	c #513A2C",
"vD 	c #3C261B",
"wD 	c #342113",
"xD 	c #574231",
"yD 	c #56412E",
"zD 	c #4F444A",
"AD 	c #5D4D4D",
"BD 	c #796358",
"CD 	c #896C5A",
"DD 	c #9D795F",
"ED 	c #A98062",
"FD 	c #B28767",
"GD 	c #BA8D6C",
"HD 	c #BD8E70",
"ID 	c #BC8E6D",
"JD 	c #C29171",
"KD 	c #BC8B6A",
"LD 	c #B48362",
"MD 	c #AD7C5B",
"ND 	c #AA7959",
"OD 	c #A97858",
"PD 	c #A47655",
"QD 	c #986B4C",
"RD 	c #976A4D",
"SD 	c #986C51",
"TD 	c #9B6F56",
"UD 	c #976B52",
"VD 	c #84604A",
"WD 	c #83604C",
"XD 	c #795A48",
"YD 	c #6E513F",
"ZD 	c #634739",
"`D 	c #5F4538",
" E 	c #553B2E",
".E 	c #442C20",
"+E 	c #3F271B",
"@E 	c #4E4349",
"#E 	c #5D4E4B",
"$E 	c #7A6258",
"%E 	c #8E6F5D",
"&E 	c #A07C62",
"*E 	c #B78C6C",
"=E 	c #C19473",
"-E 	c #C39476",
";E 	c #BD8F6E",
">E 	c #C08F6F",
",E 	c #B98867",
"'E 	c #AB7A59",
")E 	c #A87757",
"!E 	c #A67555",
"~E 	c #9C6F52",
"{E 	c #996D54",
"]E 	c #966952",
"^E 	c #8D644E",
"/E 	c #885F49",
"(E 	c #845E49",
"_E 	c #835F49",
":E 	c #825F4B",
"<E 	c #6D503E",
"[E 	c #6C4F3D",
"}E 	c #61473A",
"|E 	c #5C4235",
"1E 	c #583E31",
"2E 	c #41291D",
"3E 	c #4D4246",
"4E 	c #5E4F4C",
"5E 	c #92735F",
"6E 	c #A68268",
"7E 	c #B2896B",
"8E 	c #BB9070",
"9E 	c #C49776",
"0E 	c #C59678",
"aE 	c #BF9072",
"bE 	c #B88767",
"cE 	c #AF7E5D",
"dE 	c #AB7A5A",
"eE 	c #A77656",
"fE 	c #A37554",
"gE 	c #9F7255",
"hE 	c #8A614B",
"iE 	c #86604B",
"jE 	c #85604D",
"kE 	c #543A2D",
"lE 	c #4F3528",
"mE 	c #4C4145",
"nE 	c #614F4B",
"oE 	c #7C6458",
"pE 	c #967763",
"qE 	c #AD896F",
"rE 	c #B78E70",
"sE 	c #C09372",
"tE 	c #C29375",
"uE 	c #B68565",
"vE 	c #AE7D5D",
"wE 	c #AD7C5C",
"xE 	c #A57658",
"yE 	c #A07356",
"zE 	c #916751",
"AE 	c #8B6550",
"BE 	c #8A644F",
"CE 	c #765745",
"DE 	c #715240",
"EE 	c #6B4E3C",
"FE 	c #694C3A",
"GE 	c #624638",
"HE 	c #4D4145",
"IE 	c #63514D",
"JE 	c #81695D",
"KE 	c #997A66",
"LE 	c #B08B70",
"ME 	c #BA9171",
"NE 	c #B98C6B",
"OE 	c #BA8B6F",
"PE 	c #BB8C6E",
"QE 	c #AC7B5B",
"RE 	c #A47353",
"SE 	c #A37456",
"TE 	c #9E7154",
"UE 	c #9A6E55",
"VE 	c #946750",
"WE 	c #956851",
"XE 	c #8E6853",
"YE 	c #87624F",
"ZE 	c #825F4C",
"`E 	c #725243",
" F 	c #6F503E",
".F 	c #6E4F3B",
"+F 	c #6C4D3B",
"@F 	c #6B4C3A",
"#F 	c #5E4437",
"$F 	c #4D4143",
"%F 	c #66534D",
"&F 	c #8B7164",
"*F 	c #9A7B66",
"=F 	c #AF8A6F",
"-F 	c #BB9272",
";F 	c #BA8F6F",
">F 	c #B48567",
",F 	c #B38262",
"'F 	c #A27151",
")F 	c #A27355",
"!F 	c #A5785B",
"~F 	c #A37659",
"{F 	c #92654E",
"]F 	c #946752",
"^F 	c #926852",
"/F 	c #8F654F",
"(F 	c #8D6754",
"_F 	c #8B6552",
":F 	c #845F4C",
"<F 	c #805D4A",
"[F 	c #7B5A47",
"}F 	c #785746",
"|F 	c #755443",
"1F 	c #725140",
"2F 	c #704F3E",
"3F 	c #6F4E3B",
"4F 	c #6D4C39",
"5F 	c #674834",
"6F 	c #664735",
"7F 	c #504144",
"8F 	c #67544E",
"9F 	c #91776A",
"0F 	c #9B7B66",
"aF 	c #AE866C",
"bF 	c #BC9171",
"cF 	c #BC8F6E",
"dF 	c #B08362",
"eF 	c #A9785A",
"fF 	c #A17254",
"gF 	c #A27558",
"hF 	c #9E7257",
"iF 	c #92664D",
"jF 	c #91644D",
"kF 	c #8D624F",
"lF 	c #8D6452",
"mF 	c #88624F",
"nF 	c #86604D",
"oF 	c #825D4A",
"pF 	c #7E5947",
"qF 	c #7A5744",
"rF 	c #785444",
"sF 	c #71503F",
"tF 	c #6E4D3A",
"uF 	c #6A4936",
"vF 	c #664532",
"wF 	c #634430",
"xF 	c #634432",
"yF 	c #644533",
"zF 	c #624533",
"AF 	c #634634",
"BF 	c #4B3D3D",
"CF 	c #6C5851",
"DF 	c #A5856E",
"EF 	c #B58E71",
"FF 	c #B98E6E",
"GF 	c #B48766",
"HF 	c #AE8160",
"IF 	c #A77658",
"JF 	c #A87759",
"KF 	c #A2745A",
"LF 	c #956853",
"MF 	c #966954",
"NF 	c #986B56",
"OF 	c #8B614B",
"PF 	c #875E4A",
"QF 	c #87614C",
"RF 	c #87614E",
"SF 	c #7D5845",
"TF 	c #785340",
"UF 	c #75503E",
"VF 	c #724F3C",
"WF 	c #73503D",
"XF 	c #75523F",
"YF 	c #71513C",
"ZF 	c #6D4D38",
"`F 	c #6A4A35",
" G 	c #644531",
".G 	c #5F4230",
"+G 	c #5D402E",
"@G 	c #5D422F",
"#G 	c #4D3624",
"$G 	c #483121",
"%G 	c #433021",
"&G 	c #4B3B3C",
"*G 	c #705C55",
"=G 	c #987C6E",
"-G 	c #B28564",
";G 	c #A67557",
">G 	c #A57456",
",G 	c #976A55",
"'G 	c #8C624C",
")G 	c #89604C",
"!G 	c #8A614D",
"~G 	c #825C49",
"{G 	c #7E5845",
"]G 	c #795441",
"^G 	c #76513E",
"/G 	c #744F3C",
"(G 	c #744F3D",
"_G 	c #73503C",
":G 	c #714E3A",
"<G 	c #6E4B37",
"[G 	c #694934",
"}G 	c #62432F",
"|G 	c #60412F",
"1G 	c #5C3F2D",
"2G 	c #462F1F",
"3G 	c #4A3A3A",
"4G 	c #79625A",
"5G 	c #AA886F",
"6G 	c #B58E6F",
"7G 	c #B68B69",
"8G 	c #A27153",
"9G 	c #A17052",
"0G 	c #A17256",
"aG 	c #8C624A",
"bG 	c #8A604A",
"cG 	c #855C46",
"dG 	c #815B46",
"eG 	c #7E5843",
"fG 	c #7B5540",
"gG 	c #78523D",
"hG 	c #75513B",
"iG 	c #734E3B",
"jG 	c #704D39",
"kG 	c #6D4A36",
"lG 	c #684833",
"mG 	c #664631",
"nG 	c #62432E",
"oG 	c #5F402C",
"pG 	c #5B3F2A",
"qG 	c #553C28",
"rG 	c #48311F",
"sG 	c #452E1E",
"tG 	c #3F291B",
"uG 	c #4C3C3C",
"vG 	c #816A62",
"wG 	c #AB876F",
"xG 	c #B88B6A",
"yG 	c #B28463",
"zG 	c #AD7E60",
"AG 	c #A06F51",
"BG 	c #93664F",
"CG 	c #8B6149",
"DG 	c #895F47",
"EG 	c #895F49",
"FG 	c #825943",
"GG 	c #7E5841",
"HG 	c #7C563F",
"IG 	c #7A543F",
"JG 	c #77513A",
"KG 	c #754F3A",
"LG 	c #714C39",
"MG 	c #6B4834",
"NG 	c #694632",
"OG 	c #64442F",
"PG 	c #60412D",
"QG 	c #5E3F2B",
"RG 	c #593C2A",
"SG 	c #3E281A",
"TG 	c #4F3F3F",
"UG 	c #887169",
"VG 	c #987967",
"WG 	c #A78369",
"XG 	c #B58C6E",
"YG 	c #B58766",
"ZG 	c #B18264",
"`G 	c #AE8164",
" H 	c #AC7B5D",
".H 	c #A47355",
"+H 	c #A37458",
"@H 	c #A5775D",
"#H 	c #9D7158",
"$H 	c #93674E",
"%H 	c #90644B",
"&H 	c #8E6249",
"*H 	c #875D45",
"=H 	c #815940",
"-H 	c #80583F",
";H 	c #7F573E",
">H 	c #7C533D",
",H 	c #785339",
"'H 	c #754F38",
")H 	c #744E37",
"!H 	c #714D37",
"~H 	c #6F4B35",
"{H 	c #6C4933",
"]H 	c #6A4733",
"^H 	c #654530",
"/H 	c #61422D",
"(H 	c #5E3F2A",
"_H 	c #593D28",
":H 	c #583D28",
"<H 	c #4D3722",
"[H 	c #352A2E",
"}H 	c #534343",
"|H 	c #8B746C",
"1H 	c #B68968",
"2H 	c #B38669",
"3H 	c #AD7E62",
"4H 	c #AF7E60",
"5H 	c #AE7D5F",
"6H 	c #AB7A5C",
"7H 	c #A47559",
"8H 	c #9E7259",
"9H 	c #91654C",
"0H 	c #875D44",
"aH 	c #7C543B",
"bH 	c #7A5239",
"cH 	c #744F35",
"dH 	c #734D36",
"eH 	c #6D4933",
"fH 	c #62422D",
"gH 	c #503A25",
"hH 	c #4C3621",
"iH 	c #372C30",
"jH 	c #584644",
"kH 	c #8C746A",
"lH 	c #957664",
"mH 	c #A37F65",
"nH 	c #B18568",
"oH 	c #B18362",
"pH 	c #AF8064",
"qH 	c #B07F61",
"rH 	c #AD7C5E",
"sH 	c #AA795B",
"tH 	c #94684D",
"uH 	c #93674C",
"vH 	c #8C6249",
"wH 	c #835940",
"xH 	c #80583E",
"yH 	c #7E563C",
"zH 	c #7C543A",
"AH 	c #795137",
"BH 	c #774F35",
"CH 	c #734D38",
"DH 	c #6C4935",
"EH 	c #674732",
"FH 	c #60412C",
"GH 	c #5A3F2A",
"HH 	c #593E29",
"IH 	c #553C26",
"JH 	c #47321D",
"KH 	c #45301D",
"LH 	c #594335",
"MH 	c #382E2C",
"NH 	c #594841",
"OH 	c #8D7366",
"PH 	c #9D7D68",
"QH 	c #AA8268",
"RH 	c #AC7E5D",
"SH 	c #B08165",
"TH 	c #AC7A5F",
"UH 	c #A7785A",
"VH 	c #A8765B",
"WH 	c #A5765A",
"XH 	c #92664B",
"YH 	c #8E6247",
"ZH 	c #865C43",
"`H 	c #845A41",
" I 	c #82583F",
".I 	c #7D533A",
"+I 	c #784E35",
"@I 	c #764E34",
"#I 	c #784F39",
"$I 	c #704C36",
"%I 	c #5D412C",
"&I 	c #563D27",
"*I 	c #533A26",
"=I 	c #4F3622",
"-I 	c #584332",
";I 	c #594433",
">I 	c #3F3529",
",I 	c #604F3F",
"'I 	c #7E634E",
")I 	c #9C775D",
"!I 	c #B38061",
"~I 	c #B27D5D",
"{I 	c #B17C5C",
"]I 	c #B2805F",
"^I 	c #AE805F",
"/I 	c #AB7C62",
"(I 	c #A7785E",
"_I 	c #986B4E",
":I 	c #936649",
"<I 	c #8F6245",
"[I 	c #8B5E41",
"}I 	c #885C41",
"|I 	c #8B5F44",
"1I 	c #895D42",
"2I 	c #85593E",
"3I 	c #7F563A",
"4I 	c #7F5338",
"5I 	c #7E5539",
"6I 	c #81553A",
"7I 	c #80563D",
"8I 	c #785037",
"9I 	c #765039",
"0I 	c #6D4A34",
"aI 	c #5A3D2B",
"bI 	c #553828",
"cI 	c #503524",
"dI 	c #4D3221",
"eI 	c #4A301F",
"fI 	c #402B1A",
"gI 	c #442E23",
"hI 	c #463025",
"iI 	c #473126",
"jI 	c #5A4532",
"kI 	c #2B271C",
"lI 	c #483F2E",
"mI 	c #6A5842",
"nI 	c #82674C",
"oI 	c #B57E60",
"pI 	c #B2795B",
"qI 	c #B0795A",
"rI 	c #B37E5E",
"sI 	c #B18361",
"tI 	c #AA7C62",
"uI 	c #AD7F65",
"vI 	c #996C4F",
"wI 	c #895C3F",
"xI 	c #875B40",
"yI 	c #84583D",
"zI 	c #805439",
"AI 	c #80573B",
"BI 	c #7C5239",
"CI 	c #7A5238",
"DI 	c #795138",
"EI 	c #6E4B35",
"FI 	c #5E3F2D",
"GI 	c #573A2A",
"HI 	c #523525",
"II 	c #4F3222",
"JI 	c #4C3120",
"KI 	c #412C1B",
"LI 	c #3C2918",
"MI 	c #362314",
"NI 	c #432C24",
"OI 	c #483129",
"PI 	c #4A3429",
"QI 	c #4E3924",
"RI 	c #462F27",
"SI 	c #2F281E",
"TI 	c #534737",
"UI 	c #77624D",
"VI 	c #8A6C52",
"WI 	c #AF8062",
"XI 	c #B67F61",
"YI 	c #B37A5D",
"ZI 	c #B07E5D",
"`I 	c #B18060",
" J 	c #AE7F61",
".J 	c #AB7D63",
"+J 	c #946748",
"@J 	c #906346",
"#J 	c #8E6144",
"$J 	c #885C3F",
"%J 	c #865A3D",
"&J 	c #83573C",
"*J 	c #7E543B",
"=J 	c #7B5339",
"-J 	c #654634",
";J 	c #543727",
">J 	c #4F3423",
",J 	c #4C3221",
"'J 	c #584330",
")J 	c #584B3B",
"!J 	c #7C6752",
"~J 	c #917359",
"{J 	c #B08163",
"]J 	c #B78165",
"^J 	c #B07B5B",
"/J 	c #AD7B5A",
"(J 	c #8A5D40",
"_J 	c #895D40",
":J 	c #875B3E",
"<J 	c #835A3E",
"[J 	c #7D553B",
"}J 	c #7B533A",
"|J 	c #6B4B36",
"1J 	c #624331",
"2J 	c #5B3E2E",
"3J 	c #563929",
"4J 	c #4D3322",
"5J 	c #3F2C1B",
"6J 	c #3C3228",
"7J 	c #5A4A3A",
"8J 	c #7D6752",
"9J 	c #9A7A61",
"0J 	c #B47E62",
"aJ 	c #B27B5D",
"bJ 	c #AE795A",
"cJ 	c #A97657",
"dJ 	c #916445",
"eJ 	c #8D6043",
"fJ 	c #8B5F42",
"gJ 	c #8A5E41",
"hJ 	c #865D41",
"iJ 	c #7D553C",
"jJ 	c #724E38",
"kJ 	c #704D37",
"lJ 	c #40332A",
"mJ 	c #5C493A",
"nJ 	c #816653",
"oJ 	c #9F7D64",
"pJ 	c #AC795C",
"qJ 	c #AC7758",
"rJ 	c #A97455",
"sJ 	c #A77455",
"tJ 	c #AA7B5D",
"uJ 	c #906344",
"vJ 	c #8C5F42",
"wJ 	c #8C6043",
"xJ 	c #875E42",
"yJ 	c #835B41",
"zJ 	c #7E563D",
"AJ 	c #745038",
"BJ 	c #724F39",
"CJ 	c #5E412F",
"DJ 	c #5A3D2D",
"EJ 	c #422F1E",
"FJ 	c #4D372C",
"GJ 	c #634E3D",
"HJ 	c #866A55",
"IJ 	c #AB785B",
"JJ 	c #AA7758",
"KJ 	c #A87556",
"LJ 	c #AC7D5F",
"MJ 	c #A97A5E",
"NJ 	c #9D6E50",
"OJ 	c #9F7052",
"PJ 	c #9E6F51",
"QJ 	c #9E704F",
"RJ 	c #9C6E4D",
"SJ 	c #8C5F40",
"TJ 	c #8B5E3F",
"UJ 	c #855B42",
"VJ 	c #765137",
"WJ 	c #714D35",
"XJ 	c #6F4C36",
"YJ 	c #523726",
"ZJ 	c #402D1C",
"`J 	c #46311E",
" K 	c #47321F",
".K 	c #493421",
"+K 	c #4A3522",
"@K 	c #3F2D23",
"#K 	c #6B5142",
"$K 	c #8E6D5A",
"%K 	c #AF7C5D",
"&K 	c #AD7A5B",
"*K 	c #A6775B",
"=K 	c #A07155",
"-K 	c #9C6D51",
";K 	c #97684A",
">K 	c #9B6D4C",
",K 	c #8A5D3E",
"'K 	c #855C40",
")K 	c #775238",
"!K 	c #724D33",
"~K 	c #6D4931",
"{K 	c #6B4832",
"]K 	c #6A4731",
"^K 	c #654631",
"/K 	c #4E3322",
"(K 	c #483320",
"_K 	c #4B3623",
":K 	c #674B3D",
"<K 	c #886552",
"[K 	c #AD7B60",
"}K 	c #A37254",
"|K 	c #9F6E50",
"1K 	c #9D6C4E",
"2K 	c #9C6B4D",
"3K 	c #996848",
"4K 	c #9B6A4A",
"5K 	c #9E6D4D",
"6K 	c #A57454",
"7K 	c #A06F4F",
"8K 	c #9A6C4B",
"9K 	c #996C4B",
"0K 	c #986B4A",
"aK 	c #8F6243",
"bK 	c #8E6245",
"cK 	c #7A553A",
"dK 	c #68452F",
"eK 	c #66432D",
"fK 	c #5F402B",
"gK 	c #563927",
"hK 	c #4E3423",
"iK 	c #42301C",
"jK 	c #442C22",
"kK 	c #6F4F40",
"lK 	c #8D6855",
"mK 	c #9E745E",
"nK 	c #A9775C",
"oK 	c #9B6A4C",
"pK 	c #9A6949",
"qK 	c #9D6C4C",
"rK 	c #A37252",
"sK 	c #9F6E4E",
"tK 	c #926649",
"uK 	c #8D6144",
"vK 	c #775237",
"wK 	c #714C32",
"xK 	c #6A462E",
"yK 	c #65422C",
"zK 	c #61412A",
"AK 	c #5C3D28",
"BK 	c #583B29",
"CK 	c #543725",
"DK 	c #4D3A29",
"EK 	c #28150F",
"FK 	c #4E3129",
"GK 	c #785446",
"HK 	c #946B59",
"IK 	c #A47760",
"JK 	c #AB7E5F",
"KK 	c #A8795D",
"LK 	c #AB7960",
"MK 	c #AA785D",
"NK 	c #9E6D4F",
"OK 	c #9C6B4B",
"PK 	c #9C6B4A",
"QK 	c #9D6C4B",
"RK 	c #9F6E4D",
"SK 	c #A06F4E",
"TK 	c #9C6E4C",
"UK 	c #9A6D4C",
"VK 	c #916646",
"WK 	c #85593C",
"XK 	c #755035",
"YK 	c #6F4A30",
"ZK 	c #6B472F",
"`K 	c #68442C",
" L 	c #63402A",
".L 	c #5E3E27",
"+L 	c #5B3C27",
"@L 	c #573A28",
"#L 	c #533624",
"$L 	c #4B301F",
"%L 	c #4B3120",
"&L 	c #43311D",
"*L 	c #4B3827",
"=L 	c #2A160F",
"-L 	c #53352B",
";L 	c #7A5447",
">L 	c #946958",
",L 	c #A67861",
"'L 	c #A7755C",
")L 	c #9B6A49",
"!L 	c #9F7150",
"~L 	c #906545",
"{L 	c #825639",
"]L 	c #7D5436",
"^L 	c #765136",
"/L 	c #734E34",
"(L 	c #6F4B31",
"_L 	c #67452C",
":L 	c #5A3B26",
"<L 	c #523724",
"[L 	c #45331F",
"}L 	c #442F1C",
"|L 	c #483524",
"1L 	c #3B2E1E",
"2L 	c #2B1710",
"3L 	c #58372E",
"4L 	c #7A5246",
"5L 	c #936555",
"6L 	c #A4765F",
"7L 	c #A47259",
"8L 	c #A7755A",
"9L 	c #A47154",
"0L 	c #A37051",
"aL 	c #A26F50",
"bL 	c #A16E4F",
"cL 	c #9F6C4D",
"dL 	c #9E6B4C",
"eL 	c #9D6A4B",
"fL 	c #A06E4D",
"gL 	c #9E6C4B",
"hL 	c #9D6B4A",
"iL 	c #9F6D4C",
"jL 	c #966948",
"kL 	c #956847",
"lL 	c #8D6041",
"mL 	c #8B6040",
"nL 	c #815538",
"oL 	c #7C5335",
"pL 	c #734F35",
"qL 	c #704C32",
"rL 	c #5F3F28",
"sL 	c #513623",
"tL 	c #473521",
"uL 	c #44321E",
"vL 	c #392615",
"wL 	c #453422",
"xL 	c #311A12",
"yL 	c #5F3D33",
"zL 	c #7E5446",
"AL 	c #936452",
"BL 	c #A4745E",
"CL 	c #A5765C",
"DL 	c #A37158",
"EL 	c #A67459",
"FL 	c #A67356",
"GL 	c #A67354",
"HL 	c #A47152",
"IL 	c #A06D4E",
"JL 	c #A2704F",
"KL 	c #A16F4E",
"LL 	c #9E6D4C",
"ML 	c #976948",
"NL 	c #946746",
"OL 	c #926544",
"PL 	c #8E6142",
"QL 	c #8A5F3F",
"RL 	c #83573A",
"SL 	c #795439",
"TL 	c #745036",
"UL 	c #714D33",
"VL 	c #6D4B32",
"WL 	c #69472E",
"XL 	c #63432C",
"YL 	c #604029",
"ZL 	c #563A24",
"`L 	c #4F3421",
" M 	c #463420",
".M 	c #3A2716",
"+M 	c #433220",
"@M 	c #392019",
"#M 	c #6A453C",
"$M 	c #865A4D",
"%M 	c #966755",
"&M 	c #A6765F",
"*M 	c #A5735A",
"=M 	c #A9765B",
"-M 	c #A87558",
";M 	c #A57253",
">M 	c #A47251",
",M 	c #9F6D4A",
"'M 	c #9D6B48",
")M 	c #8F6241",
"!M 	c #8C5F3E",
"~M 	c #885D3D",
"{M 	c #7C573C",
"]M 	c #78543A",
"^M 	c #704E35",
"/M 	c #6C4A31",
"(M 	c #66462F",
"_M 	c #523523",
":M 	c #45301B",
"<M 	c #43311B",
"[M 	c #4A3726",
"}M 	c #402F1D",
"|M 	c #724E42",
"1M 	c #8C6151",
"2M 	c #9B6B57",
"3M 	c #AB7962",
"4M 	c #A87655",
"5M 	c #A67453",
"6M 	c #A37150",
"7M 	c #A57352",
"8M 	c #A06E4B",
"9M 	c #9C6A47",
"0M 	c #9C6C48",
"aM 	c #966846",
"bM 	c #946644",
"cM 	c #946845",
"dM 	c #966847",
"eM 	c #906241",
"fM 	c #8B5E3D",
"gM 	c #8D603F",
"hM 	c #8C613F",
"iM 	c #845D3E",
"jM 	c #805B3E",
"kM 	c #785539",
"lM 	c #6F4D32",
"mM 	c #6B4930",
"nM 	c #66462D",
"oM 	c #523621",
"pM 	c #513422",
"qM 	c #432D18",
"rM 	c #422D18",
"sM 	c #432E1B",
"tM 	c #271813",
"uM 	c #4F372D",
"vM 	c #6F4E3F",
"wM 	c #9C6E57",
"xM 	c #AF7D64",
"yM 	c #AA7C5B",
"zM 	c #AD7858",
"AM 	c #AB7654",
"BM 	c #AA7354",
"CM 	c #A87351",
"DM 	c #A77252",
"EM 	c #A6714F",
"FM 	c #AB7956",
"GM 	c #A97754",
"HM 	c #A57551",
"IM 	c #A1714D",
"JM 	c #9E6E4A",
"KM 	c #9A6A46",
"LM 	c #986A46",
"MM 	c #966642",
"NM 	c #956743",
"OM 	c #976743",
"PM 	c #966544",
"QM 	c #936541",
"RM 	c #926140",
"SM 	c #8F613F",
"TM 	c #8D5F3D",
"UM 	c #8A5E3B",
"VM 	c #885A38",
"WM 	c #885C39",
"XM 	c #8C5E3D",
"YM 	c #8E6140",
"ZM 	c #8E6341",
"`M 	c #89613E",
" N 	c #865D3D",
".N 	c #815A39",
"+N 	c #7D5637",
"@N 	c #765134",
"#N 	c #704B30",
"$N 	c #6B472D",
"%N 	c #67442E",
"&N 	c #61412C",
"*N 	c #5D3C29",
"=N 	c #593A26",
"-N 	c #573826",
";N 	c #503321",
">N 	c #4B301D",
",N 	c #482F1B",
"'N 	c #432C1A",
")N 	c #412A18",
"!N 	c #402919",
"~N 	c #3D2817",
"{N 	c #473020",
"]N 	c #493625",
"^N 	c #473423",
"/N 	c #B9B8B7",
"(N 	c #2B1C17",
"_N 	c #765546",
":N 	c #9D6F57",
"<N 	c #AD7B62",
"[N 	c #AD7A5F",
"}N 	c #AB785D",
"|N 	c #A67857",
"1N 	c #A97B5A",
"2N 	c #AA7C5A",
"3N 	c #B07B59",
"4N 	c #B07A58",
"5N 	c #AE7856",
"6N 	c #AC7654",
"7N 	c #AA7553",
"8N 	c #A97452",
"9N 	c #A77552",
"0N 	c #AA7855",
"aN 	c #A87653",
"bN 	c #A47450",
"cN 	c #A0704C",
"dN 	c #9D6D49",
"eN 	c #9B6B47",
"fN 	c #976945",
"gN 	c #94643E",
"hN 	c #95653F",
"iN 	c #956541",
"jN 	c #946440",
"kN 	c #91613D",
"lN 	c #90603C",
"mN 	c #8D5F3B",
"nN 	c #8B5D39",
"oN 	c #8A5C3A",
"pN 	c #8C5E3C",
"qN 	c #8E603E",
"rN 	c #8F6340",
"sN 	c #906441",
"tN 	c #8F6441",
"uN 	c #8D623F",
"vN 	c #865E3B",
"wN 	c #825939",
"xN 	c #7C5534",
"yN 	c #775033",
"zN 	c #724D32",
"AN 	c #694630",
"BN 	c #66432F",
"CN 	c #603F2C",
"DN 	c #5C3D29",
"EN 	c #5A3B29",
"FN 	c #4D321F",
"GN 	c #482E1D",
"HN 	c #452B1A",
"IN 	c #412A1A",
"JN 	c #3F2818",
"KN 	c #3E2D1B",
"LN 	c #4A3323",
"MN 	c #473624",
"NN 	c #453525",
"ON 	c #31221D",
"PN 	c #966D59",
"QN 	c #AA785F",
"RN 	c #AE7B60",
"SN 	c #AD7A5D",
"TN 	c #AC7B5A",
"UN 	c #B37D5B",
"VN 	c #B17B59",
"WN 	c #AF7957",
"XN 	c #AD7856",
"YN 	c #A4724F",
"ZN 	c #A16F4C",
"`N 	c #926440",
" O 	c #90623E",
".O 	c #906240",
"+O 	c #926744",
"@O 	c #906542",
"#O 	c #825B3A",
"$O 	c #7E573A",
"%O 	c #795437",
"&O 	c #775438",
"*O 	c #755137",
"=O 	c #714F36",
"-O 	c #6A4A33",
";O 	c #63432E",
">O 	c #563A25",
",O 	c #513621",
"'O 	c #4B321E",
")O 	c #462D19",
"!O 	c #443120",
"~O 	c #483725",
"{O 	c #463626",
"]O 	c #846352",
"^O 	c #A0725A",
"/O 	c #AB7958",
"(O 	c #B27C5A",
"_O 	c #A67451",
":O 	c #A3714E",
"<O 	c #996B47",
"[O 	c #966844",
"}O 	c #976947",
"|O 	c #986A48",
"1O 	c #986C49",
"2O 	c #976B48",
"3O 	c #966A47",
"4O 	c #956A47",
"5O 	c #936845",
"6O 	c #906543",
"7O 	c #896040",
"8O 	c #825B3C",
"9O 	c #80593C",
"0O 	c #7F5A3D",
"aO 	c #7C593D",
"bO 	c #755338",
"cO 	c #6A4A31",
"dO 	c #65452E",
"eO 	c #60422A",
"fO 	c #5A3E28",
"gO 	c #543924",
"hO 	c #4D321D",
"iO 	c #412B16",
"jO 	c #3F2816",
"kO 	c #3C2716",
"lO 	c #3F2E1C",
"mO 	c #4C3928",
"nO 	c #493826",
"oO 	c #483727",
"pO 	c #392A23",
"qO 	c #644E41",
"rO 	c #A1735B",
"sO 	c #AA775A",
"tO 	c #A97659",
"uO 	c #AC7757",
"vO 	c #B07857",
"wO 	c #AA7452",
"xO 	c #A77250",
"yO 	c #A5704E",
"zO 	c #9F714F",
"AO 	c #A07250",
"BO 	c #A17351",
"CO 	c #9C704D",
"DO 	c #9B6F4C",
"EO 	c #9C714F",
"FO 	c #8D6444",
"GO 	c #8A6141",
"HO 	c #865F40",
"IO 	c #835F3F",
"JO 	c #805D3F",
"KO 	c #7E5B3D",
"LO 	c #7A583C",
"MO 	c #765439",
"NO 	c #714F34",
"OO 	c #6A482D",
"PO 	c #644529",
"QO 	c #5F4127",
"RO 	c #573D24",
"SO 	c #4F351E",
"TO 	c #472E18",
"UO 	c #3E2715",
"VO 	c #3B2517",
"WO 	c #3A2419",
"XO 	c #3F2E26",
"YO 	c #83624F",
"ZO 	c #AD7859",
"`O 	c #AD7657",
" P 	c #AD7554",
".P 	c #AE7655",
"+P 	c #AD7755",
"@P 	c #AB7553",
"#P 	c #A87250",
"$P 	c #A36E4C",
"%P 	c #A26D4B",
"&P 	c #9B6946",
"*P 	c #996945",
"=P 	c #A27452",
"-P 	c #A47654",
";P 	c #A67856",
">P 	c #A57755",
",P 	c #A27653",
"'P 	c #9F7350",
")P 	c #9E724F",
"!P 	c #986D4B",
"~P 	c #8B6445",
"{P 	c #8A6344",
"]P 	c #856141",
"^P 	c #846040",
"/P 	c #836040",
"(P 	c #825F41",
"_P 	c #7D5C3D",
":P 	c #785738",
"<P 	c #725132",
"[P 	c #6B4C2F",
"}P 	c #634529",
"|P 	c #5C4126",
"1P 	c #533920",
"2P 	c #4B331B",
"3P 	c #462D17",
"4P 	c #3D2815",
"5P 	c #3B251A",
"6P 	c #6A5343",
"7P 	c #AF795D",
"8P 	c #AF785A",
"9P 	c #A97351",
"0P 	c #A46F4D",
"aP 	c #9E6C49",
"bP 	c #A47756",
"cP 	c #966D4D",
"dP 	c #956C4C",
"eP 	c #946B4D",
"fP 	c #8E6746",
"gP 	c #8D6645",
"hP 	c #896543",
"iP 	c #886643",
"jP 	c #876444",
"kP 	c #856242",
"lP 	c #7F5C3C",
"mP 	c #775635",
"nP 	c #705230",
"oP 	c #684B2D",
"pP 	c #614629",
"qP 	c #593F24",
"rP 	c #51391F",
"sP 	c #4C341C",
"tP 	c #463019",
"uP 	c #473626",
"vP 	c #84817E",
"wP 	c #180D07",
"xP 	c #6F5546",
"yP 	c #AF7C5F",
"zP 	c #AE7B5E",
"AP 	c #B07A5E",
"BP 	c #AE7758",
"CP 	c #AD7456",
"DP 	c #A2704D",
"EP 	c #A47652",
"FP 	c #A27554",
"GP 	c #A97C5B",
"HP 	c #A47957",
"IP 	c #A07553",
"JP 	c #9B7252",
"KP 	c #986F4F",
"LP 	c #966D4F",
"MP 	c #986F51",
"NP 	c #8D6947",
"OP 	c #8C6A47",
"PP 	c #8B6946",
"QP 	c #876542",
"RP 	c #815F3C",
"SP 	c #785734",
"TP 	c #6C4F2F",
"UP 	c #664B2D",
"VP 	c #5E4527",
"WP 	c #573D22",
"XP 	c #4B351D",
"YP 	c #46311C",
"ZP 	c #3D2C1A",
"`P 	c #5B544F",
" Q 	c #1E0F08",
".Q 	c #7A5F4E",
"+Q 	c #94715B",
"@Q 	c #B48162",
"#Q 	c #B78467",
"$Q 	c #B48164",
"%Q 	c #B17B5F",
"&Q 	c #AE7557",
"*Q 	c #AF7859",
"=Q 	c #A2724E",
"-Q 	c #A67652",
";Q 	c #A87A58",
">Q 	c #9D7456",
",Q 	c #956E4F",
"'Q 	c #926B4C",
")Q 	c #886444",
"!Q 	c #8A6646",
"~Q 	c #8A6845",
"{Q 	c #856340",
"]Q 	c #7E5D3A",
"^Q 	c #765836",
"/Q 	c #6D5030",
"(Q 	c #684D2F",
"_Q 	c #634A2C",
":Q 	c #5E4429",
"<Q 	c #594127",
"[Q 	c #533D25",
"}Q 	c #40281C",
"|Q 	c #3C2B19",
"1Q 	c #463322",
"2Q 	c #4A3927",
"3Q 	c #4A3929",
"4Q 	c #3B2D20",
"5Q 	c #26150D",
"6Q 	c #7C5F4D",
"7Q 	c #97735B",
"8Q 	c #B48363",
"9Q 	c #B58263",
"0Q 	c #B37D61",
"aQ 	c #B0795B",
"bQ 	c #AE7759",
"cQ 	c #AB7455",
"dQ 	c #A87353",
"eQ 	c #A67151",
"fQ 	c #A47352",
"gQ 	c #A1704F",
"hQ 	c #A3734F",
"iQ 	c #A87756",
"jQ 	c #A87D5B",
"kQ 	c #A57C5C",
"lQ 	c #A07757",
"mQ 	c #976E50",
"nQ 	c #835E41",
"oQ 	c #815C3F",
"pQ 	c #825D40",
"qQ 	c #846141",
"rQ 	c #83613E",
"sQ 	c #825F3F",
"tQ 	c #7C5B3A",
"uQ 	c #6E5131",
"vQ 	c #694F2E",
"wQ 	c #644B2D",
"xQ 	c #61482A",
"yQ 	c #5E462C",
"zQ 	c #5A422A",
"AQ 	c #533D26",
"BQ 	c #4F3A25",
"CQ 	c #3B2817",
"DQ 	c #3B2A18",
"EQ 	c #4B3A2A",
"FQ 	c #B58464",
"GQ 	c #B78666",
"HQ 	c #B78668",
"IQ 	c #B48365",
"JQ 	c #B38063",
"KQ 	c #B27A5F",
"LQ 	c #AB7657",
"MQ 	c #A77554",
"NQ 	c #A97857",
"OQ 	c #A37A5C",
"PQ 	c #977051",
"QQ 	c #886346",
"RQ 	c #866144",
"SQ 	c #7B583C",
"TQ 	c #79563A",
"UQ 	c #7B583A",
"VQ 	c #7A593A",
"WQ 	c #795837",
"XQ 	c #755637",
"YQ 	c #6F5232",
"ZQ 	c #6A502F",
"`Q 	c #664B2E",
" R 	c #624A30",
".R 	c #5F472F",
"+R 	c #40291B",
"@R 	c #3F2A19",
"#R 	c #3A2917",
"$R 	c #523829",
"%R 	c #543A2B",
"&R 	c #4B3A28",
"*R 	c #9F775E",
"=R 	c #BC8D6F",
"-R 	c #BB8A6A",
";R 	c #B9886A",
">R 	c #B68567",
",R 	c #B58265",
"'R 	c #B27C60",
")R 	c #AE785C",
"!R 	c #A27755",
"~R 	c #A37A5A",
"{R 	c #745237",
"]R 	c #704C34",
"^R 	c #6D4B30",
"/R 	c #6E4A30",
"(R 	c #6E4C31",
"_R 	c #725034",
":R 	c #714F33",
"<R 	c #735135",
"[R 	c #775539",
"}R 	c #735437",
"|R 	c #705333",
"1R 	c #6A4F31",
"2R 	c #634930",
"3R 	c #60482E",
"4R 	c #5A442D",
"5R 	c #553F28",
"6R 	c #523D28",
"7R 	c #392816",
"8R 	c #4C3B2B",
"9R 	c #1C0B04",
"0R 	c #4F342B",
"aR 	c #7B5B4E",
"bR 	c #926D5A",
"cR 	c #A2785F",
"dR 	c #B6896A",
"eR 	c #C19372",
"fR 	c #BD8C6B",
"gR 	c #BF8E6E",
"hR 	c #BA8B6D",
"iR 	c #B58668",
"jR 	c #B48267",
"kR 	c #B48166",
"lR 	c #B17E61",
"mR 	c #A6795A",
"nR 	c #9F7658",
"oR 	c #9C7556",
"pR 	c #997253",
"qR 	c #896447",
"rR 	c #856045",
"sR 	c #7D583D",
"tR 	c #7B563B",
"uR 	c #77543E",
"vR 	c #74513B",
"wR 	c #6D4D34",
"xR 	c #68462D",
"yR 	c #6B4C30",
"zR 	c #6A4B2F",
"AR 	c #694A2E",
"BR 	c #705135",
"CR 	c #715236",
"DR 	c #715436",
"ER 	c #6D5032",
"FR 	c #62492B",
"GR 	c #62482F",
"HR 	c #5B452E",
"IR 	c #56412C",
"JR 	c #4B3621",
"KR 	c #422B19",
"LR 	c #402A15",
"MR 	c #3C2714",
"NR 	c #25120C",
"OR 	c #5A3E33",
"PR 	c #816051",
"QR 	c #98725F",
"RR 	c #A77B62",
"SR 	c #B68769",
"TR 	c #C59474",
"UR 	c #BE906F",
"VR 	c #B38166",
"WR 	c #B27F62",
"XR 	c #A47959",
"YR 	c #9C7353",
"ZR 	c #9A7354",
"`R 	c #825D42",
" S 	c #7E593E",
".S 	c #785338",
"+S 	c #6E4E37",
"@S 	c #6C4C35",
"#S 	c #694932",
"$S 	c #64442D",
"%S 	c #674730",
"&S 	c #63432A",
"*S 	c #694930",
"=S 	c #6F5135",
"-S 	c #674C2F",
";S 	c #654A2F",
">S 	c #5F472D",
",S 	c #5B452D",
"'S 	c #57422D",
")S 	c #533E29",
"!S 	c #4C3722",
"~S 	c #442E19",
"{S 	c #3E2813",
"]S 	c #3C2712",
"^S 	c #3B2915",
"/S 	c #2F1B14",
"(S 	c #604238",
"_S 	c #9A745F",
":S 	c #AB7F66",
"<S 	c #B7886A",
"[S 	c #BB8A69",
"}S 	c #B58869",
"|S 	c #B18266",
"1S 	c #AE7C61",
"2S 	c #A3775A",
"3S 	c #916A4D",
"4S 	c #745135",
"5S 	c #724E34",
"6S 	c #674833",
"7S 	c #63442F",
"8S 	c #62442C",
"9S 	c #5D3F27",
"0S 	c #5D3E29",
"aS 	c #67492D",
"bS 	c #694B2F",
"cS 	c #674C31",
"dS 	c #664B30",
"eS 	c #5A442C",
"fS 	c #523C25",
"gS 	c #4D3720",
"hS 	c #49331C",
"iS 	c #452F18",
"jS 	c #432D16",
"kS 	c #402A13",
"lS 	c #3E2A12",
"mS 	c #3C2A16",
"nS 	c #35211A",
"oS 	c #63453A",
"pS 	c #9B7560",
"qS 	c #AE8269",
"rS 	c #B8896B",
"sS 	c #C49373",
"tS 	c #B88766",
"uS 	c #B88A68",
"vS 	c #BB8D6B",
"wS 	c #B98C6D",
"xS 	c #B58466",
"yS 	c #AE7F63",
"zS 	c #7A563C",
"AS 	c #775339",
"BS 	c #6F4D34",
"CS 	c #5B3F29",
"DS 	c #5D412B",
"ES 	c #573B25",
"FS 	c #593D27",
"GS 	c #5E422A",
"HS 	c #62472C",
"IS 	c #654B32",
"JS 	c #614730",
"KS 	c #5C442C",
"LS 	c #58422A",
"MS 	c #503A23",
"NS 	c #4C361F",
"OS 	c #46301B",
"PS 	c #442E17",
"QS 	c #422C15",
"RS 	c #3F2A15",
"SS 	c #3D2B17",
"TS 	c #513726",
"US 	c #866554",
"VS 	c #BB8E6D",
"WS 	c #BC8E6C",
"XS 	c #BA8C68",
"YS 	c #B78967",
"ZS 	c #B5866A",
"`S 	c #B48569",
" T 	c #B68366",
".T 	c #A87C5F",
"+T 	c #735138",
"@T 	c #644530",
"#T 	c #5F432D",
"$T 	c #5C402A",
"%T 	c #583C26",
"&T 	c #573D26",
"*T 	c #583C27",
"=T 	c #563B26",
"-T 	c #523722",
";T 	c #503721",
">T 	c #523A22",
",T 	c #543C24",
"'T 	c #583F29",
")T 	c #5C432D",
"!T 	c #5E452F",
"~T 	c #59432C",
"{T 	c #543E27",
"]T 	c #4F3924",
"^T 	c #4A3520",
"/T 	c #432E19",
"(T 	c #412C17",
"_T 	c #402B16",
":T 	c #3F2A17",
"<T 	c #4E3821",
"[T 	c #4F3922",
"}T 	c #493723",
"|T 	c #4A3824",
"1T 	c #41301E",
"2T 	c #5B534D",
"3T 	c #B88D6B",
"4T 	c #B78965",
"5T 	c #B68866",
"6T 	c #B68867",
"7T 	c #B38468",
"8T 	c #A17558",
"9T 	c #714E38",
"0T 	c #664732",
"aT 	c #61452F",
"bT 	c #533922",
"cT 	c #523821",
"dT 	c #4F3620",
"eT 	c #4D341E",
"fT 	c #4B321C",
"gT 	c #4B351E",
"hT 	c #48331E",
"iT 	c #412C19",
"jT 	c #402B18",
"kT 	c #4D371F",
"lT 	c #4E3820",
"mT 	c #4F3921",
"nT 	c #4C3A24",
"oT 	c #453420",
"pT 	c #6D5042",
"qT 	c #AB8266",
"rT 	c #B58A68",
"sT 	c #B48662",
"tT 	c #B48664",
"uT 	c #B28568",
"vT 	c #B18062",
"wT 	c #A27659",
"xT 	c #8C6345",
"yT 	c #76543B",
"zT 	c #745239",
"AT 	c #725037",
"BT 	c #543822",
"CT 	c #50361F",
"DT 	c #4F341F",
"ET 	c #4E331E",
"FT 	c #49301A",
"GT 	c #482F19",
"HT 	c #47311C",
"IT 	c #4A341F",
"JT 	c #3E2916",
"KT 	c #483622",
"LT 	c #4D3B25",
"MT 	c #4A3925",
"NT 	c #9B775D",
"OT 	c #B38563",
"PT 	c #B38564",
"QT 	c #75533A",
"RT 	c #5E422C",
"ST 	c #553923",
"TT 	c #503520",
"UT 	c #4C331D",
"VT 	c #4A311B",
"WT 	c #412B14",
"XT 	c #422C17",
"YT 	c #452F1A",
"ZT 	c #3E2918",
"`T 	c #4C361E",
" U 	c #4C3B27",
".U 	c #443424",
"+U 	c #B68564",
"@U 	c #B07D60",
"#U 	c #896243",
"$U 	c #7A573B",
"%U 	c #765337",
"&U 	c #735136",
"*U 	c #6B4B32",
"=U 	c #513720",
"-U 	c #4E351F",
";U 	c #3F2914",
">U 	c #4B3A26",
",U 	c #433323",
"'U 	c #B07F5F",
")U 	c #7E593C",
"!U 	c #704E33",
"~U 	c #47311A",
"{U 	c #3E2914",
"]U 	c #4B3520",
"^U 	c #4A341D",
"/U 	c #473825",
"(U 	c #B18463",
"_U 	c #B28365",
":U 	c #A07555",
"<U 	c #946C49",
"[U 	c #916946",
"}U 	c #745236",
"|U 	c #684831",
"1U 	c #3D2712",
"2U 	c #3B2611",
"3U 	c #3D2813",
"4U 	c #4B3925",
"5U 	c #41321F",
"6U 	c #543D2F",
"7U 	c #B28161",
"8U 	c #AD7F5E",
"9U 	c #9E7353",
"0U 	c #765438",
"aU 	c #543A23",
"bU 	c #48321B",
"cU 	c #3C2611",
"dU 	c #463523",
"eU 	c #1A0B04",
"fU 	c #A0795C",
"gU 	c #956A48",
"hU 	c #8E6643",
"iU 	c #855E3F",
"jU 	c #6F4D31",
"kU 	c #6B492E",
"lU 	c #67472E",
"mU 	c #62422B",
"nU 	c #583E27",
"oU 	c #553B24",
"pU 	c #422B1B",
"qU 	c #442D1D",
"rU 	c #47301E",
"sU 	c #392919",
"tU 	c #1F0E06",
"uU 	c #785A42",
"vU 	c #926E54",
"wU 	c #A17A5D",
"xU 	c #AD8262",
"yU 	c #B78665",
"zU 	c #906845",
"AU 	c #7C573A",
"BU 	c #704E32",
"CU 	c #6D4B2F",
"DU 	c #69472C",
"EU 	c #64442B",
"FU 	c #563C25",
"GU 	c #432C1C",
"HU 	c #25140C",
"IU 	c #7B5B42",
"JU 	c #926F53",
"KU 	c #B18465",
"LU 	c #AE805E",
"MU 	c #AB7E5D",
"NU 	c #A17654",
"OU 	c #946947",
"PU 	c #6C4A2F",
"QU 	c #533823",
"RU 	c #513822",
"SU 	c #442D1B",
"TU 	c #462F1D",
"UU 	c #48321D",
"VU 	c #3B2B1B",
"WU 	c #7C5C43",
"XU 	c #9E7758",
"YU 	c #B28160",
"ZU 	c #AF8368",
"`U 	c #8F6646",
" V 	c #725035",
".V 	c #523923",
"+V 	c #452E1C",
"@V 	c #5B534E",
"#V 	c #1D0F0C",
"$V 	c #7C5D41",
"%V 	c #8F6C4E",
"&V 	c #9D7655",
"*V 	c #AF815F",
"=V 	c #AA7D5C",
"-V 	c #9F7452",
";V 	c #936848",
">V 	c #896042",
",V 	c #845D40",
"'V 	c #443321",
")V 	c #251812",
"!V 	c #7E5F43",
"~V 	c #A07958",
"{V 	c #B1856A",
"]V 	c #B08563",
"^V 	c #885F41",
"/V 	c #2D201A",
"(V 	c #503E34",
"_V 	c #7F6043",
":V 	c #936E51",
"<V 	c #AE8267",
"[V 	c #AF8462",
"}V 	c #60442E",
"|V 	c #423121",
"1V 	c #805E43",
"2V 	c #AC8063",
"3V 	c #AE825F",
"4V 	c #B08260",
"5V 	c #966E4B",
"6V 	c #926A47",
"7V 	c #734F37",
"8V 	c #6E4C33",
"9V 	c #624630",
"0V 	c #271910",
"aV 	c #73523F",
"bV 	c #86624C",
"cV 	c #AB7F5C",
"dV 	c #956E4D",
"eV 	c #7E5B3F",
"fV 	c #765238",
"gV 	c #664830",
"hV 	c #64462E",
"iV 	c #5F4129",
"jV 	c #5B3F27",
"kV 	c #4D331C",
"lV 	c #493119",
"mV 	c #422E16",
"nV 	c #432F17",
"oV 	c #443018",
"pV 	c #3D2614",
"qV 	c #4B371F",
"rV 	c #4C3820",
"sV 	c #4E3A22",
"tV 	c #503C24",
"uV 	c #523E26",
"vV 	c #544028",
"wV 	c #554129",
"xV 	c #785542",
"yV 	c #89634E",
"zV 	c #9B725C",
"AV 	c #AD7F5D",
"BV 	c #AC7E5C",
"CV 	c #926949",
"DV 	c #8E6748",
"EV 	c #846145",
"FV 	c #825F43",
"GV 	c #805D41",
"HV 	c #7F5C40",
"IV 	c #4E341D",
"JV 	c #4C321B",
"KV 	c #483018",
"LV 	c #3C2513",
"MV 	c #4D3920",
"NV 	c #4E3A21",
"OV 	c #503C23",
"PV 	c #523E25",
"QV 	c #533F26",
"RV 	c #1D120C",
"SV 	c #7C5945",
"TV 	c #A27A61",
"UV 	c #AE8066",
"VV 	c #65472F",
"WV 	c #63452D",
"XV 	c #61432B",
"YV 	c #5E4028",
"ZV 	c #5C3E26",
"`V 	c #4A3019",
" W 	c #472F17",
".W 	c #412D15",
"+W 	c #402C14",
"@W 	c #4D3921",
"#W 	c #4F3B23",
"$W 	c #533F27",
"%W 	c #24170F",
"&W 	c #5B4436",
"*W 	c #815C49",
"=W 	c #916B56",
"-W 	c #A07761",
";W 	c #A87C63",
">W 	c #836044",
",W 	c #815E42",
"'W 	c #7D5A3E",
")W 	c #5A3C24",
"!W 	c #49341F",
"~W 	c #513D24",
"{W 	c #271A12",
"]W 	c #A37963",
"^W 	c #A97D64",
"/W 	c #AC8065",
"(W 	c #68492D",
"_W 	c #4B311A",
":W 	c #513B24",
"<W 	c #4E3B2A",
"[W 	c #392C1B",
"}W 	c #896350",
"|W 	c #865D3F",
"1W 	c #5B3D25",
"2W 	c #4A321A",
"3W 	c #543E26",
"4W 	c #503D2C",
"5W 	c #3A2D1C",
"6W 	c #785744",
"7W 	c #9A705A",
"8W 	c #835C3D",
"9W 	c #80593A",
"0W 	c #7F5839",
"aW 	c #67482C",
"bW 	c #4A341C",
"cW 	c #553F27",
"dW 	c #3C2F1E",
"eW 	c #7D5A47",
"fW 	c #9B7159",
"gW 	c #8F6444",
"hW 	c #815A3B",
"iW 	c #7E5738",
"jW 	c #7C5536",
"kW 	c #7B5639",
"lW 	c #856043",
"mW 	c #583A22",
"nW 	c #533721",
"oW 	c #4D351D",
"pW 	c #4E361E",
"qW 	c #513E2D",
"rW 	c #735344",
"sW 	c #936A54",
"tW 	c #A57861",
"uW 	c #785336",
"vW 	c #7A5538",
"wW 	c #654328",
"xW 	c #604125",
"yW 	c #5D3D26",
"zW 	c #573921",
"AW 	c #523620",
"BW 	c #513921",
"CW 	c #533B23",
"DW 	c #523F2E",
"EW 	c #1E110B",
"FW 	c #3E2A21",
"GW 	c #765544",
"HW 	c #946B55",
"IW 	c #A87C61",
"JW 	c #AB7D5C",
"KW 	c #845B3D",
"LW 	c #6D492F",
"MW 	c #67452A",
"NW 	c #644227",
"OW 	c #5C3C25",
"PW 	c #593B23",
"QW 	c #55371F",
"RW 	c #51351F",
"SW 	c #4F371F",
"TW 	c #533A24",
"UW 	c #261710",
"VW 	c #7A5646",
"WW 	c #9F735A",
"XW 	c #A77961",
"YW 	c #AB7C60",
"ZW 	c #855C3E",
"`W 	c #7D5639",
" X 	c #795638",
".X 	c #755236",
"+X 	c #614226",
"@X 	c #54361E",
"#X 	c #50341E",
"$X 	c #472D1E",
"%X 	c #482E1F",
"&X 	c #492F20",
"*X 	c #4C3223",
"=X 	c #4F3524",
"-X 	c #573E28",
";X 	c #59402A",
">X 	c #5A412B",
",X 	c #5B422C",
"'X 	c #5C432F",
")X 	c #8B624E",
"!X 	c #9B6E57",
"~X 	c #7A5334",
"{X 	c #765335",
"]X 	c #755234",
"^X 	c #735034",
"/X 	c #714E32",
"(X 	c #6F4C30",
"_X 	c #6C482E",
":X 	c #634428",
"<X 	c #563820",
"[X 	c #553D25",
"}X 	c #513D25",
"|X 	c #3B2E1D",
"1X 	c #563E32",
"2X 	c #805B49",
"3X 	c #A97A60",
"4X 	c #AE7D5C",
"5X 	c #8D6446",
"6X 	c #7F5638",
"7X 	c #7B5437",
"8X 	c #795235",
"9X 	c #775235",
"0X 	c #724F33",
"aX 	c #744F34",
"bX 	c #704D31",
"cX 	c #6E4B2F",
"dX 	c #6D4A2E",
"eX 	c #53371F",
"fX 	c #563E26",
"gX 	c #523C24",
"hX 	c #513B23",
"iX 	c #492F22",
"jX 	c #4A3021",
"kX 	c #543B27",
"lX 	c #5F442F",
"mX 	c #5E432E",
"nX 	c #1F1410",
"oX 	c #5D4539",
"pX 	c #835D4A",
"qX 	c #A0745B",
"rX 	c #7A5336",
"sX 	c #785134",
"tX 	c #744F32",
"uX 	c #734E31",
"vX 	c #724D30",
"wX 	c #734E33",
"xX 	c #6A462C",
"yX 	c #69452B",
"zX 	c #68462B",
"AX 	c #664429",
"BX 	c #503820",
"CX 	c #553921",
"DX 	c #503A22",
"EX 	c #604530",
"FX 	c #241915",
"GX 	c #855F4C",
"HX 	c #A2765D",
"IX 	c #A57756",
"JX 	c #7B5236",
"KX 	c #764F32",
"LX 	c #6F4A2D",
"MX 	c #704B2E",
"NX 	c #714C2F",
"OX 	c #714C31",
"PX 	c #68442A",
"QX 	c #613F24",
"RX 	c #5D3E22",
"SX 	c #573B23",
"TX 	c #4A361E",
"UX 	c #4A3023",
"VX 	c #624732",
"WX 	c #5F4632",
"XX 	c #291C16",
"YX 	c #694F42",
"ZX 	c #795847",
"`X 	c #795034",
" Y 	c #764D31",
".Y 	c #744D30",
"+Y 	c #6F482B",
"@Y 	c #70492C",
"#Y 	c #724B2E",
"$Y 	c #674329",
"%Y 	c #634126",
"&Y 	c #613D23",
"*Y 	c #5E3C21",
"=Y 	c #543A21",
"-Y 	c #553B22",
";Y 	c #563C23",
">Y 	c #573F27",
",Y 	c #473022",
"'Y 	c #60462F",
")Y 	c #604731",
"!Y 	c #513B30",
"~Y 	c #815636",
"{Y 	c #7D5232",
"]Y 	c #7B4F32",
"^Y 	c #794D30",
"/Y 	c #754C2E",
"(Y 	c #744B2D",
"_Y 	c #734A2C",
":Y 	c #734C2D",
"<Y 	c #754E2F",
"[Y 	c #754E31",
"}Y 	c #734F2F",
"|Y 	c #724E2E",
"1Y 	c #714D2D",
"2Y 	c #6F4B2B",
"3Y 	c #6E492C",
"4Y 	c #694427",
"5Y 	c #6A452A",
"6Y 	c #6B462B",
"7Y 	c #6A452B",
"8Y 	c #664127",
"9Y 	c #633F25",
"0Y 	c #5A3E26",
"aY 	c #593D25",
"bY 	c #52381F",
"cY 	c #50381E",
"dY 	c #49351D",
"eY 	c #48341C",
"fY 	c #47331B",
"gY 	c #5C422B",
"hY 	c #5F452C",
"iY 	c #634932",
"jY 	c #654B34",
"kY 	c #644A33",
"lY 	c #5D422D",
"mY 	c #5C412C",
"nY 	c #543C30",
"oY 	c #9D704F",
"pY 	c #926643",
"qY 	c #895C3D",
"rY 	c #835838",
"sY 	c #7E5333",
"tY 	c #7B5030",
"uY 	c #794E2E",
"vY 	c #784C2F",
"wY 	c #774B2E",
"xY 	c #764A2D",
"yY 	c #75492C",
"zY 	c #764D2F",
"AY 	c #774E30",
"BY 	c #774E32",
"CY 	c #734F2D",
"DY 	c #704C2C",
"EY 	c #6E4A2A",
"FY 	c #6A4528",
"GY 	c #6B4629",
"HY 	c #6C472C",
"IY 	c #6B462C",
"JY 	c #69442A",
"KY 	c #644026",
"LY 	c #583C24",
"MY 	c #5E442B",
"NY 	c #61472E",
"OY 	c #644A31",
"PY 	c #624831",
"QY 	c #5F452E",
"RY 	c #5D432C",
"SY 	c #86827F",
"TY 	c #1D120E",
"UY 	c #584034",
"VY 	c #7D5A46",
"WY 	c #976A49",
"XY 	c #8D613E",
"YY 	c #86593A",
"ZY 	c #805535",
"`Y 	c #7C5131",
" Z 	c #7A4F2F",
".Z 	c #784D2D",
"+Z 	c #774C2C",
"@Z 	c #764F30",
"#Z 	c #6D482B",
"$Z 	c #6D482D",
"%Z 	c #6C492D",
"&Z 	c #664228",
"*Z 	c #5D432A",
"=Z 	c #5E442D",
"-Z 	c #402D26",
";Z 	c #7E5B47",
">Z 	c #8C664F",
",Z 	c #916443",
"'Z 	c #8B5F3C",
")Z 	c #895C3B",
"!Z 	c #784F31",
"~Z 	c #745030",
"{Z 	c #6F4A2F",
"]Z 	c #6E492E",
"^Z 	c #563A22",
"/Z 	c #49331B",
"(Z 	c #442F1A",
"_Z 	c #5C4229",
":Z 	c #664C35",
"<Z 	c #1F140E",
"[Z 	c #422F28",
"}Z 	c #906342",
"|Z 	c #865938",
"1Z 	c #825737",
"2Z 	c #7F5434",
"3Z 	c #7A5133",
"4Z 	c #795032",
"5Z 	c #785132",
"6Z 	c #765232",
"7Z 	c #755131",
"8Z 	c #6A472B",
"9Z 	c #624025",
"0Z 	c #22150F",
"aZ 	c #453128",
"bZ 	c #62483B",
"cZ 	c #825E48",
"dZ 	c #885B3A",
"eZ 	c #7A4E31",
"fZ 	c #7B5234",
"gZ 	c #775333",
"hZ 	c #6B482C",
"iZ 	c #684529",
"jZ 	c #654127",
"kZ 	c #623E24",
"lZ 	c #603E25",
"mZ 	c #51371E",
"nZ 	c #5B412A",
"oZ 	c #84807E",
"pZ 	c #775643",
"qZ 	c #895D3A",
"rZ 	c #855837",
"sZ 	c #815634",
"tZ 	c #805533",
"uZ 	c #7B5435",
"vZ 	c #704D2F",
"wZ 	c #5F3D22",
"xZ 	c #5E3C23",
"yZ 	c #5D3B22",
"zZ 	c #5B3B24",
"AZ 	c #5B402B",
"BZ 	c #4E3C28",
"CZ 	c #875B38",
"DZ 	c #845736",
"EZ 	c #714E30",
"FZ 	c #603E23",
"GZ 	c #5D3B20",
"HZ 	c #5C3A21",
"IZ 	c #5A3A21",
"JZ 	c #5D442E",
"KZ 	c #513F29",
"LZ 	c #3A2A1B",
"MZ 	c #19100B",
"NZ 	c #A67759",
"OZ 	c #946645",
"PZ 	c #8E603F",
"QZ 	c #8B5D3B",
"RZ 	c #7E5535",
"SZ 	c #7D5434",
"TZ 	c #795233",
"UZ 	c #624229",
"VZ 	c #5F3F26",
"WZ 	c #5C3C23",
"XZ 	c #503B26",
"YZ 	c #5F4630",
"ZZ 	c #604830",
"`Z 	c #624A32",
" ` 	c #5E462E",
".` 	c #5D452D",
"+` 	c #4F3D27",
"@` 	c #1B120D",
"#` 	c #684B3B",
"$` 	c #7F5A47",
"%` 	c #875A39",
"&` 	c #5B3B22",
"*` 	c #583A20",
"=` 	c #48321A",
"-` 	c #614931",
";` 	c #4E3C24",
">` 	c #3A2A1A",
",` 	c #7F5432",
"'` 	c #7C5333",
")` 	c #7B5232",
"!` 	c #614128",
"~` 	c #5E4026",
"{` 	c #5A3C22",
"]` 	c #57391F",
"^` 	c #49301C",
"/` 	c #4A311D",
"(` 	c #46321A",
"_` 	c #59432B",
":` 	c #574129",
"<` 	c #4D3B23",
"[` 	c #392A17",
"}` 	c #241913",
"|` 	c #70513F",
"1` 	c #624327",
"2` 	c #5C3E24",
"3` 	c #593B21",
"4` 	c #56381E",
"5` 	c #4F331D",
"6` 	c #462E16",
"7` 	c #472E1A",
"8` 	c #4C3A22",
"9` 	c #88624B",
"0` 	c #936544",
"a` 	c #8D5F3E",
"b` 	c #895B39",
"c` 	c #865A37",
"d` 	c #835835",
"e` 	c #825734",
"f` 	c #7A5131",
"g` 	c #604027",
"h` 	c #5D3F25",
"i` 	c #553A1F",
"j` 	c #53381D",
"k` 	c #4E321C",
"l` 	c #4D311B",
"m` 	c #492F18",
"n` 	c #452C16",
"o` 	c #513824",
"p` 	c #5B4329",
"q` 	c #584328",
"r` 	c #533E23",
"s` 	c #4A391F",
"t` 	c #42301A",
"u` 	c #84807D",
"v` 	c #2E211B",
"w` 	c #8A644D",
"x` 	c #734C2F",
"y` 	c #5B3D23",
"z` 	c #54391E",
"A` 	c #52361E",
"B` 	c #543B25",
"C` 	c #5C442A",
"D` 	c #513C21",
"E` 	c #49381E",
"F` 	c #412F19",
"G` 	c #A9A7A5",
"H` 	c #31241E",
"I` 	c #4A382E",
"J` 	c #855936",
"K` 	c #7E5633",
"L` 	c #7D5532",
"M` 	c #5D3D24",
"N` 	c #4B301B",
"O` 	c #492E19",
"P` 	c #442B17",
"Q` 	c #594429",
"R` 	c #4F3A1F",
"S` 	c #48371D",
"T` 	c #402E16",
"U` 	c #4C382D",
"V` 	c #795944",
"W` 	c #845937",
"X` 	c #845939",
"Y` 	c #815936",
"Z` 	c #4C311C",
"`` 	c #4A2F1A",
"  .	c #5B432B",
". .	c #47351D",
"+ .	c #3E2E17",
"@ .	c #261712",
"# .	c #AB7D5B",
"$ .	c #A97D5A",
"% .	c #A47855",
"& .	c #9D714E",
"* .	c #996D4A",
"= .	c #916542",
"- .	c #855A3A",
"; .	c #835A3A",
"> .	c #7F5837",
", .	c #7D5635",
"' .	c #69462A",
") .	c #654129",
"! .	c #644229",
"~ .	c #634128",
"{ .	c #513520",
"] .	c #503723",
"^ .	c #5E4531",
"/ .	c #71503D",
"( .	c #A87C59",
"_ .	c #A77B58",
": .	c #A57956",
"< .	c #8E623F",
"[ .	c #8C603D",
"} .	c #885D3B",
"| .	c #583924",
"1 .	c #553924",
"2 .	c #533722",
"3 .	c #4F331E",
"4 .	c #3D2B15",
"5 .	c #1C0D08",
"6 .	c #311E17",
"7 .	c #50382E",
"8 .	c #614537",
"9 .	c #765542",
"0 .	c #A77957",
"a .	c #8A5D3C",
"b .	c #895E3C",
"c .	c #875C3C",
"d .	c #775031",
"e .	c #744D2E",
"f .	c #6D4A2C",
"g .	c #624027",
"h .	c #3E2C18",
"i .	c #3F2D17",
"j .	c #3E2D1D",
"k .	c #22130E",
"l .	c #533B2F",
"m .	c #946B4F",
"n .	c #6C492B",
"o .	c #5E3E25",
"p .	c #3F2D19",
"q .	c #402E18",
"r .	c #614631",
"s .	c #473622",
"t .	c #412D24",
"u .	c #573C31",
"v .	c #84583B",
"w .	c #6B482A",
"x .	c #694829",
"y .	c #664526",
"z .	c #644226",
"A .	c #613F23",
"B .	c #5C3D21",
"C .	c #543820",
"D .	c #442B15",
"E .	c #604733",
"F .	c #513C27",
"G .	c #483723",
"H .	c #170C08",
"I .	c #33221B",
"J .	c #5B4134",
"K .	c #7F5C48",
"L .	c #6A4729",
"M .	c #674627",
"N .	c #654425",
"O .	c #634125",
"P .	c #603E22",
"Q .	c #5B3C20",
"R .	c #4A3A23",
"S .	c #42311D",
"T .	c #1B100A",
"U .	c #62463A",
"V .	c #805437",
"W .	c #7F5336",
"X .	c #724B2C",
"Y .	c #714A2B",
"Z .	c #70492A",
"` .	c #694525",
" ..	c #684525",
"...	c #634223",
"+..	c #603F20",
"@..	c #5C3D20",
"#..	c #5B3C1F",
"$..	c #593B1F",
"%..	c #57391D",
"&..	c #52371C",
"*..	c #50361D",
"=..	c #482D18",
"-..	c #472C17",
";..	c #4B3B24",
">..	c #43321E",
",..	c #1F120C",
"'..	c #3D2A23",
")..	c #775645",
"!..	c #6F4829",
"~..	c #6E4728",
"{..	c #6D4627",
"]..	c #684424",
"^..	c #674424",
"/..	c #674426",
"(..	c #644324",
"_..	c #624122",
":..	c #5A3C20",
"<..	c #22150D",
"[..	c #835635",
"}..	c #825534",
"|..	c #7D5134",
"1..	c #72492B",
"2..	c #664323",
"3..	c #5F4023",
"4..	c #583A1E",
"5..	c #4F351C",
"6..	c #56422A",
"7..	c #25170E",
"8..	c #604639",
"9..	c #815435",
"0..	c #7E5235",
"a..	c #71482A",
"b..	c #704729",
"c..	c #6C4526",
"d..	c #6A4626",
"e..	c #654224",
"f..	c #624024",
"g..	c #51351D",
"h..	c #50341C",
"i..	c #44331F",
"j..	c #281A11",
"k..	c #805B48",
"l..	c #966C54",
"m..	c #875A3B",
"n..	c #855839",
"o..	c #845738",
"p..	c #7F5233",
"q..	c #7C5033",
"r..	c #6F4628",
"s..	c #6E4527",
"t..	c #6D4426",
"u..	c #6B4425",
"v..	c #6E4726",
"w..	c #6B4725",
"x..	c #6A4624",
"y..	c #694523",
"z..	c #674323",
"A..	c #654222",
"B..	c #644123",
"C..	c #5F3D21",
"D..	c #58391D",
"E..	c #55371B",
"F..	c #55371D",
"G..	c #54361C",
"H..	c #543F2A",
"I..	c #493922",
"J..	c #4E362A",
"K..	c #815D47",
"L..	c #9E7056",
"M..	c #835637",
"N..	c #7D5031",
"O..	c #74482B",
"P..	c #6F4827",
"Q..	c #6D4625",
"R..	c #654023",
"S..	c #623F23",
"T..	c #5C3A1F",
"U..	c #57371E",
"V..	c #42311F",
"W..	c #1A1007",
"X..	c #795643",
"Y..	c #825C47",
"Z..	c #7B4E2F",
"`..	c #794C2F",
" +.	c #784B2E",
".+.	c #774A2D",
"++.	c #73472A",
"@+.	c #704727",
"#+.	c #6E4525",
"$+.	c #6C4524",
"%+.	c #664124",
"&+.	c #634024",
"*+.	c #593A1E",
"=+.	c #593920",
"-+.	c #463521",
";+.	c #A9A7A6",
">+.	c #20130B",
",+.	c #835D48",
"'+.	c #9C6E54",
")+.	c #9E6F53",
"!+.	c #9A6B4F",
"~+.	c #885B3C",
"{+.	c #825536",
"]+.	c #805334",
"^+.	c #7E5132",
"/+.	c #7C4F30",
"(+.	c #7A4D2E",
"_+.	c #6F4626",
":+.	c #6D4424",
"<+.	c #6C4323",
"[+.	c #6B4224",
"}+.	c #694223",
"|+.	c #684124",
"1+.	c #643F24",
"2+.	c #613E22",
"3+.	c #603C22",
"4+.	c #3F2E1E",
"5+.	c #23160D",
"6+.	c #795642",
"7+.	c #845B45",
"8+.	c #8D634B",
"9+.	c #98694D",
"0+.	c #7A4D30",
"a+.	c #724629",
"b+.	c #6F4424",
"c+.	c #6F4422",
"d+.	c #6E4323",
"e+.	c #6B4222",
"f+.	c #694221",
"g+.	c #684122",
"h+.	c #664222",
"i+.	c #633E21",
"j+.	c #613E20",
"k+.	c #4E321A",
"l+.	c #775440",
"m+.	c #805A43",
"n+.	c #996A4E",
"o+.	c #794C2D",
"p+.	c #744929",
"q+.	c #714626",
"r+.	c #6B4320",
"s+.	c #623D20",
"t+.	c #4B2F17",
"u+.	c #4B2F19",
"v+.	c #7B5844",
"w+.	c #825C45",
"x+.	c #8F6442",
"y+.	c #8B603E",
"z+.	c #815433",
"A+.	c #805332",
"B+.	c #7F5231",
"C+.	c #7C4F2E",
"D+.	c #7B4E2D",
"E+.	c #774A29",
"F+.	c #734826",
"G+.	c #724727",
"H+.	c #714624",
"I+.	c #704525",
"J+.	c #6E4321",
"K+.	c #6D4222",
"L+.	c #684422",
"M+.	c #674522",
"N+.	c #684623",
"O+.	c #664325",
"P+.	c #674428",
"Q+.	c #654327",
"R+.	c #613F26",
"S+.	c #5F3D24",
"T+.	c #53351D",
"U+.	c #4F3C2B",
"V+.	c #4C3B29",
"W+.	c #423222",
"X+.	c #180F0A",
"Y+.	c #49352A",
"Z+.	c #664937",
"`+.	c #785541",
" @.	c #8B634A",
".@.	c #96684E",
"+@.	c #7E5130",
"@@.	c #7D502F",
"#@.	c #7A4D2C",
"$@.	c #744927",
"%@.	c #704523",
"&@.	c #664522",
"*@.	c #674623",
"=@.	c #664524",
"-@.	c #664428",
";@.	c #4E341B",
">@.	c #412F1B",
",@.	c #403322",
"'@.	c #1E130F",
")@.	c #75523E",
"!@.	c #724725",
"~@.	c #6C4421",
"{@.	c #694521",
"]@.	c #684621",
"^@.	c #3E3120",
"/@.	c #A19F9E",
"(@.	c #231814",
"_@.	c #4F3B30",
":@.	c #74513D",
"<@.	c #7D5740",
"[@.	c #93654B",
"}@.	c #794C2B",
"|@.	c #754A28",
"1@.	c #6D4522",
"2@.	c #6C4622",
"3@.	c #6A4622",
"4@.	c #694626",
"5@.	c #684527",
"6@.	c #3A2814",
"7@.	c #3D3020",
"8@.	c #513D32",
"9@.	c #886047",
"0@.	c #784B2A",
"a@.	c #764928",
"b@.	c #6F4724",
"c@.	c #6E4824",
"d@.	c #6C4824",
"e@.	c #5F4024",
"f@.	c #5D3F23",
"g@.	c #583D22",
"h@.	c #382715",
"i@.	c #3B2A1A",
"j@.	c #493828",
"k@.	c #1A100E",
"l@.	c #30231D",
"m@.	c #764B29",
"n@.	c #704825",
"o@.	c #5E3F22",
"p@.	c #5B3D21",
"q@.	c #583D20",
"r@.	c #573C21",
"s@.	c #543A1F",
"t@.	c #372413",
"u@.	c #372614",
"v@.	c #392C1C",
"w@.	c #201511",
"x@.	c #574134",
"y@.	c #7E5A44",
"z@.	c #91654A",
"A@.	c #563B20",
"B@.	c #342313",
"C@.	c #382717",
"D@.	c #251714",
"E@.	c #664939",
"F@.	c #95674D",
"G@.	c #6B4423",
"H@.	c #634022",
"I@.	c #402E1A",
"J@.	c #382514",
"K@.	c #312010",
"L@.	c #332212",
"M@.	c #352414",
"N@.	c #2F221C",
"O@.	c #73533E",
"P@.	c #986747",
"Q@.	c #976646",
"R@.	c #774C2A",
"S@.	c #352412",
"T@.	c #32231E",
"U@.	c #413028",
"V@.	c #9A694B",
"W@.	c #8F6140",
"X@.	c #784D2B",
"Y@.	c #382612",
"Z@.	c #362513",
"`@.	c #815B44",
" #.	c #9B6849",
".#.	c #9A6748",
"+#.	c #966545",
"@#.	c #855A38",
"##.	c #7B502E",
"$#.	c #7A4F2D",
"%#.	c #794E2C",
"&#.	c #754D2A",
"*#.	c #6B4727",
"=#.	c #3B2613",
"-#.	c #372511",
";#.	c #362312",
">#.	c #342311",
",#.	c #231610",
"'#.	c #584235",
")#.	c #996647",
"!#.	c #956444",
"~#.	c #936242",
"{#.	c #7C512F",
"]#.	c #764D2D",
"^#.	c #6B4828",
"/#.	c #684728",
"(#.	c #392411",
"_#.	c #352211",
":#.	c #261911",
"<#.	c #986546",
"[#.	c #976445",
"}#.	c #946343",
"|#.	c #916040",
"1#.	c #8F5E3E",
"2#.	c #8B5D3C",
"3#.	c #7E5331",
"4#.	c #7D5230",
"5#.	c #744D2C",
"6#.	c #654629",
"7#.	c #614225",
"8#.	c #3A2512",
"9#.	c #342110",
"0#.	c #332011",
"a#.	c #48342B",
"b#.	c #47332A",
"c#.	c #95694C",
"d#.	c #956243",
"e#.	c #8E5D3D",
"f#.	c #8A5C3B",
"g#.	c #724B2A",
"h#.	c #674829",
"i#.	c #614628",
"j#.	c #5F4125",
"k#.	c #432F24",
"l#.	c #463229",
"m#.	c #402E24",
"n#.	c #5B5350",
"o#.	c #423129",
"p#.	c #5F483A",
"q#.	c #8C644B",
"r#.	c #9B684B",
"s#.	c #9C6748",
"t#.	c #926141",
"u#.	c #714A29",
"v#.	c #67482B",
"w#.	c #5F4628",
"x#.	c #5B4025",
"y#.	c #553B20",
"z#.	c #4B3319",
"A#.	c #3A2311",
"B#.	c #372211",
"C#.	c #321F10",
"D#.	c #4C3A26",
"E#.	c #4D3B27",
"F#.	c #432F26",
"G#.	c #443027",
"H#.	c #1C110B",
"I#.	c #46342A",
"J#.	c #9C6747",
"K#.	c #996746",
"L#.	c #986645",
"M#.	c #966443",
"N#.	c #905F3E",
"O#.	c #8D5C3B",
"P#.	c #865836",
"Q#.	c #845835",
"R#.	c #815532",
"S#.	c #7F5330",
"T#.	c #7B5330",
"U#.	c #78502D",
"V#.	c #724A27",
"W#.	c #6E4A28",
"X#.	c #66472A",
"Y#.	c #604528",
"Z#.	c #5A4123",
"`#.	c #4E361C",
" $.	c #473119",
".$.	c #35200F",
"+$.	c #301D0E",
"@$.	c #4F3D29",
"#$.	c #3E2C22",
"$$.	c #5B534F",
"%$.	c #24150E",
"&$.	c #684B3D",
"*$.	c #7D5943",
"=$.	c #99684A",
"-$.	c #9A6845",
";$.	c #976542",
">$.	c #956340",
",$.	c #92603D",
"'$.	c #915F3C",
")$.	c #8F5F3B",
"!$.	c #8B5B37",
"~$.	c #8A5A36",
"{$.	c #875935",
"]$.	c #885834",
"^$.	c #855733",
"/$.	c #845632",
"($.	c #825631",
"_$.	c #815633",
":$.	c #7C5431",
"<$.	c #7D5531",
"[$.	c #805834",
"}$.	c #845936",
"|$.	c #845C38",
"1$.	c #815935",
"2$.	c #7F5733",
"3$.	c #78522E",
"4$.	c #764F2E",
"5$.	c #6F4B29",
"6$.	c #664728",
"7$.	c #614426",
"8$.	c #5A3F22",
"9$.	c #53391E",
"0$.	c #32210F",
"a$.	c #2D1C0C",
"b$.	c #2C1B0B",
"c$.	c #45331D",
"d$.	c #46341E",
"e$.	c #47351F",
"f$.	c #4B3923",
"g$.	c #483620",
"h$.	c #44341D",
"i$.	c #42321B",
"j$.	c #41311A",
"k$.	c #291811",
"l$.	c #6B4B3C",
"m$.	c #765340",
"n$.	c #7F5944",
"o$.	c #996A4C",
"p$.	c #996742",
"q$.	c #976540",
"r$.	c #94623D",
"s$.	c #92603B",
"t$.	c #905E39",
"u$.	c #8F5D38",
"v$.	c #8B5B35",
"w$.	c #8A5A34",
"x$.	c #895933",
"y$.	c #885832",
"z$.	c #875731",
"A$.	c #7E5834",
"B$.	c #7D5733",
"C$.	c #7C5631",
"D$.	c #7E5632",
"E$.	c #835B37",
"F$.	c #825A36",
"G$.	c #79532F",
"H$.	c #74502E",
"I$.	c #714D2B",
"J$.	c #6D4A2A",
"K$.	c #634425",
"L$.	c #5F4224",
"M$.	c #51371C",
"N$.	c #2E1E0E",
"O$.	c #2A1A0A",
"P$.	c #2B1A08",
"Q$.	c #33220E",
"R$.	c #44321A",
"S$.	c #49351C",
"T$.	c #48361E",
"U$.	c #49371F",
"V$.	c #55402B",
"W$.	c #493721",
"X$.	c #2D1C15",
"Y$.	c #604438",
"Z$.	c #6E4E3F",
"`$.	c #9C6D4F",
" %.	c #986641",
".%.	c #96643F",
"+%.	c #865834",
"@%.	c #835933",
"#%.	c #855B35",
"$%.	c #875D37",
"%%.	c #815A33",
"&%.	c #6A4727",
"*%.	c #604122",
"=%.	c #5C3F21",
"-%.	c #553A1D",
";%.	c #33210D",
">%.	c #2E1D0B",
",%.	c #291909",
"'%.	c #271707",
")%.	c #2A1907",
"!%.	c #34230F",
"~%.	c #46341C",
"{%.	c #4A361D",
"]%.	c #43331C",
"^%.	c #63473B",
"/%.	c #705041",
"(%.	c #835D46",
"_%.	c #9B6E51",
":%.	c #986643",
"<%.	c #95633E",
"[%.	c #93613C",
"}%.	c #8C5C36",
"|%.	c #885B34",
"1%.	c #845A34",
"2%.	c #865C36",
"3%.	c #79532E",
"4%.	c #754E2D",
"5%.	c #704C2A",
"6%.	c #6C4828",
"7%.	c #5D3E1F",
"8%.	c #573C1E",
"9%.	c #4A3218",
"0%.	c #39240F",
"a%.	c #301D0C",
"b%.	c #241404",
"c%.	c #231303",
"d%.	c #291806",
"e%.	c #352410",
"f%.	c #4C381F",
"g%.	c #44321C",
"h%.	c #36251E",
"i%.	c #855F48",
"j%.	c #915F3A",
"k%.	c #8E5E38",
"l%.	c #8D5D37",
"m%.	c #895C35",
"n%.	c #865A35",
"o%.	c #875B36",
"p%.	c #885C35",
"q%.	c #895D36",
"r%.	c #78522D",
"s%.	c #6D4927",
"t%.	c #5A3D1F",
"u%.	c #4E3419",
"v%.	c #36210E",
"w%.	c #2D1A09",
"x%.	c #281707",
"y%.	c #201001",
"z%.	c #201000",
"A%.	c #281705",
"B%.	c #362511",
"C%.	c #4B3921",
"D%.	c #170D0C",
"E%.	c #5B4337",
"F%.	c #976645",
"G%.	c #8F5F39",
"H%.	c #8A5D36",
"I%.	c #885C37",
"J%.	c #7C5430",
"K%.	c #76502B",
"L%.	c #614021",
"M%.	c #50361B",
"N%.	c #483016",
"O%.	c #3F2911",
"P%.	c #37220D",
"Q%.	c #2E1B0A",
"R%.	c #241303",
"S%.	c #1E0E00",
"T%.	c #271606",
"U%.	c #1A100F",
"V%.	c #39261F",
"W%.	c #4E382D",
"X%.	c #91613B",
"Y%.	c #90603A",
"Z%.	c #8B5E37",
"`%.	c #8C5F36",
" &.	c #815731",
".&.	c #7A522E",
"+&.	c #744E29",
"@&.	c #623F1F",
"#&.	c #5E3D1E",
"$&.	c #513619",
"%&.	c #402A12",
"&&.	c #37230B",
"*&.	c #2E1C08",
"=&.	c #271604",
"-&.	c #221101",
";&.	c #1F0F00",
">&.	c #1C0C00",
",&.	c #1D0D00",
"'&.	c #261505",
")&.	c #584028",
"!&.	c #1B1110",
"~&.	c #996847",
"{&.	c #92623C",
"]&.	c #8D6037",
"^&.	c #8A5E37",
"/&.	c #79512D",
"(&.	c #734D29",
"_&.	c #6C4826",
":&.	c #603D1D",
"<&.	c #5A3B1E",
"[&.	c #4D3318",
"}&.	c #452F17",
"|&.	c #3B270F",
"1&.	c #301E08",
"2&.	c #221202",
"3&.	c #1B0B00",
"4&.	c #251305",
"5&.	c #564028",
"6&.	c #563B28",
"7&.	c #4E3521",
"8&.	c #211716",
"9&.	c #3E2B24",
"0&.	c #9B6948",
"a&.	c #9A6843",
"b&.	c #996840",
"c&.	c #98673F",
"d&.	c #97663E",
"e&.	c #94643C",
"f&.	c #92623A",
"g&.	c #916139",
"h&.	c #8E6138",
"i&.	c #8F6239",
"j&.	c #865A33",
"k&.	c #7F552F",
"l&.	c #774F2B",
"m&.	c #714B27",
"n&.	c #5D3C1D",
"o&.	c #452D13",
"p&.	c #2D1B07",
"q&.	c #251404",
"r&.	c #170900",
"s&.	c #160800",
"t&.	c #533825",
"u&.	c #503522",
"v&.	c #211715",
"w&.	c #9C6A45",
"x&.	c #9B6A42",
"y&.	c #95653D",
"z&.	c #93633B",
"A&.	c #855932",
"B&.	c #724C28",
"C&.	c #57381B",
"D&.	c #4F3419",
"E&.	c #422C14",
"F&.	c #3A2812",
"G&.	c #221203",
"H&.	c #1B0D00",
"I&.	c #190B00",
"J&.	c #180A00",
"K&.	c #201205",
"L&.	c #594129",
"M&.	c #5A4029",
"N&.	c #4D3420",
"O&.	c #492F1E",
"P&.	c #221816",
"Q&.	c #9E6C47",
"R&.	c #9C6B43",
"S&.	c #9A6941",
"T&.	c #96653D",
"U&.	c #96663E",
"V&.	c #90633A",
"W&.	c #8A5D34",
"X&.	c #7A4F2C",
"Y&.	c #533519",
"Z&.	c #4B3118",
"`&.	c #3F2B13",
" *.	c #372612",
".*.	c #301F0D",
"+*.	c #261606",
"@*.	c #1A0C00",
"#*.	c #160A00",
"$*.	c #1B0D02",
"%*.	c #231508",
"&*.	c #523D22",
"**.	c #472D1C",
"=*.	c #2D1B0F",
"-*.	c #2C1C0F",
";*.	c #241A18",
">*.	c #9A6C4A",
",*.	c #9F6D48",
"'*.	c #9D6C44",
")*.	c #97673F",
"!*.	c #8B5E35",
"~*.	c #875B34",
"{*.	c #82562F",
"]*.	c #7E542E",
"^*.	c #774F2C",
"/*.	c #3B2913",
"(*.	c #342512",
"_*.	c #2C1C0C",
":*.	c #211404",
"<*.	c #160900",
"[*.	c #1E1007",
"}*.	c #26180B",
"|*.	c #503B20",
"1*.	c #2E1C10",
"2*.	c #2C1A0C",
"3*.	c #2B190B",
"4*.	c #261C1A",
"5*.	c #9B6D4B",
"6*.	c #A06E49",
"7*.	c #845831",
"8*.	c #7F532E",
"9*.	c #7B502D",
"0*.	c #744E2A",
"a*.	c #604124",
"b*.	c #4C3219",
"c*.	c #312111",
"d*.	c #281808",
"e*.	c #1E1101",
"f*.	c #150800",
"g*.	c #140A00",
"h*.	c #21140B",
"i*.	c #4E391E",
"j*.	c #4D391E",
"k*.	c #4E3A1F",
"l*.	c #3A2919",
"m*.	c #2E1E11",
"n*.	c #2B1B0E",
"o*.	c #2A1A0D",
"p*.	c #29190C",
"q*.	c #40311E",
"r*.	c #5B5450",
"s*.	c #281E1C",
"t*.	c #422E25",
"u*.	c #A16F4A",
"v*.	c #A06F47",
"w*.	c #9E6D45",
"x*.	c #986840",
"y*.	c #895C33",
"z*.	c #815530",
"A*.	c #332210",
"B*.	c #2B1E0D",
"C*.	c #221505",
"D*.	c #1A0E00",
"E*.	c #150900",
"F*.	c #24170E",
"G*.	c #4C381D",
"H*.	c #28180B",
"I*.	c #291709",
"J*.	c #3F301D",
"K*.	c #3F2F1F",
"L*.	c #2B211F",
"M*.	c #A2704B",
"N*.	c #A27149",
"O*.	c #845833",
"P*.	c #794E2B",
"Q*.	c #51361B",
"R*.	c #492F16",
"S*.	c #422A12",
"T*.	c #3A2510",
"U*.	c #251808",
"V*.	c #1E1003",
"W*.	c #170B00",
"X*.	c #150B01",
"Y*.	c #1D130A",
"Z*.	c #261910",
"`*.	c #4A391B",
" =.	c #2D1D10",
".=.	c #261609",
"+=.	c #251508",
"@=.	c #2A180A",
"#=.	c #3D301F",
"$=.	c #2D2220",
"%=.	c #6D4E3A",
"&=.	c #A4734B",
"*=.	c #9F6E46",
"==.	c #906038",
"-=.	c #7D522F",
";=.	c #764E2A",
">=.	c #5C3E22",
",=.	c #382310",
"'=.	c #190C03",
")=.	c #1F1209",
"!=.	c #2E1E0F",
"~=.	c #2C1C0D",
"{=.	c #29190A",
"]=.	c #261607",
"^=.	c #251506",
"/=.	c #271507",
"(=.	c #2A1909",
"_=.	c #4D3B2F",
":=.	c #1B1311",
"<=.	c #624535",
"[=.	c #7E5541",
"}=.	c #895C45",
"|=.	c #94644D",
"1=.	c #9D6B50",
"2=.	c #A3734D",
"3=.	c #A3734B",
"4=.	c #A3724A",
"5=.	c #A2724A",
"6=.	c #A0704A",
"7=.	c #9E6E48",
"8=.	c #9B6B45",
"9=.	c #996943",
"0=.	c #986842",
"a=.	c #996941",
"b=.	c #8F5F37",
"c=.	c #8D5D35",
"d=.	c #885B32",
"e=.	c #835732",
"f=.	c #624326",
"g=.	c #3B2414",
"h=.	c #341F0E",
"i=.	c #231401",
"j=.	c #1E1100",
"k=.	c #1B0E00",
"l=.	c #190C00",
"m=.	c #1F1106",
"n=.	c #392315",
"o=.	c #392413",
"p=.	c #382312",
"q=.	c #322111",
"r=.	c #2D1D0D",
"s=.	c #2B1B0B",
"t=.	c #251603",
"u=.	c #241301",
"v=.	c #2E1D0D",
"w=.	c #271708",
"x=.	c #271A0A",
"y=.	c #4E3A33",
"z=.	c #4E3A31",
"A=.	c #1C1412",
"B=.	c #815643",
"C=.	c #8D5F48",
"D=.	c #996750",
"E=.	c #A16E53",
"F=.	c #A57453",
"G=.	c #A1734F",
"H=.	c #A1744D",
"I=.	c #A17048",
"J=.	c #9F6F49",
"K=.	c #8C5C34",
"L=.	c #875A33",
"M=.	c #3E2717",
"N=.	c #372012",
"O=.	c #1A0D00",
"P=.	c #1C0E01",
"Q=.	c #28170D",
"R=.	c #3A2416",
"S=.	c #3D2616",
"T=.	c #3B2412",
"U=.	c #2F1E0E",
"V=.	c #2E1F0C",
"W=.	c #2C1D0A",
"X=.	c #2A1B08",
"Y=.	c #291A07",
"Z=.	c #261704",
"`=.	c #231200",
" -.	c #231202",
".-.	c #251402",
"+-.	c #261909",
"@-.	c #281B0B",
"#-.	c #2D2010",
"$-.	c #2F2212",
"%-.	c #503C33",
"&-.	c #1F1513",
"*-.	c #845A44",
"=-.	c #90624A",
"--.	c #9D6B52",
";-.	c #A0734C",
">-.	c #9F7249",
",-.	c #9F6F47",
"'-.	c #9E6E46",
")-.	c #9D6D47",
"!-.	c #976A43",
"~-.	c #956841",
"{-.	c #93663F",
"]-.	c #92653E",
"^-.	c #91643D",
"/-.	c #8F623B",
"(-.	c #8C5F38",
"_-.	c #865932",
":-.	c #845730",
"<-.	c #805431",
"[-.	c #7D512E",
"}-.	c #704A26",
"|-.	c #644322",
"1-.	c #412716",
"2-.	c #3A2313",
"3-.	c #341D0F",
"4-.	c #2C190A",
"5-.	c #1E1300",
"6-.	c #1C0F00",
"7-.	c #41301C",
"8-.	c #382214",
"9-.	c #301F0F",
"0-.	c #2B1A0A",
"a-.	c #241405",
"b-.	c #211102",
"c-.	c #211101",
"d-.	c #231304",
"e-.	c #513A34",
"f-.	c #503933",
"g-.	c #6C4D38",
"h-.	c #7A5741",
"i-.	c #93654D",
"j-.	c #A37553",
"k-.	c #A0724E",
"l-.	c #9F724B",
"m-.	c #9E714A",
"n-.	c #9C6C46",
"o-.	c #9A6A44",
"p-.	c #946740",
"q-.	c #90633C",
"r-.	c #8E613A",
"s-.	c #7E522F",
"t-.	c #7C512E",
"u-.	c #644121",
"v-.	c #56381C",
"w-.	c #482E17",
"x-.	c #412812",
"y-.	c #311B0E",
"z-.	c #2B180A",
"A-.	c #211403",
"B-.	c #1F1402",
"C-.	c #1D1000",
"D-.	c #25170A",
"E-.	c #3C2B1B",
"F-.	c #412F17",
"G-.	c #392316",
"H-.	c #2C1A0E",
"I-.	c #2A180C",
"J-.	c #231306",
"K-.	c #241407",
"L-.	c #513A32",
"M-.	c #503931",
"N-.	c #5A452A",
"O-.	c #6E5036",
"P-.	c #7C5A3F",
"Q-.	c #9E724D",
"R-.	c #9D714C",
"S-.	c #9D6F4B",
"T-.	c #946642",
"U-.	c #91633F",
"V-.	c #8D613C",
"W-.	c #8B5F3A",
"X-.	c #895D38",
"Y-.	c #855934",
"Z-.	c #704928",
"`-.	c #5F3E1F",
" ;.	c #593A1D",
".;.	c #503518",
"+;.	c #4B3116",
"@;.	c #432B13",
"#;.	c #392210",
"$;.	c #301A0D",
"%;.	c #221504",
"&;.	c #201503",
"*;.	c #1E1202",
"=;.	c #221407",
"-;.	c #27190C",
";;.	c #3B2B14",
">;.	c #3C2C15",
",;.	c #3E2C14",
"';.	c #351F12",
");.	c #341E11",
"!;.	c #351F14",
"~;.	c #341D15",
"{;.	c #311D12",
"];.	c #2F1B10",
"^;.	c #2E1A11",
"/;.	c #2D190E",
"(;.	c #2A180E",
"_;.	c #27170A",
":;.	c #27160C",
"<;.	c #29180E",
"[;.	c #26140A",
"};.	c #27150B",
"|;.	c #28160C",
"1;.	c #29170D",
"2;.	c #2B190F",
"3;.	c #2C1A10",
"4;.	c #2E1B14",
"5;.	c #2F1C15",
"6;.	c #352118",
"7;.	c #5E462A",
"8;.	c #715337",
"9;.	c #805E42",
"0;.	c #A17552",
"a;.	c #9F734E",
"b;.	c #9C704B",
"c;.	c #9B6F4A",
"d;.	c #8F613D",
"e;.	c #8C603B",
"f;.	c #8A5E39",
"g;.	c #7F5431",
"h;.	c #7B532F",
"i;.	c #58391C",
"j;.	c #462E14",
"k;.	c #3F2912",
"l;.	c #2E1B0D",
"m;.	c #231605",
"n;.	c #1F1303",
"o;.	c #281A0D",
"p;.	c #382713",
"q;.	c #392912",
"r;.	c #3A2A11",
"s;.	c #3C2C13",
"t;.	c #341E13",
"u;.	c #331C14",
"v;.	c #321B13",
"w;.	c #2F1B12",
"x;.	c #28160A",
"y;.	c #29170B",
"z;.	c #2C1912",
"A;.	c #2A1710",
"B;.	c #2D1A13",
"C;.	c #2E1D16",
"D;.	c #62492A",
"E;.	c #76593B",
"F;.	c #866546",
"G;.	c #A07451",
"H;.	c #9C724C",
"I;.	c #956745",
"J;.	c #926442",
"K;.	c #885D3A",
"L;.	c #865B38",
"M;.	c #7A522F",
"N;.	c #724E2C",
"O;.	c #523418",
"P;.	c #4C3116",
"Q;.	c #472D14",
"R;.	c #231606",
"S;.	c #211505",
"T;.	c #201404",
"U;.	c #241609",
"V;.	c #362616",
"W;.	c #372815",
"X;.	c #3B2B12",
"Y;.	c #3E2D19",
"Z;.	c #3C2B17",
"`;.	c #362714",
" >.	c #382818",
".>.	c #341E10",
"+>.	c #321C11",
"@>.	c #311B10",
"#>.	c #2E1A0F",
"$>.	c #291B0E",
"%>.	c #25140A",
"&>.	c #190C04",
"*>.	c #584024",
"=>.	c #654D2B",
"->.	c #7A5B3C",
";>.	c #8A6747",
">>.	c #9B714B",
",>.	c #936543",
"'>.	c #916341",
")>.	c #875C39",
"!>.	c #855A37",
"~>.	c #79512E",
"{>.	c #5D3E21",
"]>.	c #4D3217",
"^>.	c #482E15",
"/>.	c #3E2811",
"(>.	c #241707",
"_>.	c #221606",
":>.	c #2C1E11",
"<>.	c #352515",
"[>.	c #372813",
"}>.	c #3A2A13",
"|>.	c #3D2D14",
"1>.	c #3E2C16",
"2>.	c #3F2E1A",
"3>.	c #3D2C18",
"4>.	c #382916",
"5>.	c #33200F",
"6>.	c #321F0E",
"7>.	c #331D0F",
"8>.	c #301A0F",
"9>.	c #1D0F06",
"0>.	c #6F5530",
"a>.	c #83623F",
"b>.	c #8F6B47",
"c>.	c #98704D",
"d>.	c #A67854",
"e>.	c #A37752",
"f>.	c #A0744F",
"g>.	c #9A704A",
"h>.	c #9A6E4B",
"i>.	c #996B49",
"j>.	c #946342",
"k>.	c #936241",
"l>.	c #855D3A",
"m>.	c #835B38",
"n>.	c #795030",
"o>.	c #6F4C2C",
"p>.	c #6A492A",
"q>.	c #57381C",
"r>.	c #513319",
"s>.	c #4A2E16",
"t>.	c #462C15",
"u>.	c #402713",
"v>.	c #211306",
"w>.	c #211507",
"x>.	c #392814",
"y>.	c #3B2A16",
"z>.	c #32210D",
"A>.	c #31200E",
"B>.	c #31200C",
"C>.	c #2F1C0D",
"D>.	c #311E10",
"E>.	c #311E0F",
"F>.	c #291C0C",
"G>.	c #281B0A",
"H>.	c #271A09",
"I>.	c #291808",
"J>.	c #251505",
"K>.	c #201303",
"L>.	c #201302",
"M>.	c #1F1202",
"N>.	c #6F5436",
"O>.	c #7C603B",
"P>.	c #8C6A45",
"Q>.	c #96704C",
"R>.	c #9D724F",
"S>.	c #A57753",
"T>.	c #A57954",
"U>.	c #9F754F",
"V>.	c #9D6F4D",
"W>.	c #936140",
"X>.	c #8E5D3C",
"Y>.	c #845C39",
"Z>.	c #805737",
"`>.	c #6F4C2E",
" ,.	c #68492C",
".,.	c #634427",
"+,.	c #422817",
"@,.	c #2A1C0F",
"#,.	c #3E2F1C",
"$,.	c #3D2E1B",
"%,.	c #3B2C19",
"&,.	c #2F200B",
"*,.	c #2F1E0C",
"=,.	c #2E1F0A",
"-,.	c #2C1F0E",
";,.	c #281906",
">,.	c #271805",
",,.	c #241706",
"',.	c #201207",
"),.	c #221409",
"!,.	c #291810",
"~,.	c #1D1008",
"{,.	c #7C5F3F",
"],.	c #866842",
"^,.	c #936F4B",
"/,.	c #9B7350",
"(,.	c #A97955",
"_,.	c #A77A53",
":,.	c #A67A53",
"<,.	c #A37750",
"[,.	c #A1754E",
"},.	c #9F6F4B",
"|,.	c #996744",
"1,.	c #966441",
"2,.	c #92623E",
"3,.	c #8E603C",
"4,.	c #774E2E",
"5,.	c #734A2A",
"6,.	c #5E3F23",
"7,.	c #53351B",
"8,.	c #4E3018",
"9,.	c #472B15",
"0,.	c #412613",
"a,.	c #3D2312",
"b,.	c #3A2011",
"c,.	c #351F11",
"d,.	c #2B190D",
"e,.	c #281809",
"f,.	c #322310",
"g,.	c #31220F",
"h,.	c #30210E",
"i,.	c #2F200D",
"j,.	c #2C1F0C",
"k,.	c #2A1D0A",
"l,.	c #261908",
"m,.	c #251909",
"n,.	c #231707",
"o,.	c #1D1403",
"p,.	c #1E1204",
"q,.	c #1D1007",
"r,.	c #20130A",
"s,.	c #271811",
"t,.	c #21130A",
"u,.	c #654933",
"v,.	c #7C5D3E",
"w,.	c #866640",
"x,.	c #926C48",
"y,.	c #98704C",
"z,.	c #A37551",
"A,.	c #A77751",
"B,.	c #A87852",
"C,.	c #A2764F",
"D,.	c #996442",
"E,.	c #976240",
"F,.	c #96613F",
"G,.	c #8E5E3A",
"H,.	c #8C5B3A",
"I,.	c #865837",
"J,.	c #744B2B",
"K,.	c #4C301A",
"L,.	c #472B16",
"M,.	c #422716",
"N,.	c #3E2415",
"O,.	c #3E2417",
"P,.	c #3A2216",
"Q,.	c #372114",
"R,.	c #392713",
"S,.	c #342414",
"T,.	c #2A1D0C",
"U,.	c #241808",
"V,.	c #221608",
"W,.	c #231709",
"X,.	c #24180A",
"Y,.	c #2B1D10",
"Z,.	c #2A1A0B",
"`,.	c #261A0A",
" '.	c #201406",
".'.	c #1C1304",
"+'.	c #1A1102",
"@'.	c #181101",
"#'.	c #180F00",
"$'.	c #180E02",
"%'.	c #1A0D05",
"&'.	c #1D140F",
"*'.	c #876645",
"='.	c #8E6C47",
"-'.	c #99714D",
";'.	c #9F7451",
">'.	c #AC7C58",
",'.	c #B07E59",
"''.	c #AF7F59",
")'.	c #AD8057",
"!'.	c #AC7F56",
"~'.	c #AB7E55",
"{'.	c #A77A51",
"]'.	c #A4744C",
"^'.	c #9F6945",
"/'.	c #9D6743",
"('.	c #98643F",
"_'.	c #97633E",
":'.	c #96623D",
"<'.	c #8D5D39",
"['.	c #8A5C38",
"}'.	c #835533",
"|'.	c #6A4324",
"1'.	c #50321A",
"2'.	c #492D18",
"3'.	c #452816",
"4'.	c #402416",
"5'.	c #3C2215",
"6'.	c #3F2419",
"7'.	c #3C241A",
"8'.	c #392318",
"9'.	c #331F16",
"0'.	c #312316",
"a'.	c #271D13",
"b'.	c #291C13",
"c'.	c #261C12",
"d'.	c #2B1F13",
"e'.	c #291D11",
"f'.	c #27190E",
"g'.	c #261A0E",
"h'.	c #25180F",
"i'.	c #221A0F",
"j'.	c #20170E",
"k'.	c #1E170D",
"l'.	c #1E150C",
"m'.	c #1D140B",
"n'.	c #180F08",
"o'.	c #1A0F09",
"p'.	c #251A16",
"q'.	c #352621",
"r'.	c #544132",
"s'.	c #211610",
"t'.	c #886545",
"u'.	c #AC7A55",
"v'.	c #AC7B53",
"w'.	c #AC7C54",
"x'.	c #A97C53",
"y'.	c #A5754D",
"z'.	c #9C6841",
"A'.	c #9A623F",
"B'.	c #99613E",
"C'.	c #98623E",
"D'.	c #94603B",
"E'.	c #935F3A",
"F'.	c #8E5C37",
"G'.	c #855735",
"H'.	c #815331",
"I'.	c #4F301B",
"J'.	c #492C1A",
"K'.	c #452818",
"L'.	c #402418",
"M'.	c #3C2116",
"N'.	c #3F241B",
"O'.	c #37231A",
"P'.	c #362219",
"Q'.	c #271A11",
"R'.	c #1E150E",
"S'.	c #1F180E",
"T'.	c #21180F",
"U'.	c #231910",
"V'.	c #2A1D15",
"W'.	c #1F160F",
"X'.	c #1C150D",
"Y'.	c #1B140E",
"Z'.	c #1A130D",
"`'.	c #19120C",
" ).	c #1B100C",
".).	c #2B1D1A",
"+).	c #2E201D",
"@).	c #342520",
"#).	c #3F281A",
"$).	c #825C38",
"%).	c #A06C47",
"&).	c #9A6A42",
"*).	c #996A40",
"=).	c #96673D",
"-).	c #906137",
";).	c #8B5A31",
">).	c #87532B",
",).	c #864E29",
"').	c #854D28",
")).	c #89532D",
"!).	c #88522C",
"~).	c #86522B",
"{).	c #845029",
"]).	c #834F2A",
"^).	c #7E4C27",
"/).	c #794925",
"().	c #764622",
"_).	c #6C3E1C",
":).	c #673917",
"<).	c #613512",
"[).	c #5D310E",
"}).	c #5A2F0D",
"|).	c #572C0A",
"1).	c #532806",
"2).	c #4D2607",
"3).	c #401E03",
"4).	c #3B1B02",
"5).	c #361800",
"6).	c #311200",
"7).	c #2B0E00",
"8).	c #270A00",
"9).	c #220600",
"0).	c #1F0400",
"a).	c #240900",
"b).	c #210900",
"c).	c #1F0800",
"d).	c #1D0600",
"e).	c #1A0600",
"f).	c #190500",
"g).	c #180600",
"h).	c #180400",
"i).	c #1B0700",
"j).	c #1E0800",
"k).	c #210B00",
"l).	c #250E00",
"m).	c #271000",
"n).	c #2B1402",
"o).	c #2C1601",
"p).	c #301703",
"q).	c #321903",
"r).	c #311802",
"s).	c #301500",
"t).	c #2D1400",
"u).	c #2A1301",
"v).	c #291202",
"w).	c #260F00",
"x).	c #230C00",
"y).	c #240D00",
"z).	c #271200",
"A).	c #281300",
"B).	c #291401",
"C).	c #2A1502",
"D).	c #2B1605",
"E).	c #240E01",
"F).	c #230D00",
"G).	c #220C01",
"H).	c #1F0B00",
"I).	c #1C0800",
"J).	c #190700",
"K).	c #150400",
"L).	c #140300",
"M).	c #120300",
"N).	c #110400",
"O).	c #0F0100",
"P).	c #0B0000",
"Q).	c #090000",
"R).	c #080100",
"S).	c #060100",
"T).	c #090200",
"U).	c #0B0200",
"V).	c #0C0300",
"W).	c #0E0300",
"X).	c #0E0000",
"Y).	c #100100",
"Z).	c #110200",
"`).	c #130100",
" !.	c #100200",
".!.	c #0A0000",
"+!.	c #090100",
"@!.	c #080000",
"#!.	c #0B0100",
"$!.	c #0E0402",
"%!.	c #120705",
"&!.	c #150704",
"*!.	c #130400",
"=!.	c #160700",
"-!.	c #1C0B03",
";!.	c #211104",
">!.	c #261406",
",!.	c #362110",
"'!.	c #1D0F04",
")!.	c #2E1C12",
"!!.	c #614230",
"~!.	c #7D583B",
"{!.	c #A3714C",
"]!.	c #A6724D",
"^!.	c #9D6C43",
"/!.	c #9B6C42",
"(!.	c #97683E",
"_!.	c #916238",
":!.	c #8D5931",
"<!.	c #88532B",
"[!.	c #874F2A",
"}!.	c #89512C",
"|!.	c #87512B",
"1!.	c #824E27",
"2!.	c #804C27",
"3!.	c #7B4924",
"4!.	c #774522",
"5!.	c #73431F",
"6!.	c #704220",
"7!.	c #6B3D1B",
"8!.	c #633714",
"9!.	c #5F3310",
"0!.	c #5B300E",
"a!.	c #582D0B",
"b!.	c #4D2605",
"c!.	c #401C02",
"d!.	c #3A1A01",
"e!.	c #351601",
"f!.	c #301100",
"g!.	c #2B1007",
"h!.	c #281006",
"i!.	c #240D05",
"j!.	c #210A02",
"k!.	c #1D0900",
"l!.	c #170500",
"m!.	c #230D02",
"n!.	c #271103",
"o!.	c #2C1507",
"p!.	c #2E1705",
"q!.	c #2D1604",
"r!.	c #2E1803",
"s!.	c #331A04",
"t!.	c #311601",
"u!.	c #2F1602",
"v!.	c #301605",
"w!.	c #2C1505",
"x!.	c #2A1303",
"y!.	c #281101",
"z!.	c #250F02",
"A!.	c #250F04",
"B!.	c #240E03",
"C!.	c #1D0902",
"D!.	c #190600",
"E!.	c #170400",
"F!.	c #0D0200",
"G!.	c #040000",
"H!.	c #110101",
"I!.	c #120202",
"J!.	c #140202",
"K!.	c #100000",
"L!.	c #0D0000",
"M!.	c #060000",
"N!.	c #070200",
"O!.	c #1A0901",
"P!.	c #1F0F02",
"Q!.	c #241204",
"R!.	c #2D1C0A",
"                                                                                                                                                                                                                                                                                                                                                                                                                                                                                                                                                                                                                                                                                                                                                                                          ",
"                                                                                                                                                                                                                                                                                                                                                                                                                                                                                                                                                                                                                                                                                                                                                                                          ",
"                                                                                                                                                                                                                                                                                                                                                                                                                                                                                                                                                                                                                                                                                                                                                                                          ",
"                                                                                                                                                                                                                                                                                                                                                                                                                                                                                                                                                                                                                                                                                                                                                                                          ",
"                                                                                                                                                                                                                                                                                                                                                                                                                                                                                                                                                                                                                                                                                                                                                                                          ",
"                                                                                                                                                                                                                                                                                                                                                                                                                                                                                                                                                                                                                                                                                                                                                                                          ",
"                                                                                                                                                                                                                                                                                                                                                                                                                                                                                                                                                                                                                                                                                                                                                                                          ",
"                                                                                                                                                                                                                                                                                                                                                                                                                                                                                                                                                                                                                                                                                                                                                                                          ",
"                                                                                                                                                                                                                                                                                                                                                                                                                                                                                                                                                                                                                                                                                                                                                                                          ",
"                                                                                                                                                                                                                                                                                                                                                                                                                                                                                                                                                                                                                                                                                                                                                                                          ",
"                                                                                                                                                                                                                                                                                                                                                                                                                                                                                                                                                                                                                                                                                                                                                                                          ",
"                                                                                                                                                                                                                                                                                                                                                                                                                                                                                                                                                                                                                                                                                                                                                                                          ",
"                                                                                                                                                                                                                                                                                                                                                                                                                                                                                                                                                                                                                                                                                                                                                                                          ",
"                                                                                                                                                                                                                                                                                                                                                                                                                                                                                                                                                                                                                                                                                                                                                                                          ",
"                                                                                                                                                                                                                                                                                                                                                                                                                                                                                                                                                                                                                                                                                                                                                                                          ",
"                                                                                                                                                                                                                                                                                                                                                                                                                                                                                                                                                                                                                                                                                                                                                                                          ",
"                                                                                                                                                                                                                                                                                                                                                                                                                                                                                                                                                                                                                                                                                                                                                                                          ",
"                                                                                                                                                                                                                                                                                                                                                                                                                                                                                                                                                                                                                                                                                                                                                                                          ",
"                                                                                                                                                                                                                                                                                                                                                                                                                                                                                                                                                                                                                                                                                                                                                                                          ",
"                                                                                                                                                                                                                                                                                                                                                                                                                                                                                                                                                                                                                                                                                                                                                                                          ",
"                                                                                                                                                                                                                                                                                                                                                                                                                                                                                                                                                                                                                                                                                                                                                                                          ",
"                                                                                                                                                                                                                                                                                                                                                                                                                                                                                                                                                                                                                                                                                                                                                                                          ",
"                                                                                                                                                                                                                                                                                                                                                                                                                                                                                                                                                                                                                                                                                                                                                                                          ",
"                                                                                                                                                                                                                                                                                                                                                                                                                                                                                                                                                                                                                                                                                                                                                                                          ",
"                                                                                                                                                                                                                                                                                                                                                                                                                                                                                                                                                                                                                                                                                                                                                                                          ",
"                                                                                                                                                                                                                                                                                                                                                                                                                                                                                                                                                                                                                                                                                                                                                                                          ",
"                                                                                                                                                                                                                                                                                                                                                                                                                                                                                                                                                                                                                                                                                                                                                                                          ",
"                                                                                                                                                                                                                                                                                                                                                                                                                                                                                                                                                                                                                                                                                                                                                                                          ",
"                                                                                                                                                                                                                                                                                                                                                                                                                                                                                                                                                                                                                                                                                                                                                                                          ",
"                                                                                                                                                                                                                                                                                                                                                                                                                                                                                                                                                                                                                                                                                                                                                                                          ",
"                                                                                                                                                                                                                                                                                                                                                                                                                                                                                                                                                                                                                                                                                                                                                                                          ",
"                                                                                                                                                                                                                                                                                                                                                                                                                                                                                                                                                                                                                                                                                                                                                                                          ",
"                                                                                                                                                                                                                                                                                                                                                                                                                                                                                                                                                                                                                                                                                                                                                                                          ",
"                                                                                                                                                                                                                                                                                                                                                                                                                                                                                                                                                                                                                                                                                                                                                                                          ",
"                                                                                                                                                                                                                                                                                                                                                                                                                                                                                                                                                                                                                                                                                                                                                                                          ",
"                                                                                                                                                                                                                                                                                                                                                                                                                                                                                                                                                                                                                                                                                                                                                                                          ",
"                                                                                                                                                                                                                                                                                                                                                                                                                                                                                                                                                                                                                                                                                                                                                                                          ",
"                                                                                                                                                                                                                                                                                                                                                                                                                                                                                                                                                                                                                                                                                                                                                                                          ",
"                                                                                                                                                                                                                                                                                                                                                                                                                                                                                                                                                                                                                                                                                                                                                                                          ",
"                                                                                                                                                                                                                                                                                                                                                                                                                                                                                                                                                                                                                                                                                                                                                                                          ",
"                                                                                                                                                                                                                                                                                                                                                                                                                                                                                                                                                                                                                                                                                                                                                                                          ",
"                                                                                                                                                                                                                                                                                                                                                                                                                                                                                                                                                                                                                                                                                                                                                                                          ",
"                                                                                                                                                                                                                                                                                                                                                                                                                                                                                                                                                                                                                                                                                                                                                                                          ",
"                                                                                                                                                                                                                                                                                                                                                                                                                                                                                                                                                                                                                                                                                                                                                                                          ",
"                                                                                                                                                                                                                                                                                                                                                                                                                                                                                                                                                                                                                                                                                                                                                                                          ",
"                                                                                                                                                                                                                                                                                                                                                                                                                                                                                                                                                                                                                                                                                                                                                                                          ",
"                                                                                                                                                                                                                                                                                                                                                                                                                                                                                                                                                                                                                                                                                                                                                                                          ",
"                                                                                                                                                                                                                                                                                                                                                                                                                                                                                                                                                                                                                                                                                                                                                                                          ",
"                                                                                                                                                                                                                                                                                                                                                                                                                                                                                                                                                                                                                                                                                                                                                                                          ",
"                                                                                                                                                                                                                                                                                                                                                                                                                                                                                                                                                                                                                                                                                                                                                                                          ",
"                                                                                                                                                                                                                                                                                                                                                                                                                                                                                                                                                                                                                                                                                                                                                                                          ",
"                                                                                                                                                                                                                                                                                                                                                                                                                                                                                                                                                                                                                                                                                                                                                                                          ",
"                                                                                                                                                                                                                                                                                                                                                                                                                                                                                                                                                                                                                                                                                                                                                                                          ",
"                                                                                                                                                                                                                                                                                                                                                                                                                                                                                                                                                                                                                                                                                                                                                                                          ",
"                                                                                                                                                                                                                                                                                                                                                                                                                                                                                                                                                                                                                                                                                                                                                                                          ",
"                                                                                                                                                                                                                                                                                                                                                                                                                                                                                                                                                                                                                                                                                                                                                                                          ",
"                                                                                                                                                                                                                                                                                                                                                                                                                                                                                                                                                                                                                                                                                                                                                                                          ",
"                                                                                                                                                                                                                                                                                                                                                                                                                                                                                                                                                                                                                                                                                                                                                                                          ",
"                                                                                                                                                                                                                                                                                                                                                                                                                                                                                                                                                                                                                                                                                                                                                                                          ",
"                                                                                                                                                                                                                                                                                                                                                                                                                                                                                                                                                                                                                                                                                                                                                                                          ",
"                                                                                                                                                                                                                                                                                                                                                                                                                                                                                                                                                                                                                                                                                                                                                                                          ",
"                                                                                                                                                                                                                                                                                                                                                                                                                                                                                                                                                                                                                                                                                                                                                                                          ",
"                                                                                                                                                                                                                                                                                                                                                                                                                                                                                                                                                                                                                                                                                                                                                                                          ",
"                                                                                                                                                                                                                                                                                                                                                                                                                                                                                                                                                                                                                                                                                                                                                                                          ",
"                                                                                                                                                                                                                                                                                                                                                                                                                     .  +  @  #                                                                                                                                                                                                                                                                                                                                                           ",
"                                                                                                                                                                                                                                                                                                                                                                                                      $  %  &  *  =  -  ;  >  ,  '                                                                                                                                                                                                                                                                                                                                                        ",
"                                                                                                                                                                                                                                                                                                                                                                                                   )  !  ~  {  ]  ^  /  (  _  :  <                                                                                                                                                                                                                                                                                                                                                        ",
"                                                                                                                                                                                                                                                                                                                                                                                                [  }  |  1  2  3  4  5  6  7  8                                                                                                                                                                                                                                                                                                                                                           ",
"                                                                                                                                                                                                                                                                                                                                                                                          9  [  0  a  b  c  d  e  f  g  h  i           j  k  l           m                                                                                                                                                                                                                                                                                                                                ",
"                                                                                                                                                                                                                                                                                                                                                                                       n  o  p  q  r  s  s  t  u  v  w  x  y     z  A  B  C  D  E     F  G  H           I  J  K                                                                                                                                                                                                                                                                                                           ",
"                                                                                                                                                                                                                                                                                                                                                                                       L  M  N  O  P  Q  R  S  T  U  V  W        X  Y  Z  `   . .. +. @. #. $. %. &. *. =. -. ;.                                                                                                                                                                                                                                                                                                          ",
"                                                                                                                                                                                                                                                                                                                                                                                    >. ,. '. ). !. ~. {. ]. ^. /. (. _. F  :. <. [. }. |. 1. 2. 3. 4. 5. 6. 7. 8. 9. 0. a. b. c. d. e.                                                                                                                                                                                                                                                                                                    ",
"                                                                                                                                                                                                                                                                                                                                                                                 f. g. h. i. j. k. l. m. n. o. p. q. r. s. t. u. v. w. x. y. z. A. z  B. C. D. E. F. G. H. I. J. K. L. M.                                                                                                                                                                                                                                                                                                 ",
"                                                                                                                                                                                                                                                                                                                                                                              N. >. O. P. Q. R. S. T. U. V. W. X. Y. Z. `.  + .+ ++ @+ #+ $+ %+ &+ *+ =+ -+ ;+ >+ ,+ '+ ,+ )+ !+ !+ ~+ {+                                                                                                                                                                                                                                                                                                 ",
"                                                                                                                                                                                                                                                                                                                                                         ]+          ^+ /+ (+ _+ :+ <+ [+ }+ |+ S. 1+ 2+ 3+ 4+ 5+ 6+ 7+ 8+ 9+ t. 0+ a+ b+ c+ d+ e+ f+ g+ h+ i+ j+ k+ l+ m+ n+ o+ I. p+ q+    r+ s+                                                                                                                                                                                                                                                                                        ",
"                                                                                                                                                                                                                                                                                                                                       t+    u+             v+ w+    x+ y+ z+ A+ A+ B+ C+ D+ E+ F+ G+ H+ I+ J+ K+ L+ M+ d+ N+ O+ P+ Q+ R+ S+ T+ U+ V+ W+ X+ Y+ 5. Z+ `+  @ .@ +@ @@ #@ $@ %@ &@ :           *@ =@                                                                                                                                                                                                                                                                         ",
"                                                                                                                                                                                                                                                                                                                        -@       ;@ >@ ,@ '@ )@ !@ ~@ {@ ]@ ^@ /@ (@ _@ :@ <@ [@ }@ |@ 1@ 2@ 3@ 4@ 5@ 6@ 7@ 8@ 9@ 0@ a@ b@ c@ d@ e@ f@ g@ h@ i@ j@ k@ l@ m@ n@ o@ p@ q@ r@ s@ t@ u@ #@ _  v@ w@ x@ y@ z@ A@ B@ C@                                                                                                                                                                                                                                                                         ",
"                                                                                                                                                                                                                                                                              D@                                  E@ F@ G@       H@ I@ J@ K@ L@ M@ N@ O@ P@ Q@ R@ S@ T@ U@ V@ W@ X@ Y@ Z@ `@  # .# +# @# ## $# %# &# *# =# -# ;# ># ,# '# )# !# ~# {# ]# ^# /# (# _# :# <# [# }# |# 1# 2# 3# 4# 5# 6# .@ 7# 8# 9# 0#                                                                                                                                                                                                                                                                      ",
"                                                                                                                                                                                                                                                               a#          b# c# d#                            e#    f# g# h# i# j# k# j  l# m# n# o# p# q# r# s# t# u# v# w# x# y# z# A# B# C# D# E# F# G# H# I# J# K# L# M# N# O# P# Q# R# S# T# U# V# W# X# Y# 8# Z# `#  $ .$ }# +$ @$ #$ $$ 7# %$ &$ *$ =$ -$ ;$                                                                                                                                                                                                                                                                      ",
"                                                                                                                                                                                                                                                            >$ ,$ '$       )$ !$ ~$ {$ ]$ ^$ /$          ($ _$       :$ <$ [$ }$ |$ 1$ 2$ 3$ 4$ 5$ 6$ 7$ 8$ 9$ 0$ a$ b$ c$ d$ e$ f$ g$ h$ i$ j$ k$ l$ m$ n$ o$ p$ q$ r$ s$ t$ u$ v$ w$ x$ y$ z$ A$ B$ C$ D$ E$ F$ G$ H$ I$ h  J$ _@ K$ L$ M$ N$ O$ P$ Q$ R$ S$ T$ U$ V$ W$                                                                                                                                                                                                                                                                ",
"                                                                                                                                                                                                                                                            X$    Y$ Z$ `$  % .% +% @% #% $% %% &% *% =% -% ;% >% ,% '% )% !% ~% {% ]% ^% /% (% _% :% <% [% }% |% 1% 2% 3% 4% 5% f$ 6% 7% 8% 9% 0% a% b% c% d% e% f% g% h% i% j% k% z$ l% m% n% o% m% p% q% r% s% t% u% v% w% _  x% y% z% A% B% C% !# n@ T$ D% E% F% G% H% I% t  5                                                                                                                                                                                                                                                        ",
"                                                                                                                                                                                                                                                            J%    K% L% M% N% O% P% Q% R% S% T% U% V% W% X% Y% Z% `% `%  & .& +& @& #& $& %& && *& =& 0@ -& ;& >& ,& U@ '& )& !& ~& {& ]& ^& /& (& 3. a% _& :& <& [& }& |& 1& 2& U# 3& 4& 5& 6& 7& 8& 9& 0& a& w% b& c& d& Z$ e& f& g& h& .@ A% ;$ X+ i& j& k& l& m& n& o& p& y% q& r&                                                                                                                                                                                                                                                    ",
"                                                                                                                                                                                                                                                               s& t& u& v& w& x& y& z& A& B& C& D& E& F& G& H& I& J& K& L& M& N& O& v& P& Q& R& S& T& U& V& W& T@ X& Y& Y& Z& `& 5%  * .* +* @* #* $* %* &* ** ** =* -* ;* /. >* ,* 7& '* )* !* !* ~* {* ]* ^* /* (* _* Z$ :* <* [* }* |* 1* 2* 3* 4* 5* J+ 6* 7* 8* 9* 0* a* b* c* c* d*                                                                                                                                                                                                                                                 ",
"                                                                                                                                                                                                                                                         J% e* f* g* h* i* j* k* l* m* n* o* p* q* r* I& s* t* u* v* w* x* v* y* z* A* B* C* D* E* F* G* H* W@ I* J* K* L* M* N* O* P* Q* R* S* T* U* V* W* X* Y* Z* `*  = ,* .= += @= #= $= %= &= *= == -= ;= >= ,= '= )= != ~= {= ]= h& ^= /= (= _= := <= [= }= |= 1= 2= :# 3= 4= 5= &@ 6=                                                                                                                                                                                                                                              ",
"                                                                                                                                                                                                                                                Y$       7= 8= 9= 0= a= b= c= d= e= f= g= h= i= j= k= l= m= x* n= o= p= q= r= s= t= u= v= w= x= y= z= A= B= C= D= E= B+ F= G= H= I= J= K= L= M= N= ]. O= P= Q= R= S= T= U= V= W= X= Y= Z= `=  - .- +- @- #- $- ;= %- &- *- =- -- ;- >- ,- =@ '- )- !- ~- J+ {- ]- ^- /- (- /. )- C% &$ _- :-                                                                                                                                                                                                                                              ",
"                                                                                                                                                                                                                                          J% <- [- -- }- |- 1- 2- 3- 4- 5- 6- 7- 8- 9- 0- a- b- c- d- e- f- g- h- i- j- k- l- m- n- o- p- q- r- s- p- r- t- u- v- w- x- y- z- A- B- C- D- E- F- G- H- I- J- K- L- M- N- O- P- Q- R- S- r% T- U- V- W- X- Y- Z- `-  ; .; ,= +; @; #; $; %; L@ &; *; =; -; ;; >; ,; '; ); !; E  m% ~; {; ]; ^; /;                                                                                                                                                                                                                                           ",
"                                                                                                                                                                                                                                       (; _;  - :; |- <; #  [; }; |; 1; 2; 3; 4; 5; 6; 7; 8; 9; 0; a; b; c; d; e; f; g; h; i; j; k; l; m; n; o; p; r- q; `& r; s; t; u; v; w; x; y; z; A; E% B; C; D; E; F; G; H; I; J; K; L; M; N; O; P; '* Q; R; S; T; U; V; W; X; Y; Z; `;  > .> w@ +> @> ;& #> $> %> X+ &> *# *> %# o@ => -> ;> ~# >> `# ,> '>                                                                                                                                                                                                                                        ",
"                                                                                                                                                                                                                                    )> !> ~> {> ]> ^> /> (> _> :> <> [> }> |> 1> 2> 3> 3> 4> 6; 5> 6> 7> 8> 9> 0> a> 6# b> c> d> d> e> f> g> h> x- i> j> k> l> m> n> n> o> p> q> r> s> t> u> v> w> x> y> z> A> B> C> D> E> F> G> H> I> J> K> L> M> N> O> P> Q> R> S> T> U> V> W> H@ X> Y> Z> `>  , $$ $$ V+ -$ ., +, @, #, $, %, &, *, G% >% =, e&                                                                                                                                                                                                                                        ",
"                                                                                                                                                                                                                                 -, ;, >, ,, ', ), !, ~, {, ], e- ^, /, (, _, :, 3> <, <, <, n= I& M% [, }, |, 1, 2, 3, 4, 5, 6, 7, 8, 9, 0, a, b, c, 3@ d, e, f, g, h, i, 7+ j, k, l, m, n, o, p, q, r, s, t, u, v, w, x, y, z, A, B, C, g% r$ D, E, F, G, H, I, J, K, L, M, N, O, .> P, H@ Y> Q, R, S, T, U, V, W, X, #, Y, Z, `,  ' .' +' &$ @' #'                                                                                                                                                                                                                                     ",
"                                                                                                                                                                                                                              $' %' &' *' =' -' ;' 9; >' ,' '' )' !' ~' {' ]' ^' 3> /' (' _' :' <' [' }' |' 1' 2' 3' 4' 5' 6' 7' '; 8' ;> 9' 0@ 0' a' b' c' d' e' f' g' h' i' j' k' l' m' n' o' p' q' r' s' t' u' v' w' x' y' z' A' B' C' D' E' F' G' H' I' S# J' K' L' M' U> N' O' P' .> Q' R' ^> S' T' ]; U' -# V' W' X' Y' Z' `'  ) n@ k@ `# .) +)                                                                                                                                                                                                                                     ",
"                                                                                                                                                                                                                           )> @) #) $) %) b= &) &) 9; 5> *) =) d- -) ;) >) ,) ') )) !) }; ~) {) ]) ^) /) () _) :) <) [) }) j* |) 1) [= 2) 3) 4) 5) 6) 7) 8) 9) 0) a) k, b) c) d) e) f) g) h) i) j) k) l) m) n) o) p) q) r) s) t) u) v) w) x) y) z) A) B) C) D) N# E) H, F) X; G) H@ I@ H) I) H) O' J) K) L) M) )# N) 0% O) Y' s. P) Q) {- R) C% S) T) U)                                                                                                                                                                                                                                  ",
"                                                                                                                                                                                                                              d& 5; x* t* t* V) ~, ~, W) X) Y) Z) ~, !' `)  ! .! +! @! #! $! %! &! *! =! -! ;! >! ,! '! )! O& !! ~! {! ]! ^! /! (! _! :! <! [! }! d' |! 1! 2! 3! 4! 5! 6! 7! n, 8! 9! 0! a! b! c! d! e! f! g! h! i! j! k! l! m! n! o! d% s$ p! q! 6. =; r! s! t! Y; u! I@ :- v! w! x! y! `; z! A! B! C! D! E! F! G! H! I! J! (= .@ 5= K!                                                                                                                                                                                                                                  ",
"                                                                                                                                                                                                                           L! M! N! O! m= P! Q! ~, ~, W) s# R! u& V) ^, S! T! U! V! <, ~) W! X! Y! Z! `!  ~ .~ +~ @~ #~ $~ %~ &~ *~ =~ -~ ;~ >~ ,~ '~ )~ !~ :% ~~ |! {~ '~ ]~ ^~ /~ (~ _~ :~ ,~ <~ [~ }~ |~ 1~ 2~ 3~ 4~ 5~ 6~ 7~ 8~ 9~ 0~ a~ b~ c~ d~ e~ f~ g~ q! h~ i~ j~ k~ l~ m~ s% n~ ]= o~ p~ q~ r~ :* s~ c& n~ t~ u~ J+ v~ w~ x~ Q) W* y~ 7# u  z~                                                                                                                                                                                                                                  ",
"                                                                                                                                                                                                                                    m= m= e- P! V) A~ B~ C~ D~ E~ F~ G~ H~ I~ J~ K~ L~ M~ N~ O~ Y! P~ Q~ R~ S~ T~ U~ V~ P& W~ X~ Y~ Z~ `~  { .{ +{ @{ _! #{ ${ %{ &{ &{ %{ *{ ={ =* -{ ;{ >{ ,{ '{ ){ !{ ~{ {{ ]{ ^{ /{ ({ _{ :{ <{ [{ }{ |{ 1{ 2{ 3{ 4{ 5{ 6{ h~ 7{ 8{ 8{ E) 9{ 0{ X; H$ a{ b{ c{ d{ Z$ e{ f{ s~ g{ h{ i{ j{ k{ l{ '; I! W* m{ %$ n{ [* o{                                                                                                                                                                                                                               ",
"                                                                                                                                                                                                                              p{ q{ r{ s{ m= 5; _> t{ u{ v{ w{ x{ y{ z{ A{ B{ C{ n= D{ E{ F{ G{ 3+ H{ I{ J{ K{ T~ L{ M{ M% N{ O{ P{ Q{ R{ S{ T{ U{ V{ W{ X{ Y{ &{ &{ &{ _% Z{ `{ 4)  ] I# .] +] @] #] $] T{ %] &] *] =] -] c~ ;] >] `' ,] '] )] !] _. 3{ ~] {] ]] ^] /] ]] (] _] :] <] [] }] |] g# 1] 2] r~ (* '= V; 3] 4] 5] 6] j& &# 2= 7] 8] 4# _  9] 0]                                                                                                                                                                                                                               ",
"                                                                                                                                                                                                                           a] b] r{ c] m= O! d] e] f] C~ g] h] }> r{ m= i] j] v& &) k] l] m] n] o] p] q] r] s] t] u] v] `% w] x] y] z] A] B] C] D] 7' E] F] G] H] I] J] K] L] M] N] O] P] Q] R] S] T] U] V] W] |{ X] H# Y] Z] `]  ^ .^  ^ L# +^ n% @^ m@ #^ $^ %^ %^ C@ $> &^ *^ m~ =^ -^ b& ;^ 7  w% Z- ,= >^ ,^ '^ h# x  )^ !^ ~^ i& {^ ]^ `# ^^ /^ (^ _^                                                                                                                                                                                                                               ",
"                                                                                                                                                                                                                           :^ b] <^ c] b] [^ }^ |^ 1^ 2^ 3^ 4^ 5^ 6^ b] 5; ~, 7^ #& 8^ n] 9^ 0^ a^ b^ c^ d^ e^ =) 5> 9; f^ g^ h^ i^ j^ k^ l^ m^ &{ n^ o^ p^ 0@ q^ q^ r^ m& s^ t^ Q] u^ v^ q> w^ x^ y^ z^ A^ B^ C^ |& D^ E^ F^ G^ H^ E  o% I^ g+ J^ K^ -$ L^ $^ M^ N^ O^ Z# P^ Q^ R^ M' S^ T^ |] U^ ;^ K) V^ N, W^ X^ Y^ Z^ `^  / {] @^ ./ 4= g&          +/                                                                                                                                                                                                                               ",
"                                                                                                                                                                                                                           @/ b] #/ $/ r{ %/ &/ |^ e] */ =/ -/ ;/ 6^ >/ v* N& ,/ '/ [{ )/ !/ ~/ {/ ]/ ^/ // (/ _/ >' :/ </ [/ }/ |/ 1/ 2/ 3/ }' 4/ 5/ e, 6/ 7/ 0' 8/ 9/ 0/ /# i& R$ a/ b/ P] c/ d/ W# e/ f/ f/ g/ h/ (- *, i/ K^ j/ 5] )- (= %> k/ k/ l/ m/ ^] 6. n/ o/ p/ q/ r/ s/ t/ A@ u/ v/ |] w/ z@ v! x/ y/ '= z/ A/ B/ C/ D/ E/ F/ B% y@                                                                                                                                                                                                                                           ",
"                                                                                                                                                                                                                           G/ ^' b] b] H/ I/ J/ K/ L/ M/ N/ O/ P/ Q/ R/ n= S/ T/ U/ V/ W/ Z' X/ Y/ Z/ `/  ( =) ], u] X) .( Y) R& +( @( #( $( K] G] %( &( *( &( =( 0/ ]# -( ;( ;; >( ,( '( C$ )( f/ !( ~( {( {( P- ,( m% ]( ^( /( (( _( 8& s/ :( <( [( <( }( l/ H, n/ N> |( S> n/ k/ u! 1( *@ 2( 3( I$ 4( 5( 6( 7( Z; 8( X; u! 9( 9( 0( a( b( c(    d(    e(                                                                                                                                                                                                                               ",
"                                                                                                                                                                                                                                 <^ b] f( g( J/ h( i( j( k( l( m( n( o( D{ p( q( 1~ r( s( t( u( j* v( w( x( y( z( A( B( C( D( E( F( G( H( I( J( K( L( M( |/ N( O( P( n. Q( R( S( T$ U# ,( T( U( V( W( X( P- T# Y( U= E$ Z( `(  _ ._ S> +_ @_ #_ $_ -^ S^ m/ %_ &_ E$ *_ E/ =_ -_ ;_ F$ >_ ,_ '_ )_ H$ ,_ )_ !_ ~_ {_ {_ M' ]_ i  ^_ /_ A@ }* (_ f&                                                                                                                                                                                                                                        ",
"                                                                                                                                                                                                                              #/ __ :_ r{ <_ [_ 4; u* }_ w* b] O/ L~ |_ x& 1_ 2_ 3_ 4_ 5_ 6_ 7_ 8_ 9_ 0_ a_ a_ b_ c_ d_ e_ f_ g_ h_ i_ j_ J( k_ l_ m_ n_ o_ p_ q_ r_ 1= s_ |= t_ u_ v_ w_ x_ y_ U( z_ T( A_ B_ C_ D_ D_ Z( E_ +_ `^ `^ F_ G_ H_ M' I_ J_ K_  / E_ L_ D_ D/ K, M_ N_ G$ O_ '_ /_ *@ =@ P_ Q_ R_ Y^ S_ T_ A/ X; U_ V_ 1( *@ c* W_ X_ /^ Y_    Z_                                                                                                                                                                                                                            ",
"                                                                                                                                                                                                                              `_ $/ [^  : .: :> +: u* j( ~, b] @: #: $: %: &: *: =: -: ;: >: ,: Z/ A( 2^ ': */ d_ ): !: ~: {: ]: ^: /: @( H( (: _: :: <: [: }: &: |: 1: 2: 3: 4: 5: J- 6: 7: Z* 8: T# 2& D$ W  l  9: 0: a: U= b: c: K, +_ d: H_ e: f: g: J_ h: i: j: k: l: l: Q; ~* m: ~* m: n: o: o: 2( ,_ p: q: r: *^ A/ s: -^ t: g{ P_ ,> }] 5( =, 5(    d( u:                                                                                                                                                                                                                         ",
"                                                                                                                                                                                                                                 v: b] w: x: y: z: A: I& s* B: C: D: E: F: G:  ] H: I: J: K: L: 9_ {, M: N: O: P: Q: R: S: T: U: V: K( W: X: Y: Z: `: `: p>  < .< m] z^ +< @< #< $< $< $< 6: !( '( {( ,( %< &< =+ 0: W  M> _( *< C/ =< -< ;< >< ,< U_ '< )< k: !< l: ~< S- {< ]< -_ F$ ^< ^< /< n: V$ t/ (< _< :< << [< t% )_ '_ M' J_ A/ .) |] }< W_ 7  |<                                                                                                                                                                                                                               ",
"                                                                                                                                                                                                                                 1< 2< 3< 3^ t{ 4< 5< 7^ 6< 7< i  V= 8< 9< 0< a< b< c< d< e< f< g< h< i< j< k< l< m< n< o< p< q< r< s< t< u< v< w< x< y< z< A< B< C< C< D< E< F< G< H< H< I< J< J< K< Z] L< M< N< N< O< L^ (( M> &_ -< `^ `^ S> -< S> ;< ;< P< l: P< Q< {< S- ~< R< S< F$ &^ c: C/ T< l/ <( U< -+ 8{ V< k/ W< k/ l/ X< M_ Y< Z< -_ `< >_                                                                                                                                                                                                                                  ",
"                                                                                                                                                                                                                                  [ .[ f- +[ @[ j= #[ $[ %[ &[ &[ {( *[ =[ -[ 9' ;[ >[ ,[ '[ )[ ![ ~[ {[ ][ ^[ /[ ([ S. _[ :[ <[ [[ }[ |[ 1[ x< 2[ 3[ 4[ 5[ 6[ 7[ 8[ 9[ 0[ 0[ 2) H< a[ b[ c[ d[ e[ Z] p. 1& W( l  f[ M< g[ h[ E$ L_ -< `^ L' i[ L' j[ r% >< P< P< k[ !< P< {< l[ P< Q; G$ *< &^ E/ |( N> <( m[ L^ n[ o[ l/ p[ *< q[ r[ ^= 1* ^= s[ %$ 0&                                                                                                                                                                                                                                  ",
"                                                                                                                                                                                                                                    t[ u[ v[ w[ +& x[ c= y[ z[ A[ l{ B[ C[ D[ E[ F[ G[ H[ I[ J[ K[ L[ M[ N[ O[ L( M( |/ P[ Q[ R[ S[ T[ U[ V[ 3[ W[ X[ Y[ Z[ `[  } .} +} @} #} $} %} &} *} =} -} ;} >} ,} '} )} !} ~} {} y_ y_ ]} ^} a: /} (} E_ _} `^ S> S> h: P< @= k: l: {< S- Q< :} ^< p[ |( &^ b: 0( n/ m[ <} *+ [} }} B_ E/ |} 9( t~ 1} 2} q@ 3} 4} 5}                                                                                                                                                                                                                               ",
"                                                                                                                                                                                                                                    6} M/ 7} 8} 9} 0} a} b} c} d} e} f} g} h} i} j} k} _/ l} m} n} o} p} q} Q[ U[ r} U[ U[ s} t} u} :: <: v} P{ w} Y~ x} y} z} A} B, B} C} F> D} E} F} G} &} G} H} H} I} J} K} L} M} N} O} P} Q} R} &_ U= a: /} D/ K, `^ +_ S} l: {< R< @= {< S- R< T} U} -< 0( &^ b: j[ V} B_ W} !^ X} i{ c: Y} m/ N> l/ Z} `}  | .| +| -_                                                                                                                                                                                                                               ",
"                                                                                                                                                                                                                                 @| #| $| %| &| *| =| -| ;| >| ,| '| )| !| ~| {| ]| ^| D~ /| (| U  _| :| <| [| }| || 1| 2| :: 3| 0< 4| 5| 6| 7| 8| 9| 0| a| b| c| d| e| f| g| h| i| j| k| l| m| I} n| o| p| q| r| s| s| t| N} u| v| Q= x_ E$ E$ l[ ~< #_ w| x| y| #= Z= T} T} z| S< Y}  @ =< Y} C. A| C. B| K, D/ %_ 9{ C| Q^ t! D| s! E| m/ F| G| /= B@ s[ H|                                                                                                                                                                                                                            ",
"                                                                                                                                                                                                                                 I| J| K| L| M| N| O| P| Q| R| S| T| U| V| W| X| Y| Z| b, `| ||  1 .1 +1 @1 #1 $1 %1 &1 *1 =1 -1 ;1 >1 ,1 '1 )1 !1 ~1 {1 ]1 ^1 A, /1 x, (1 _1 :1 <1 [1 }1 w> |1 K} 11 v| 21 31 41 51 61 s| 71 L} M} 81 {} Z( 91 l: l: >< ;< 01 y| a1 #= #_ S< S< S< x  Y}  @  @ b1 B| C. C. s! Z^ s% t% c1 u/ 9{ [< d1 l~ x  E/ e1 t~ V+ f1 g1                                                                                                                                                                                                                            ",
"                                                                                                                                                                                                                                 h1 i1 j1 k1 l1 m1 n1 o1 p1 q1 r1 s1 t1 u1 v1 w1 x1 y1 z1 A1 B1 C1 D1 D1 E1 F1 G1 H1 1| I1 J1 K1 L1 M1 N1 O1 P1 Q1 R1 S1 T1 U1 V1 W1 X1 Y1 Z1 `1  2 .2 +2 @2 #2 $2 %2 &2 *2 =2 -2 ;2 51 >2 ,2 L} u| P} R= '2 )2 !2 h: h: h: k: k: k: k: k: l: D_ /} a: a: a:  / R} W} N< A| t! d1 D| ~2 E| {2 ]2 9{ <( =_ Y}  @ h{ Z# V+ L@ ^2 d(                                                                                                                                                                                                                         ",
"                                                                                                                                                                                                                                 /2 (2 _2 :2 <2 [2 }2 |2 12 22 32 42 52 62 72 82 92 02 a2 b2 c2 d2 e2 E1 @1 %1 F1 f2 g2 h2 q> y^ i2 j2 k2 l2 m2 n2 o2 p2 p2 q2 r2 s2 t2 u2 v2 w2 x2 y2 z2 A2 B2 C2 D2 E2 E2 F2 G2 H2 ;2 I2 ,2 u| J2 P} R= K2 '2 L2 h: h: h: k[ k: h: !2 h: !< Z( D_ D_ M2 a: a: W} W} N< ^( n/ N2 N2 l~ O2 D| P2 << p/ U< b: c: q/ Q2 B@ R2 S2 H| H|                                                                                                                                                                                                                      ",
"                                                                                                                                                                                                                                 T2 U2 V2 W2 X2 N| Y2 Z2 `2  3 .3 +3 @3 #3 $3 %3 &3 *3 =3 -3 ;3 >3 ,3 '3 )3 !3 ~3 {3 ]3 ^3 9* $3 /3 |~ (3 _3 :3 <3 [3 }3 |3 13 T1 23 33 43 v2 53 53 63 73 83 93 03 a3 b3 c3 d3 e3 f3 &2 g3 >2 L} J2 h3 i3 j3 j3 k3 l3 m3 m3 k[ k: P; E_ E_ m3 Z( 91 P; 91 W} N< N< N< N< C_ n/ -< `^ b: p[ E/ c: %_ n3 F| p[ C/ o3 $> B@ f1 p3 q3 u:                                                                                                                                                                                                                      ",
"                                                                                                                                                                                                                                 r3 c, =& s3 t3 u3 v3 w3 x3 y3 z3 A3 B3 C3 D3 E3 F3 G3 H3 I3 J3 ;3 ,3 K3 L3 M3 N3 1[ O3 P3 v^ ;1 Q3 R3 S3 T3 U3 V3 W3 X3 Y3 Z3 `3  4 .4 +4 @4 #4 $4 %4 &4 *4 =4 -4 ;4 >4 ,4 '4 )4 !4 ~4 {4 I> M} u| ]4 h3 l3 l3 l3 ^4 (} m3 (} (} m3 m3 m3 (} Z( 91 E_ m3 =+ W} N< N< N< C_ /4 x  K, 0( p[ N> E/ Y} U< r/ W< &^ %_ <( F/ (4 _4 :4 Z_ e( e( e(                                                                                                                                                                                                             ",
"                                                                                                                                                                                                                              <4 [4 _[ }4 |4 14 24 34 44 54 64 74 84 94 04 a4 b4 c4 d4 d4 e4 f4 g4 h4 i4 L3 2[ ]3 x< j4 5[ }: k4 l4 m4 n4 o4 p4 q4 q4 r4 q4 s4 t4 u4 v4 w4 ;4 #4 x4 y4 z4 A4 A4 B4 C4 D4 E4 F4 G4 H4 I4 J4 I> K4 L4 h3 h3 M4 h3 N4 N4 ^4 l3 ^4 S= Q} {} 81 81 {} {} ~} ~} S= {} y_ O4 P- N< &< P4 ^( R} N< Y( )^ &< U= Q4 o3 l/ }( [( |} R4 U^ S4 Y_ p3 q3 q3 e(                                                                                                                                                                                                          ",
"                                                                                                                                                                                                                              T4 U4 V4 =& W4 X4 Y4 Z4 `4  5 .5 +5 @5 #5 $5 %5 &5 *5 =5 -5 ;5 4[ i4 >5 q} q} y< ,5 '5 )5 G{ !5 >{ ~5 n4 {5 ]5 ^5 /5 W3 W3 (5 _5 :5 <5 [5 }5 |5 15 25 35 45 45 z2 55 65 75 B, 85 95 <& .] J4 05 a5 b5 M4 M4 h3 ]4 c5 c5 d5 S= ~} S= 81 y_ W( y_ 81 {} 81 S= e5 e5 {} W( P- P- D$ f[ f5 f5 f[ W  )^ O< U= a: |} 9( $> k/ p[ c1 5( g5 h5 i5 q3 S2 u:                                                                                                                                                                                                          ",
"                                                                                                                                                                                                                        j5 k5 l5 m5 n5 o5 p5 q5 r5 s5 t5 u5 v5 w5 x5 x5 y5 z5 A5 B5 C5 D5 E5 F5 G5 H5 I5 J5 W[ K5 z< F{ L5 M5 C< N5 z} O5 P5 p4 Q5 R5 `3 S5 T5 f/ a[ U5 E2 V5 W5 X5 Y5 /1 Z5 `5 c|  6 y> .6 +6 @6 #6 $6 %6 05 a5 &6 *6 *6 M4 h3 ]4 =6 -6 ;6 >6 3{ ,6 3{ '6 )6 ,6 !6 )6 )6 A& -6 =6 -6 A& P- ~6 {6 ~] w$ D$ x_ v_ T( ]6 Y( ^6 /6 l/ (6 _6 :6 <6 o~ [6 }6 |6 e{ q3                                                                                                                                                                                                          ",
"                                                                                                                                                                                                                        16 k5 26 36 46 56 1! 66 76 86 96 06 a6 x5 b6 w5 c6 d6 e6 f6 g6 h6 i6 j6 j6 k6 l6 Y~ m6 n6 %3 o6 M5 7[ N5 p6 ^5 q6 r6 s6 t6 u6 v6 w6 #< /. x6 1& *} y6 z6 A6 B6 C6 C6 D6 E6 F6 G6 H6 t| J4 I6 J6 >2 K6 L6 &6 b5 b5 i3 i3 h3 =6 ;6 >6 )6 3{ )6 '6 !] !] )6 ,6 3{ 3{ M6 >6 A& ;6 A& >6 N6 ~6 ~6 ~6 W( O4 x_ Q= &< ^( a: U= p[ o3 :( 0# =@ O6 P6 [6 i5 p3 q3 q3                                                                                                                                                                                                       ",
"                                                                                                                                                                                                                        16 b] Q6 R6 g_ S6 T6 U6 V6 W6 X6 Y6 Z6 `6 $5  7 .7 +7 @7 #7 $7 @7 %7 &7 &7 z5 *7 =7 -7 -7 -7 ;7 7[ C< >7 O5 ,7 '7 )7 !7 ~7 {7 ]7 w6 #< X# I< ^7 /7 (7 F6 F6 _7 :7 <7 [7 G6 J; }7 I} |7 17 9< 27 L4 37 L6 L4 a5 L4 *6 L6 *6 a5 47 C; g3 H6 H6 G} &2 &} %6 57 I> 57 %6 %6 67 g3 C; 77 05 }7 }7 21 N6 ,6 P- x_ P- P-  / M2 U= 87 `< 97 *@ =@ 07 a7 [6 K) e{ p3                                                                                                                                                                                                       ",
"                                                                                                                                                                                                                        b7 b] c7 d7 e7 f7 3! g7 h7 i7 j7 k7 ]! l7 &7 &7 m7 n7 o7 p7 .7 q7 r7 s7 @7 t7 u7 v7 w7 w7 w7 B< B< N5 x7 P5 y7 z7 A7 q6 Y3 B7 C7 D7 E7 F7 b[ G7 p$ H7 I7 G6 E' J7 G6 K7 L7 M7 N7 O7 P7 77 Q7 R7 b5 &6 b5 K4 K4 a5 b5 *6 b5 L4 S7 I2 T7 %2 H6 +6 &2 &2 %6 %6 57 %6 U7 U7 {4 67 R7 g3 67 +6 H6 }7 ,6 ,6 M6 x_ x_ v_ V7 U=  / E$ M_ >_ v/ p: ,- 07 W7 K) e{ i5                                                                                                                                                                                                       ",
"                                                                                                                                                                                                                        X7 Y7 Z7 `7  8 .8 9~ +8 @8 #8 $8 %8 &8 *8 =8 -8 ;8 >8 ,8 '8 )8 !8 ~8 {8 p7 ]8 ^8 /8 (8 (8 _8 :8 <8  } x7 y7 [8 }8 ^5 ^5 /5 R5 |8 18 28 38 48 58 68 I7 78 k| 88 98 08 r| a8 J2 )} R= b8 *6 a5 b5 37 37 L6 b5 K4 a5 a5 L4 c8 c8 d8 d8 61 41 e8 k| f8 -2 H2 H2 g8 h8 h8 g8 i8 j8 k8 j8 i8 G} H6 T7 31 l8 N6 ,6 Q= Q= U= U= a:  / z| z| [] (4 p: ^_ a7 c& e{ d& m8                                                                                                                                                                                                    ",
"                                                                                                                                                                                                                     n8 o8 Y7 '. p8 q8 r8 9~ s8 t8 u8 v8 w8 =~ x8 y8 z8 A8 B8 C8 '8 D8 E8 F8 G8 H8 Q1 m4 I8 J8 K8 L8 L8 >7 z} M8 '7 N8 O8 q6 P8 q4 Q8 R8 R8 S8 S8 T8 U8 V8 W8 X8 Y8 Z8 `8  9 .9 |7 a8 +9 +9 &6 37 P7 P7 37 &6 L6 L6 a5 a5 a5 a5 d8 d8 d8 e% $2 41 e8 z> @9 f8 -2 =2 h8 h8 g8 i8 #9 $9 %9 i8 f8 f8 H6 T7 &9 71 L} M} W( y_ D_ /} a: &_ ]< ]< *9 H$ c1 ^_ =9 g# d& i5 m8                                                                                                                                                                                                    ",
"                                                                                                                                                                                                                     -9 b7 b] ;9 >9 ,9 '9 )9 !9 ~9 {9 ~8 n7 y5 =[ ]9 z8 ^9 /9 (9 _9 :9 <9 [9 }9 |9 19 29 I8 39 49 59 59 69 P5 z7 }8 86 79 89 99 s6 99 09 a9 .4 b9 c9 b9 ;4 d9 e9 f9 g9 h9 i9 c8 b5 i3 j9 k9 L4 L6 P7 P7 &6 L6 *6 b5 b5 b5 l9 l9 c8 m9 n9 51 51 e8 k| 98 98 98 =2 o9 o9 o9 p9 h8 i8 j8 i8 g8 =2 q9 =2 -2 %2 31 !6 M} 81 {} 91 /} E$ V7 Q; Q; D| F) )_ v/ r9 z@ w! e{ s9                                                                                                                                                                                                    ",
"                                                                                                                                                                                                                     t9 u9 b] l- v9 w9 x9 y9 z9 A9 w8 B9 C9 r7 D9 E9 F9 G9 H9 I9 J9 K9 J9 L9 M9 N9 O9 P9  } Q9 59 R9 p4 S9 P8 T9 [8 [8 U9 V9 86 W9 )7 X9 ]1 Y9 Z9 `9  0 .0 +0 @0 #0 $0 Z8 %0 &0 *0 =0 *6 +9 L4 L6 P7 b8 P7 37 *6 L4 b5 *6 -0 -0 l9 m9 $9 f8 ;2 k| ;0 ;0 ;0 >0 ,0 '0 )0 )0 !0 G2 o9 ,0 ,0 ,0 I7 ~0 ~0 F} -} +6 %2 ,6 N6 W( P- D$ Q- E$ E$ x  |( p[ O_ c1 @' }* 6  |6 s9                                                                                                                                                                                                    ",
"                                                                                                                                                                                                                     t9 {0 X7 ]0 ^0 /0 6@ (0 _0 y8 :0 <0 [0 }0 ,8 |0 /9 10 20 <9 30 40 50 60 60 70 80 90 00 a0 }3 b0 c0 d0 e0 f0 T9 g0 h0 i0 i0 j0 k0 c0 l0 m0 n0 `9 Z9 o0 03 p0 q0 r0 s0 t0 u0 >0 v0 w0 r| d8 l9 x0 -0 -0 x0 c8 d8 m9 c8 x0 x0 c8 m9 n9 61 e% y0 41 z> 98 >0 q9 .6 z0 u0 A0 B0 B0 B0 A0 C0 E' D0 E0 D0 .6 F' m| T7 T7 N6 L; L; A& M6 ~( x_ 8: ]6 _( q/ f1 ,> F0 S4 q3                                                                                                                                                                                                    ",
"                                                                                                                                                                                                               G0 H0 I0 J0 K0 L0 M0 N0 O0 P0 H! Q0 R0 S0 T0 U0 V0 W0 X0 Y0 K9 Z0 `0  a 50 .a +a @a r2 #a $a $a f0 %a &a *a =a f0 l0 -a ;a g0 >a ,a 'a )a !a ~a {a ]a `9 ^a >4 /a (a d| g| _a :a <a [a }a |a 1a 2a 3a 3a 2a -0 l9 d8 d8 l9 -0 x0 l9 d8 m9 e% e% w> y0 41 z> ;0 4a q9 5a 6a 7a s0 _a :a C0 8a 9a 9a E' <a E' 0a F' l| &2 +6 g3 I> I> I> M6 M6 v_ 2& _( V= ^= p: aa g5 m8 m8                                                                                                                                                                                                 ",
"                                                                                                                                                                                                               ba ca da ea fa ga ha ia *# ja >1 ka la ma na oa pa qa qa K9 ra sa `0 ta ua va wa xa v2 ya za Aa za Ba Ca Da Ca Ea Fa Y1 Ga Z1 Ha Ia Ja 'a Ka La Ma z4 Na *4 Oa Pa Qa Ra Sa 7a C0 E' [a Ta Ua Va Wa Wa Wa 3a ){ -0 x0 x0 -0 -0 x0 l9 c8 l9 Xa e% w> w> y0 Ya Za 78 `a [1 6a Sa d|  b r0 B2 8a .b .b %% <a +b +b ~0 F} *2 -} {4 67 57 57 57 '6 {6 5{ /( @b #b i# $b %b :4 :4                                                                                                                                                                                                 ",
"                                                                                                                                                                                                               ca b] &b *b =b -b o< ;b >b ,b 'b ]9 y5 )b !b ~b {b ]b ^b <9 30 /b ua (b _b :b <b [b }b |b za 1b Ba Da ya |b za za 2b 3b Ha Z1 Ga X1 4b 'a 5b #4 6b 7b Na *4 83 A2 8b d| 9b 6a 8a 0a [a 0b Ua ab 2a 2a 3a 3a 3a 2a 2a ){ ){ -0 x0 l9 x0 x0 bb y0 w> cb w> db Za eb z0 8a 7a r0  b  b d| Sa B2 fb gb 0a D0 hb  6 z6 y> f3 f3 ib J6 U7 U7 U7 J4 3{ jb V( m[ kb lb h  aa mb nb                                                                                                                                                                                                 ",
"                                                                                                                                                                                                               ob pb qb rb u- !3 sb *7 tb ^9 F9 ub $7 %5 vb (9 wb xb yb zb Ab Bb Cb Db Eb Fb Gb Hb Ib Jb Kb Lb Mb Nb Ob Pb Qb Ca za Rb Sb Tb Ha Ub 3b Ka 45 Vb Wb Xb Yb Zb *4 C4 C4 D4 +2 _a :a E0 <a [a e8 `b bb ab  c  c  c 1a 1a ab bb `b Xa Xa `b bb bb db .c #2 #2 +c h9 @c #c B2 9b $c 8b Pa Pa 8b Ra %c &c C0 :a *c =c z6 E} F> y> F2 -c ib J6 J6 ib K; ;c U( n[ >c 97 |* w/ ,c 'c                                                                                                                                                                                                 ",
"                                                                                                                                                                                                            ca )c !c ~c {c ]c ^c e6 /c (c _c :c <c p7 [c }c 20 xb yb |c 1c 2c 3c 4c 5c 6c 7c 8c 9c 0c ac bc cc dc ec ec fc Ob ec Ca gc hc y2 ic y2 jc 5b kc lc lc Ma 6b z4 7b mc 45 55 65 nc =c oc pc <a qc  9 Xa bb 1a 1a ab `b Xa bb Xa  9 e%  9 Xa Xa Xa db db .c .c rc sc @c tc r0 r0 $c $c 8b Pa (a A2 :1 uc :a :a _a g| y> F> z6 C, G> vc F; J4 J4 J6 ib wc xc K- @b yc zc w/ Ac Bc                                                                                                                                                                                                 ",
"                                                                                                                                                                                                            ob ob Cc Dc Ec Fc h6 Gc Hc Ic qa Jc G8 Kc Lc Mc Nc Oc Pc Qc Rc Sc Tc Uc Vc Wc Xc Yc Zc `c  d .d +d @d #d $d %d &d *d =d &d &d -d ;d ;d >d ,d 'd 63 )d !d 63 ~d {d ]d ]d ^d Y5 `5 /d (d oc E0 0a @9 _d $2 Xa `b  9 $2 61  9 e% $2 $2  9  9  9 e% db :d :d +c <d sc [d }d $c $c $c $c |d 1d 2d 3d f| e| g| s0 7a :a t0 C2 x> z6 z6 E} )0 o9 ,0 *2 ~4 4d K; w_ ,* 5d c> 6d 7d 8d                                                                                                                                                                                                 ",
"                                                                                                                                                                                                            -9 9d 0d ad bd cd q7 X0 dd ed fd gd hd G9 id jd kd ld md nd od pd qd rd sd td ud vd wd xd yd zd Ad Bd Cd Dd Ed Fd Gd Hd Id Jd Kd Ld Md !d Nd Od !d Pd Ld ;d Qd ~d {d Rd Sd z, Td Ud `5 Vd pc <a I7 o9 f8 51 $2 $2 51 _d $2 61 51 61 e%  9 $2 Wd :d :d :d +c <d sc g9 $0 Xd Xd $c 8b 1d Yd 2d A2 q0 Zd `d _a 7a 7a t0  e C2 y> E} F> G2 o9 o9 G2 ~4 *2 {4 4{ '( @b kb c> .e Ac                                                                                                                                                                                                 ",
"                                                                                                                                                                                                            +e @e #e $e %e U] &e *e =e =e -e ;e >e ,e 'e )e !e ~e {e ]e ^e /e (e _e :e <e [e }e |e 1e 2e 3e 4e 5e 6e 7e 8e 9e 0e ae be ce de ce ee fe ge he he ce ie je )d ke le me ne (1 65 oe pe qe +b E0 B0 z0 re Ya db `8 re 78 re Za se `8 Ya Ya Ya `8 rc +c :d :d +c te ue g9 Xd 8b (a (a 1d ve we Xd (a e| e| e|  b d| r0 s0 A0 B0 B0 B0 A0 A0 xe xe G2 ye J4 wc ze Ae Be Ce De 6d                                                                                                                                                                                                 ",
"                                                                                                                                                                                                            Ee Fe Ge He Ie Je Ke Le Me Me Ne Oe ^b Pe Qe Re Se Te Ue Ve /e We Xe Ye Ze `e  f  f .f +f @f #f $f %f &f *f 8e =f -f ;f >f ,f 'f )f he !f he ee ce ~f {f ]f ^f /f (f _f :f <f [f Zd g| [1 y) E' C2 A0 78 se `8 `8 re 78 re Za se `8 `8 `8 `8 `8 +c :d }f }f +c <d |f 1f 2f Qa 8b Pa 1d |d |d 8b Pa d| e| e| e| e|  b d| B0 B0 B0 A0 A0 u0 .6 q9 G2 )0 3f J4 4f p% 5f 6f De 6d                                                                                                                                                                                                 ",
"                                                                                                                                                                                                            7f 8f 9f 0f S$ af bf cf df ef ff gf hf if jf kf lf mf nf of [e `e pf qf rf sf tf uf vf wf xf yf zf Af Bf Cf Df Ef Ff Gf Hf If Jf Kf Lf Mf Nf Of Pf Qf Qf Rf Sf Tf _f (f :f Uf  b Sa _a 8a Ya db 8a Vf h| Wf Xf Yf Zf `f  g  g h| h| h| h| h| h| .c .c .c .c +c <d h9 Z8 .g +g Xd 8b 8b 8b Pa (a $c 8b Pa A2 +2 f| f| f| Sa Sa :a 7a C0 6a 5a [1 t0 C2 !0 F; J- @g #g $g r[ r[ %g                                                                                                                                                                                              ",
"                                                                                                                                                                                                            &g *g =g (_ -g ;g >g ,g 'g fd )g !g ~g !e {g ]g ^g /g (g _g :g <g [g }g |g 1g 2g 3g 4g 5g 6g 7g 8g 9g 0g ag bg cg dg eg fg gg fg hg ig jg kg lg !f mg ng !f og pg qg rg sg tg 9b B2 =c ug eb `8 h| `f Yf vg wg vg Xf Yf h| h| h| h| h| h| h|  g Ya Ya Ya Ya te h9 Z8 Z8 .g xg Qa Xd Xd $c $c 8b Qa Xd 8b (a +2 f| Zd Zd  b  b *c _a s0 7a 6a 8a yg W8 zg F2 I4 6: Ag Bg Cg r[ 6d                                                                                                                                                                                              ",
"                                                                                                                                                                                                            Dg Eg Fg Gg Hg Ig Jg Kg Lg Mg Ng Og Pg Qg Rg Sg Tg Ug Vg Wg Xg Yg Zg `g  h .h +h @h #h $h %h &h *h =h -h ;h >h ;h >h ,h 'h )h !h ~h {h ]h ^h /h (h !f _h :h <h [h }h |h Uf 1h 2h f| nc `d C2 3h 4h  g `f Wf Xf Xf Xf Xf Zf `f `f `f h| h| h| h| z> z> k| 98 88 78 78 eb 8a C0 B2 9b B2 B2 B2 9b Qa Xd $c Pa A2 3d /a 5h Zd Zd f| +2  b Ra Sa 9b r0 Ra 3h vc I4 6h 7h 8h Cg Cg #b                                                                                                                                                                                              ",
"                                                                                                                                                                                                         9h 0h ah bh ch dh eh fh gh hh ih jh kh lh mh nh Ye Ug oh ph Xg sf }g qh rh .h +h sh th uh vh wh xh yh zh Ah Bh Ch Dh Ch Eh Fh Gh Hh Ih Ih Jh Kh Jh Lh mg :h Mh Nh Oh Ph Qh Rh <f 2h f| D' /d C} Sh [1 Vf  g `f Yf wg Th Uh Yf Yf Wf Zf `f `f `f `f k| k| 98 ;0 78 eb eb eb 8a 6a +g +g xg xg xg +g Vh Qa Xd 8b (a 3d 5h 5h Wh Wh 2h Zd f| e|  b d| Ra Ra Xh 3h Yh .] Zh #g Cg Be #b #b                                                                                                                                                                                           ",
"                                                                                                                                                                                                         `h 0h  i .i +i @i #i $i %i &i X6 *i =i -i ;i >i pf ,i 'i )i !i |g ~i {i ]i ^i /i (i _i :i <i [i }i |i 1i 2i 3i 4i 5i 5i 6i 7i 8i 9i 0i ai ai 0i bi lg ci di mg ei fi gi hi me ii Sa Sa ji Y5 ki A0 li  g `f Wf Xf Th mi ni wg vg Xf Wf Wf Zf Zf Zf e8 z> 98 ;0 >0 >0 ;0 ;0 Vf [1 8a 6a 6a 6a C0 B2 Vh oi Xd 8b A2 /a 93 q0 93 93 pi pi qi ri si ti Pa Ra W8  e ui I6 vi wi Cg Be #b #b                                                                                                                                                                                           ",
"                                                                                                                                                                                                         xi yi zi Ai Bi Ci Di Ei Fi Gi Ke Hi hf Ii Ji Ki Li Mi Ni Zg Oi Pi Pi Qi Ri Si Ti (i Ui Vi Wi Xi Yi Zi `i 3i  j .j 5i 5i +j @j #j $j @j %j &j *j =j -j ;j >j [h ,j 'j )j !j ~j {j r0 9b f| c| Sh 3h Zf Zf Zf Wf .c cb ]j Ua ^j wg vg Yf Wf Wf Wf Wf Ya e8 se 98 re 98 Za Za  g 4h [1 5a 6a C0 :a r0 2f /j Xd Pa 3d (j Uf 1h _j tg qi qi qi ri si si (a $c yg C2 :j $6 C$ Ag Bg Be kb #b                                                                                                                                                                                           ",
"                                                                                                                                                                                                         <j [j }j t; _| |j 1j ^9 2j 3j 4j 5j 6j 7j 8j 9j 0j aj bj cj cj /i dj ej Ti fj gj hj ij jj kj lj lj mj nj oj pj qj rj sj $j tj uj =j ~h vj wj xj yj zj Nh Aj Bj Cj Ph )j Dj Uf pi  b C0 li Ta Ej Ej db .c cb cb e% 71 Xa q| bb Fj y0 `8  g Gj Hj Hj Gj `f Ij h| Gj li Jj Kj B2 B2 B2 B2 9b Sa r0 Ra Qa $c Lj tg :f Dj Mj Nj Oj Pj Qj Nj (j (j 3d Pa ti :1 d| 3h B0 G2 .] Rj Sj $g 6f lb                                                                                                                                                                                           ",
"                                                                                                                                                                                                         Tj Uj Vj H1 Wj Xj Yj Zj `j hf  k .k +k @k #k $k %k &k *k =k -k ;k >k ,k 'k )k !k ~k {k ]k ^k /k (k _k :k <k [k }k |k &j 0i 1k 1k vj 2k vj 3k 4k 5k 6k 7k 8k 9k 0k ak bk Dj si ck 7a Vf j| dk ek ek fk ]j Xa Xa 71 71 K6 gk hk r| y0 41 Gj Gj ik Hj Gj Gj jk jk Jj kk lk xg +g +g +g B2 B2 9b Sa Sa Xd 8b mk tg nk Dj ok pk pk qk Pj Oj tg (j /a A2 ri si e| d| t0 F} H7 rk sk tk 6f uk                                                                                                                                                                                           ",
"                                                                                                                                                                                                         vk wk xk yk 2| zk +7 Ak *e Bk Qg Ck Dk Ek Fk Gk Hk Ik Jk Kk Kk Lk Mk Nk 'k Ok Pk {k Qk Rk Sk Tk /k Uk Vk Wk Xk Yk |k Zk `k %j %j 2k )h  l .l 4k +l @l #l $l %l &l *l Mj Qj ck =l 8a li Zf vg -l ;l ]j ^j Xa  9 s| s| >l t| hk r| w> ,l 'l Gj ik )l jk jk @2 Kj .g +g 9b Sa +g +g +g B2 B2 9b 9b 9b !l ~l mk (j nk Dj {l ok {l pk Pj Oj _j tg tg _j :f (j Zd e| t0 xe *} ]l ^l Sj yc uk 6d                                                                                                                                                                                        ",
"                                                                                                                                                                                                         /l (l _l :l K3 <l [l }l *e |l .k Dk 1l 2l 3l 4l 5l 6l 7l 8l 9l 0l al bl ,k cl dl el fl gl hl il /k jl kl :k ll ml nl ai 0i ol 7i pl 2k ql rl sl tl !f ul vl #l wl xl yl zl ti Al C0 Vf  g Zf Bl -l fk ]j  9 e% 31 31 ,2 >l r| r| cb w> Cl Ij )l Dl jk @2 @2 Kj .g +g 9b r0 9b 9b Sa Sa r0 r0 r0 r0 El ~l mk tg nk nk Fl Gl Fl {l Oj Pj mk tg (j (j sg sg D4 f|  e A0 )0 y6 $< L> Hl Cg 6d                                                                                                                                                                                        ",
"                                                                                                                                                                                                      Il Jl Kl Ll >3 K3 Ml Nl Ol Pl Ql Rl Sl Gk Tl Ul Vl Wl Jk Xl Yl 9l Zl `l  m .m +m @m #m {k $m %m &m *m =m =m jl -m ;m rj ai 9i Gh >m ,m  l 'm )m !m ~m {m ]m ^m /m (m (m xl Pj ri ti r0 +g [1  g 0b Ej #2 fk  9  9 s| &9 =0 >l hk r| Fj w> Cl Ij )l Dl jk jk @2 Jj kk lk +g B2 r0 Ra Ra d|  b  b  b  b El ~l Nj yl nk _m :m :m :m Gl Nj Oj Nj Mj (j :f sg <m [m pi *c t0 )0 ye p% U# Y# uk 6d                                                                                                                                                                                        ",
"                                                                                                                                                                                                      }m |m 1m 2m -5 3m 4m 5m Hi Oc 6m 7m 8m Mi Ul 9m 0m *k am 8l bm cm dm em fm .m gm hm {k im jm km lm mm ^k jl nm ^k om pm #j 8i qm qm rm pl {h vj jg ~m sm Rf tm um vm &l wm xm mk si  b Sa 8a 4h }1 }1 db #2 Xa `b hk hk gk gk q| hk Fj w> Cl Ij )l Dl jk jk jk @2 Jj kk lk xg Ra d|  b e| +2 f| +2 +2 ~l ym Nj yl nk _m zm Am :m Bm yl Nj Nj Mj :f Uf (j 1h <m Cm e| _a ~0 G2 Dm W# 8h Hl Be 6d                                                                                                                                                                                     ",
"                                                                                                                                                                                                      Em Fm Gm Hm Im 3m Jm Km Lm Mm Nm Om ph Pm bj Qm Rm Sm Tm Um Vm Wm Xm Ym Zm cm 9l `m  n .n +n @n #n $n %n lj _k _k `i ;m &n *n ol qm =n ,m 2k vj -n tl ;n Qf {m ei >n ,n 'n 0k El ym e| Ra 6a Vf 4h Vf Za Ya Xa ab )n )n !n !n .9 q| Fj w> Cl Ij )l )l jk jk jk @2 Kj kk lk xg Sa r0 d| e| f| f| f| f| mk _j yl Dj Fl Bm zm zm zm Bm Gl ok Mj yl :f sg 0k ~n <m {j f| ug F> G2 {n Rj 8h Hl Be #b                                                                                                                                                                                     ",
"                                                                                                                                                                                                      ]n ^n /n (n =5 _n :n <n Bk [n @k }n |n 1n Qm 2n 3n 4n 5n 6n 7n 8n 9n 0n cm Xl an bn cn dn en en fn jm %n %n gn -m hn in &n jn 7i ol ,m  l kn ^h sl ln Pf mn di di nn >n (m 0k on ~l +2 d| C0 [1 5a 6a eb Za e% ab pn pn !n !n .9 q| Fj w> 'l Ij ik )l jk jk @2 Jj kk lk +g B2 B2 Sa Ra  b +2 f| f| +2 tg (j Dj Dj Fl Bm Bm :m zm :m Fl {l Mj yl :f _m *l xl 1h Uf 5h +2 Sh I7 qn 95 K> Bg Be Be                                                                                                                                                                                     ",
"                                                                                                                                                                                                      Jl rn sn b4 tn un vn qa wn xn yn zn An Bn Tm Cn Dn En Fn Gn Hn In Um Jn Kn Ln Mn Nn On Pn Qn cj Rn Sn Tn gn gn lj Un pm &j &j Vn tj kn 3k Wn Xn ln 4k Pf di _h _h Yn Zn wl *l ~l `n +g xg 7a s0 s0 :a re `8 e% `b q| .9  o |7 .9 q| Ua cb .o 'l ik )l jk jk jk Jj kk xg B2 Sa Ra d|  b  b e| f| Wh 65 _j xm xl +o @o #o $o %o &o *o @o =o ak (m wl (m 0k -o xm Mj _j e| 3h ~0 y6 H4 sk +^ $g ;o                                                                                                                                                                                     ",
"                                                                                                                                                                                                      >o ,o ,3 'o )o 5m W0 !o ~o {o ]o Tl ^o /o (o _o :o <o [o }o |o Hn 6n 1o Xl 2o 3o 3o 4o 5o 6o Bn 7o Qn Uk lj 8o ^k 9o 0o 9i Zk ao ol !h 'm .l bo co do :h di Mh ]m Zn eo wl fo sg tg Ra 9b B2 7a 7a 7a 88 `8 e% bb )n )n |7 |7 q| q| Fj cb Cl Ij )l Dl Jj Jj Jj Kj .g +g 9b r0 Ra d| d|  b  b +2 2h {j go (m xl ho io #o jo *o ko lo mo no +o fo ak ak oo oo (m xl :f tg e| 3h -c f% B$ V# Bg ;o                                                                                                                                                                                     ",
"                                                                                                                                                                                                   po qo ro D1 so Y6 to Pl uo vo wo xo yo zo  m Ao Bo Co Do Eo Fo Go Ho Io Jo Ko Lo Mo No Oo Po Qo Ro /o 7o lj So To To om Un Uo Vo Wo Xo ql ^h xj Yo do Zo `o  p .p .p Yn Cj +p +o mk _j 5h 2h f| d| :a 6a 78 se  9 ab pn pn |7 |7 q| hk Fj y0 'l jk @p #p lk lk .g .g xg B2 r0 d| d| d|  b  b  b +2 Zd {j $p ak %p %p %p #o %o ko &p *p =p -p ;p =o fo ho 8k 8k io io >p Uf 2h ki -c /7 ,p #< 5f 5f                                                                                                                                                                                     ",
"                                                                                                                                                                                                   'p )p !p ~p {p to ]p ^p /p (p _p :p <p [p Fn }p |p 1p 2p 3p 4p 5p 6p 7p 8p 9p Lo Qm 0p ap bp cp dp ep fp gp 8o ^k ^k hp ip &n jp Wo kp {h vj kn .l lp mp np op pp _h qp rp Sf Cj sp (j p0 tp Wh f| *c s0 78 se Xa 1a up up !n |7 hk r| cb ,l Ij @2 #p vp B2 +g +g +g B2 Sa Ra  b  b  b  b  b  b e| Zd Cm $p fo io %p %p %p &o wp lo lo mo no @o io ak ak vl vl vl =o +o _m Wh c| C2 e3 Dm K< #< 5f 8h                                                                                                                                                                                  ",
"                                                                                                                                                                                                   qo xp yp zp Ap Bp Cp Dp Ep Fp Gp Hp Ip hm Jp Kp Lp Mp Np Op Pp Qp Rp Sp 7p Tp Up Vp Wp Pn 7l Kk -k Mk Xp Yp 8o 8o So Zp 9o &n `p ol 7i )h {h kn xj 4k do  q op mn mg ee .q +q @q #q qg $q 93 +2 e|  b  b 78 `8 Xa 1a up pn |7  o hk r| cb ,l Gj Jj #p vp 9b 9b B2 9b Sa r0 d|  b  b  b  b d| Ra d| e| ri %q fo =o io &q %o &o *o wp ko ko wp =o %p ak ak 7k *q vl io ho _m 2h qe 3h vc .] ^7 ^l =q Bg                                                                                                                                                                                  ",
"                                                                                                                                                                                                   -q ;q >q ,q 'q )q if !q ~q {q Ni ]q ^q /q Jp (q _q Np :q <q [q }q Gn (o |q 1q 2n 2q 3q Qm Jk 4q 5q Zl Kk 6q ^k So ^k ip `i `p Uo Vn Xo vj )m 3k bo co 7q 8q  q .p mn fe 9q Sf 0q aq $p tp tp bq 2h d| B2 88 `8 Xa 1a pn )n  o  o hk r| cb y0 Ij @2 cq #p +g B2 9b Sa r0 Ra Ra d| Ra Ra Ra r0 Sa Sa Ra :1 dq ak io #o jo %o &o &o wp ko ko ko @o =o ho @o @l eq vl vl fo ~n tg f| fq y> I6 #6 Rj K> gq                                                                                                                                                                                  ",
"                                                                                                                                                                                                   hq iq jq kq lq mq nq oq pq Tg qq rq sq tq Jp uq vq wq xq yq [q zq Aq Bq Cq Dq Eq Fq Gq Oo Hq cm Kk 0l Iq 6q _k -m _k om 9o Jq jp Xo %j 'm )m ^h ^h /h yj Kq Lq Mq Lq .q .q Cj >n Nq Oq A2 5h Wh f| +g jk Za Ya  9 bb .9 .9 gk gk hk r| cb y0 'l Gj Dl cq lk xg B2 Sa r0 Ra r0 r0 d| d| Ra r0 9b 9b r0 ck sp xl Pq -o Qq &q Rq Rq Sq Tq lo lo no ;p Uq no >j Vq Wq 7k fo ~n tg f| ki y> $6 .] $< K> +^ Bg                                                                                                                                                                               ",
"                                                                                                                                                                                                Xq n- Yq Zq `q  r .r +r @r #r $r %r &r *r =r -r uq vq vq xq ;r >r |p ,r 'r )r !r ~r {r ~r 4o ]r ^r Kn 2o /r (r -m _r -m hp hp :r jp <r Jh 3k [r [r tl tl }r  p |r 1r 2r 3r Tf pg +o qg tg 2f Kj kk .g Jj Ij se Ya  9 bb bb q| bb q| `b Ua Fj #2 Wf Ij )l Dl kk lk B2 Sa Ra Ra r0 Sa e| e|  b Ra r0 r0 Ra :1 Mj (m 4r 5r 6r jo wp ko wp ko lo mo mo no 7r 8r ^m 9r 0r /m ho ak (j ri f| 3h !0 ar br V# +^ Bg                                                                                                                                                                               ",
"                                                                                                                                                                                             cr dr er fr gr hr ir jr kr lr ,i mr nr or pr qr rr sr tr ur vr wr xr yr zr Ar Br Cr Dr 2n Er Fr Gr Hr Ir Jr Hr Kr Lr /k Mr Nr Or Pr Qr 'm Xn Rr Sr Sr Tr Ur Vr Wr Xr Yr Zr %q :f tg ri :1 ti ti `r [1 h| Ij Gj #2 fk ]j fk #2 y0 .c w> #2 Xf Xf Yf Wf Zf h| h| 8a 8a 6a 7a 9b r0 8b 8b Lj _j (j tg ti  s Al Al Mj yl yl Mj Nj pk Gl Bm io @o no 8r 8r 8r .s +s 7r =p .s @s fo fo %q :f +2 3h !0 $6 #s ^l Bg $s                                                                                                                                                                               ",
"                                                                                                                                                                                             %s &s *s =s 'o t8 -s ;s >s ,s tf 's )s !s ~s {s ]s ^s /s Ao (s _s xr :s <s [s }s |s 1s 9p Lo 2s 3s 4s Kr 5s 6s 7s 8s 9s (k nl 0s as bs cs 7q ds Tr es fs gs hs is js ks ls (j qi ri ti uc `r <1 ms  g `f Cl .o #2 fk ]j fk #2 .c .c #2 Yf Yf Yf Wf `f h|  g li %% %% 6a C0 9b Sa 8b 8b Lj _j (j tg si :1 ck ck Mj Mj Mj Nj Oj Nj yl nk fo +o Uq 7r 7r 7r 8r .s 8r +s +s Uq +o ho $p %q /a d| ns !0 D; br os $s                                                                                                                                                                               ",
"                                                                                                                                                                                             ps qs rs ss ts us Re vs #r Tg ws xs ys zs As Bs Cs -r ur }q Ds Es Fs Gs Hs Is Js Ks Ls Ms 9p Gr Ns Os Ps 5s Qs Rs Ss Ts Us &j @j Vs Ws Xs Ys Zs Tr .p fi `s Tf  t .t +t |d (a e| d| s0 _a C0 [1 4h Z8 sc <d :d #2 fk ]j ]j #2 .c .c .c Wf Wf Zf `f h| li Vf [1 [a qc 8a 6a B2 Sa 8b Pa mk _j tg tg ri si ti si Nj Nj Nj Oj Pj Oj Mj Dj ak ho @s Uq Uq Uq 7r 8r +s gi @t -p @s @s @s _f 93 e| #t -c $t %t &t *t                                                                                                                                                                               ",
"                                                                                                                                                                                             =t bh -t ;t >t ,t 't )t lr Ki !t ~t )s {t ]t Bs ^t }p /t (t zq Es _t :t <t [t }t |t 1t 2t Lo 3t Fr Sk Lr 4t 6s Us Ss 5t 6t 7t 8t ~h 9t 0t at bt ;j ct ^m ^m dt Nq |d oi Vh Sa _a :a 6a 7a 6a [1 eb et et sc <d fk ]j ]j ]j #2 .c .c .c Zf Zf `f h| li Vf 5a 8a [a [a 5a 6a B2 Sa 8b Pa Lj mk mk _j ri ri ri ri Nj Nj Oj Pj Pj Pj Nj Mj ak fo +o +o +o @s Uq 7r +s )j ft =p 7r 7r 7r Uq sg /a gt zg Yh #s ht it                                                                                                                                                                               ",
"                                                                                                                                                                                             jt kt lt D5 mt nt ot pt qt 3l rt st cl tt {s rr ut Eo vt wt xt 2p yt zt At Bt Ct Dt Et Ft Tp 3t Fr Gt Ht 6s 6s It Jt Kt sj tj Lt rl Mt Nt Ot !f Pt Cj Cj @s wm tg (a Xd 9b Qt t0 A0 .6 98 ;0 78 Rt Rt St Tt Ut #2 fk ]j fk #2 .c .c .c Zf Zf `f h| li Vf 5a 8a [a [a 5a 6a B2 Sa 8b Pa Vt Vt ym ym mk _j ri ri Mj Nj Pj Pj Pj Oj Nj Nj xl ak fo ho fo ho +o @s Wt ft ft =p mo -p 8r 7r <m q0 Xt D2 Yt I4 %t os $s                                                                                                                                                                            ",
"                                                                                                                                                                                             Zt `t  u .u +u @u #u $u %u &u *u =u ;k -u ^t ;u >u ,u vt 'u )u !u :s ~u ~u {u ]u ^u /u (u Up 3t _u :u Ps <u 5t Or Jt [u sj wj Kh 0t Mt (h }u |u [h Yn 0q +o 1u 2h f| d| _a t0 ~0 I7 F} 41 ;2 St 2u St 3u Tt Ut .c fk ]j fk #2 .c #2 #2 Wf Zf Zf h|  g 4h [1 [1 [a qc 8a 6a B2 Sa 8b Pa Vt 4u El El ym mk ri ri Dj Mj Oj Pj Oj Nj Nj Nj xl xl ak ak ak ak ho +o -p @t @t -p mo mo 8r 7r qg 1h 2h Xt zg ui 5u sk 6u                                                                                                                                                                            ",
"                                                                                                                                                                                          7u 8u 9u q} 0u ,t au bu cu zn du  h ^i 9n ^t Kp eu fu gu hu iu ju ku lu ~u lu mu nu Um 1o No Mo Os ou ou pu qu ru 9i Vo &j Zk su Ih ~m /h tu es um fi +s +s @s Qj e| `d *c s0 A0 xe '0 ye H6 I> *0 uu vu wu xu Tt db #2 fk fk #2 #2 #2 fk Wf Wf Wf Zf h|  g li 4h 5a 5a 6a C0 9b Xd |d |d Vt yu zu yu ym mk ri ri nk yl Nj Oj Nj Mj Mj Mj (m xl xl xl (m xl fo ho no =p =p mo 0r Bj ct Uq (f ii bq V8 zg G2 Au Bu Cu                                                                                                                                                                            ",
"                                                                                                                                                                                          Du Eu Fu Gu Hu if $u Iu Ju Ul Ku Lu Mu }p Nu Ou Pu eu Lp Qu Ru Su yr Tu Tu Tu Uu Vu Wu 7n Xu ]r 8s Yu 4s Ir 5t ru 9i sj Zu 0i ]h ~h jg sl bt Ur ul Bj ho Uq Uq Mj =l _a s0 C0 4a >0 -} f3 67 I2 l9 c8 `u wu xu Ut db .c fk fk fk #2 fk ]j Yf Yf Wf Wf `f h|  g li 8a 8a 6a B2 Qa $c |d |d Oq 4u zu zu ym _j qi qi ~n Dj Nj Nj Mj yl yl Mj (m xl xl (m (m (m ak ho ;p mo -p no /m 0r Bj 0r .s  v C4 D4 Xh .v +v @v Cu #v                                                                                                                                                                         ",
"                                                                                                                                                                                          $v %v &v *v 'q !q Gp Ju =v -v ;v @m fm /t >v ,v 'v )v !v ~v {v ]v ^v ku ~u lu /v (v _v 7p :v <v *m Yu [v }v |v 1v }k qj &j ai Ws Kh Mt 7q ci 2v Aj /m 3v Yn 7r yl 4v 5v &c 6a 98 41 08 05 K4 K4 6v 7v 8v 8v 9v 9v ]j ]j fk fk #2 #2 .c .c Xf Xf Xf Yf Zf h|  g li Vf [1 lk +g Qa $c |d |d yu zu zu 0v El ym _j (j Pj Oj Nj Mj Mj Mj Nj Nj wl xm 0k wm 0k xm (m ak @o ;p 0r Bj 0r 0r /m 7k pg +o ~j 75 Xt C2 av @] Ag bv                                                                                                                                                                         ",
"                                                                                                                                                                                          cv dv W[ F9 ev #u fv gv hv iv jv kv /t lv mv gu nv ov xq pv qv rv ^v lu sv sv tv uv _v _v :v vv *m 4s Vk wv xv ru yv Jt [u 0i zv Av Xn do Sr ;j 6k vl pg Zn pg wm Bv Cv Dv Ev `f 41 n9 ,2 L4 L4 7v c8 8v 9v Fv Fv fk fk fk #2 #2 .c .c .c Xf Xf Yf Wf Zf h|  g li [1 5a xg B2 Xd $c |d 1d yu zu zu zu El ym _j (j Oj Oj Nj Nj Nj Nj Nj Nj wl wl 0k 0k xm wl xl fo =o =o /m 0r 0r 0r 0r /m pg Tf  v ii 5h Xh Gv Hv wi bv                                                                                                                                                                         ",
"                                                                                                                                                                                          Iv rs Jv Kv Lv qt Mv Nv Ov or Pv Qv >v Rv 'v nv Sv Tv :q Uv Vv Wv Xv Yv Zv Zv `v  w 7p _v Nn :v 7s .w kl Vk Ss (k +w +w |v @w #w $w %w &w *w =w Ur -w @l 0r 7k oo ;w >w ,w 'w Cl db d8 x0 )w )w x0 l9 c8 e% $2 y0 #2 #2 #2 #2 .c .c db db Xf Yf Yf Wf `f h| li 4h 8a 6a B2 Sa $c 8b 1d 1d !w !w zu zu yu Vt mk _j Nj Nj Nj Oj Oj Nj Nj Nj (m wl xm xm wl xl fo +o %p io 7k /m ~w ~w Vq Vq /m Bj 8r <f p0 e| {w H> L> 3*                                                                                                                                                                         ",
"                                                                                                                                                                                          ]w lt ^w /w (w _w :w <w [w Qv Qv }w 'v |w 1w 1w 1w Tv :q pv Vv 2w lu zt 3w 4w  w 5w 6w 7p Mn 7w 8w 8w 9w =m qu 5t 0w aw bw cw dw @j Vs ew fw gw hw es iw pp jw 9r kw lw mw nw ow <d i9 x0 )w )w x0 l9  9  9 w> y0 .c .c .c db db db db db Yf Yf Wf Zf h|  g 4h 4h C0 7a 9b r0 8b Pa 1d Yd !w !w zu yu yu Vt Lj mk Mj Nj Oj Oj Oj Oj Nj Mj (m wl xm xm (m ak ho @s io io 7k 7k pw pw qw qw Bj ^m nn 8r _f 5h rw av 8' 3*                                                                                                                                                                         ",
"                                                                                                                                                                                          sw tw uw vw ww xw yw zw Aw Bw Cw Nu Ou 1w :q Dw Ew Fw Gw Hw Iw Jw Kw 4w 3w Zv Lw Mw Nw Nw #n Ow :k 9w :k Pw in 0w 9w 7s Qw Rw Sw aw rj 0i as ew Xn co Tw es ;j Uw Vq Vw Ww ,n Xw 1f Ut Fv d8 d8 c8 c8 71 71 w> dk db Ya Ya Ya Ya Ya Ya Ya Wf Wf Zf `f h| li 4h Vf +g B2 9b r0 8b 1d Yw Yw !w !w !w !w 4u 4u ym ym Mj Nj Oj Oj Oj Nj Mj Mj xl (m wl wl (m ak +o Uq @o @o 7k 7k eq eq eq eq Zw ul og .s  v sg 3d 3h Rj $g                                                                                                                                                                         ",
"                                                                                                                                                                                          `w  x .x +x @x #x $x %x &x *x =x yq Np -x ;x >x ,x 'x )x !x ~x rv {x 4w 4w ]x ^x Lw Yl /x (x #n Vk kl wv =m Or 1v _x jm &m *m [v =m |k Or :x zv bo Yo mp gw Zs Tw <x [x }x @l |x /j 1f 1x 2x n9 n9 m9 s| w0 dk dk `8 `8 `8 `8 `8 `8 `8 `8 Zf Zf `f h|  g 4h Vf [1 xg +g 9b Xd |d 1d Yw Yw 3x !w !w 4x 4u 4u ~l El Oj Oj Oj Oj Nj Nj Mj yl xl (m wl wl (m ak +o @s ;p ;p /m 7k eq eq eq qw Zw 5x Aj nn &4  v 83 Sh p% 5& 3*                                                                                                                                                                      ",
"                                                                                                                                                                                          6x !3 7x 8x 9x 0x Aw ax bx cx dx ex fx ~v gx hx gx ix jx kx ~x rv lx Zv 4w ]x ^x ^x Xl Xl jm Ow wv :k 9w Pw pm It $m mx mx Mn 4s 4s 5t Ss Vo sj Kh Av 3k yj 0t ln nx ox ds px qx 2d rx sx tx uu *0 >2 31 ux vx Ta se se se se se `8 `8 `8 Zf `f `f h| li 4h [1 5a lk xg 2f Qa ve |d wx Yw 3x !w 4x 4x 4u 4u El !l Qj Pj Oj Nj Mj Mj yl yl ak xl (m wl (m ak ho +o ;p @o /m 7k qw qw Vq Vq Vq Zw 6k ^m 0q xx _f Xt 6h V= $g                                                                                                                                                                      ",
"                                                                                                                                                                                          yx zx Ax Bx Cx Dx Ex %x &x Nu Fx Pu Np Gx gx Hx Ix Jx Kx {v Lx Mx Nx Lw Ox Px ^x 8l Qx Rx +n jm Sw Sx Wk mj 0o 9s Jr Tx Ux Vx 8s 8s Wx Ts 8i #j <r su  l  l kn .l %w Xx Zs .p Yx Zx `x  y .y tx uu 51 41 0b 0b 0b se se se se se se se se `f `f h|  g li Vf [1 5a kk lk +y Vh ve |d 1d Yd 3x yu 4x 4u 4u yu !l `n @y Qj Oj Nj yl yl yl yl ak xl (m wl (m xl fo ho @o @o 7k 7k /m ~w >j #y $y 0r >j ct Yn %y (f 2h U5 7h Y#                                                                                                                                                                      ",
"                                                                                                                                                                                       &y *y =y -y ;y >y ,y [w 'y )y !y ~y vr 1p >r 1p {y ]y iu ju ^y /y sr (y Xp _y Xl Xp gl Ow :y <y Sx [y pj }y Zi hp |y Yu 2s Ns 1y Ps 2y 3y 4y `i &n 5y Xo 6y 7y 8y vj 9y 0y ay _h by Zx cy dy ey fy gy 2u Za h| `f Zf Ya `8 `8 `8 Ya `8 se re Gj Gj Gj jk jk jk jk jk hy +y Vh Xd $c $c $c Xd 0v !l zu !l El El ~l ~l Qj Qj Qj Pj Oj Nj Mj yl Dj yl yl yl Dj ~n >p iy @s @s @s @s +o @o Tf @o Tf ho pg Uq +s +s 7r C4 jy ky Bg                                                                                                                                                                      ",
"                                                                                                                                                                                       ly my ny oy py qy ry sy ty uy vy !y wy xt xy xy !u iu yy zy ^s Ay Mu ^i By ~k Cy Ow Dy Ey Fy <k [k Gy pj Hy Iy om Ts Kr Jy Ky Ly My 4t Us qu |k Vo %j <r Ny Oy Py Wn Qy Ry bt 0q Zr Yd Sy Ty ey Uy Vy xu h9 Gj Wy Xy Ya Ya `8 `8 Ya `8 se re jk jk jk jk jk jk @2 @2 Yy Zy +y Vh Qa Qa Qa Qa El El !l !l `n `n `n `n @y @y @y Qj Oj Nj Mj yl yl yl yl yl Dj nk _m iy +o +o +o +o +o +o ho ho +o ho +o Uq .s .s Uq $q Au `y H-                                                                                                                                                                      ",
"                                                                                                                                                                                        z .z +z @z #z iv ty $z %z &z *z =z -z ;z >z En Vu nu Uu Go Ho al 0n =k Kk Xl ,z 'z @n )z !z [k ~z <k {z Jt ]z ^z Mr /z /z Qs (z aw _z Vo Zk Pr Ih )m rl :z <z [z Ys }z |z 1z pg |x /j 2z 3z 4z 5z xu 1x se `f Xy Xy db Ya `8 `8 Ya `8 se re jk jk jk @2 @2 @2 @2 @2 6z 7z Zy +y 2f Vh Vh Vh `n `n `n on on on 8z 8z zl zl 1u @y Pj Nj Mj yl yl yl Mj Mj yl nk _m >p +o +o +o ho ho ho ho ho +o ho +o Uq 8r 7r +o tp 9z 0z az                                                                                                                                                                      ",
"                                                                                                                                                                                    bz cz dz ny ez uf iv [w ry %z fz gz hz iz zq jz kz Vu Uu lz mz nz 0l Mk bm /x bn oz Dy Dy +n jm Sx <k pz qz nl ;m hp ^z rz sz 5t tz @w uz sj ]h Ws rl .l vz wz hw xz Ur Wq &q 9k 'n yz 6z zz Az Bz Bz Tt %0 `8 Ya Zf Wf db db Ya Ya Ya `8 se re @2 @2 @2 @2 Jj Jj Jj Jj 6z 7z Zy hy 2f Vh Vh Vh Cz Cz Cz 8z 8z on on on Dz Bv Bv 1u Qj Oj Nj Mj yl yl Mj Mj yl nk _m >p +o +o +o +o +o ho ho ho +o +o +o Uq 7r Uq ho q0 Ez 0z &t                                                                                                                                                                      ",
"                                                                                                                                                                                    Fz Gz %8 Hz Iz Jz Kz Lz Mz Nz Oz Oz Fn 5p Pz Pz |o 6p Qz Rz Sz (y Tz Uz /x Vz Wz 8p Xz Yz Dy Dy 7s Zz qz `z  A 0w 0o ;m Vo _z Kt .A +A bs wj @A ~m Lh }r Qf mg mn _h `s $o #A $A %A &A *A =A -A ;A `u >A >A Ya ,l Ta Ta .c db Ya Ya Ya `8 se re Jj Jj Jj Jj Jj Kj Kj Kj 6z 7z Yy hy +y 2f Vh Vh ,A ,A Cz Cz 8z 8z 8z on 'A 'A Dz Bv 1u Qj Oj Nj yl Mj Mj Mj yl nk _m >p @s @s @s +o +o +o +o +o ho +o @s Uq Uq @s fo :f )A !A 8'                                                                                                                                                                      ",
"                                                                                                                                                                                    Fz ~A %8 {A ]A Ku ^A ~y *z Ym 0n 0n Go 6p nz Rz /A (A /A _A :A <A [A }A _v 7p Vz |A Ln oz +n Dy Yu *m :k Pw 1A 1v Jt Kt Zu `k 2A nx nx 3A sl ~m Lh 4A ng ei [h xx Cj @s Gl qk Dz 5A *A 6A 7A 8A 9A 9A Wd Wd y0 y0 Ej Ej #2 .c db Ya Ya `8 se re Kj Kj Kj Kj Kj Kj Kj kk 7z 7z Yy Yy Zy hy +y +y on on 8z 8z Cz Cz Cz ,A 0A 0A 'A Dz zl @y Qj Pj Mj Mj Mj Mj yl Dj ~n >p @s @s @s @s @s +o +o +o ho +o @s Uq Uq +o fo Uf d3 aA @v                                                                                                                                                                      ",
"                                                                                                                                                                                    bA cA dA eA fA gA Nu hA }q iA jA Sp 7p kA kA Jn lA mA Ln nA nA bn  n oA _A pA /A (A 6w 6w Tx Tx Ir Yu It xv yv ml Kt Zu zv bs ew lp lp lp Mf qA sm ,j rA )j 8r 1h dq Oj Pj sA tA uA vA Uh wA wA Fv $2 $2 $2 y0 y0 Ej Ej #2 .c db db Ya Ya se re Kj Kj Kj kk kk kk kk kk Yy Zy Zy Zy hy hy +y +y `n on on on 8z 8z Cz Cz ,A ,A Cz Cz on `n El El _j _j mk mk _j (j Uf sg @s @s +o +o +o +o +o +o fo +o Uq 7r Uq @s ho sg c3 xA yA                                                                                                                                                                      ",
"                                                                                                                                                                                    P* zA AA BA CA ^q ;u _q Vu jA 1o 7p DA EA DA Jn FA 8p Ln nA Ln 2o GA bn HA IA /A JA 1o Sp KA Mo Jr Hr 0w 1A LA LA uz `k wj Kh sl /h ~m MA NA OA PA 'j Ph QA <m tg !l RA SA Dv Hj TA Th UA UA 8A e% e% e% e% w> w> dk dk #2 .c db db db Ya se re Kj kk kk kk kk kk kk kk +y +y +y +y +y 2f 2f Vh 8z 8z 8z on on `n `n `n ,A ,A ,A Cz 8z on !l !l _j _j mk mk _j (j Uf sg +o +o +o +o ho ho ho ho fo +o Uq 7r Uq @s +o 1h c3 VA WA                                                                                                                                                                      ",
"                                                                                                                                                                                    XA L5 wa YA Zg ZA `A  B ^v IA .B +B @B #B $B $B :A %B Uz (y &B Uz *B =B ^s Ru nu nu -B ;B >B ^r Hr 7s |v nl ai uz :x Vs .l tl }r Lh ,B qA Rf tm rA gi  v 1h 93 Ra xg 5a Ev Wy Wf Yf .c .c w> cb  9  9 Fj Fj Fj Fj cb cb ^j ^j fk #2 db `8 se Za Jj Jj Kj Kj Kj Kj Kj Kj hy +y +y +y 2f +y +y +y Cz Cz Cz 8z 8z 8z on on Cz ,A 'B )B 'B Cz 8z `n El El ym Lj _j (j :f Uf fo ho +o @s @s +o ho fo ho ho ho +o +o @s @s ii D4 !B F4                                                                                                                                                                      ",
"                                                                                                                                                                                 ~B {B ]B ^B /B (B }q _B :B <B [B }B |B @B 1B Px Lw 2B ;k ;k Mk 3B 3B Mk Go 4B ju mu lz mz jA 4o 5B 6B Pw Jt in &j <r 1k ]h -n !m Nt 7B zj (h PA ,j 8B QA Uf ri Ra +g eb 78 h| `f Wf Yf .c .c w> cb Xa Xa Ua Ua Ua Ua Ua Ua ^j ]j fk .c db `8 se se jk @2 Jj Jj Kj Kj Kj Kj hy +y 2f 2f Vh Vh Vh Vh 8z 8z 8z 8z on on on on Cz Cz 'B 'B 'B ,A 8z on `n !l El ym mk tg (j :f ak fo +o @s @s +o ho fo ho ho +o +o +o +o @s bk Cm c| W5                                                                                                                                                                      ",
"                                                                                                                                                                                 ~@ 9B 0B aB We bB )u cB dB eB fB gB hB iB zt ju jB -r Jp kB Jp lB mB zy jB nB nB oB nz =B 8l hl hl nm pB hn qB Xo ;h vj  l rB 7B sB sB tB ;n uB uB le ii A2 9b lk 4h Za Za `8 Ya .c .c db .c #2 fk fk ]j ]j ^j ^j ^j ^j ^j ]j fk #2 .c db Ya `8 se Ij Gj jk @2 Jj Jj Jj Jj hy +y 2f Vh Qa Xd $c $c on on on on `n `n `n `n 8z Cz ,A ,A 'B ,A Cz Cz 8z on `n El ym Lj _j _j ak fo ho @s @s @s +o ho ho +o +o +o +o +o +o bk qi `d vB                                                                                                                                                                      ",
"                                                                                                                                                                                 wB xB 8| yB zB Qn ^v AB BB CB DB EB FB FB GB 3p Pp HB IB Fo }p 4p Su 4B ^y JB JB Nx KB LB Xl MB NB OB Iy +j Xo PB 6y kn QB RB RB rB rB SB Pf TB TB UB sg Ra xg Vf h| Ya Ya Ya db .c .c .c .c #2 fk .c #2 fk fk ]j ]j ]j ]j fk fk #2 #2 .c db Ya Ya Cl 'l Ij Gj jk @2 @2 @2 Yy Zy +y Vh Qa $c 8b 8b `n `n `n `n `n `n `n `n 8z 8z Cz ,A ,A ,A ,A ,A ,A ,A 8z on !l ~l ym Lj xl ak ho @s @s @s +o +o +o +o +o +o +o +o +o +o _j ck nc                                                                                                                                                                      ",
"                                                                                                                                                                                 wB VB )1 WB XB YB qv ZB `B  C .C +C @C ;x #C Tv ov $C %C &C _q *C Kx Jw =C ]x -C ;C ;C >C MB ,C 'C )C !C zh 'h ~C cg {C ]C ^C .l QB RB /C Rf <h <h 8r ~n ck 5v 8a li 41 ,l &0 Wd Fv Fv #2 .c #2 #2 #2 #2 (C (C (C (C (C (C fk fk fk #2 #2 .c .c .c .o Cl 'l Ij Gj jk jk jk _C 6z Yy +y Vh Xd $c 8b `n `n `n `n `n `n `n `n 8z 8z 8z Cz Cz ,A 'B 'B )B 'B ,A 8z `n !l ~l ~l (m ak ho +o @s @s @s +o +o +o +o +o +o +o +o +o Dj ck =c                                                                                                                                                                      ",
"                                                                                                                                                                                 wB Gz )1 :C <C -k [C }C |C 1C 2C 3C 4C 5C Fw 6C 7C &C vq ;r Jx Vv rv 8C 2w 9C -C ;C 0C aC Cy bC cC !C dC eC PB fC fC gC hC iC xj ^C ]C jC Rf <h |u 7r _m _j :1 _a 8a k| e8 %0 >A Fv kC fk #2 #2 #2 fk ]j lC lC lC lC (C (C #2 #2 #2 #2 #2 #2 #2 #2 .o Cl 'l Ij Ij Gj Gj Gj ow mC 6z Zy +y Vh Xd Xd `n `n `n `n on on on on Cz Cz 8z 8z Cz ,A 'B )B nC )B 'B Cz on !l El ~l (m xl fo +o @s Uq @s @s @s +o +o +o +o +o +o ho _m Oj si                                                                                                                                                                      ",
"                                                                                                                                                                                 oC VB pC qC rC 5p Gw sC tC uC vC wC xC yC zC AC BC CC DC EC FC GC HC IC 8C JC KC 0C LC MC Wi NC cC OC zh PC QC Gf Cf RC SC TC Py UC ^C kg VC ei Oh .s iy :f pi =c :a qc ;0 St `u Fv 8A 7A -A }f :d lC lC lC lC lC (C Az Az db db db .c .c .c #2 #2 Cl Cl 'l Ij Ij Ij Ij Ij WC ow _C Yy hy 2f Qa Qa on on on on 8z 8z 8z 8z +y 2f Vh Vh Vh 2f hy Zy Yy Zy hy 2f Qa $c 8b ~l wl xl fo +o Uq Uq Uq Uq @s @s +o +o +o +o ho ho XC Mj si                                                                                                                                                                      ",
"                                                                                                                                                                                 YC ZC `C  D rh Qp .D +D @D #D $D %D &D *D =D -D ;D >D ,D 'D GC GC )D !D Vv ~D {D 0C Sz ]D ^D /D )C (D Ah _D ^C :D SC <D [D }D Xn }D vz kg Ot Mh Oh og Uq sg Uf Zd Ra 6a `a 2u &0 9v UA |D lC }f .c lC ]j (C (C }f :d +c +c `8 Ya Ya Ya db .c .c .c Cl Cl 'l Ij Ij Ij Ij 'l 'l ow _C 7z hy 2f Vh Qa on on 8z 8z 8z Cz Cz Cz hy xg Vh B2 Vh +g hy .g Yy .g hy +g Qa r0 8b Pa tg (m fo +o Uq Uq Uq Uq @s @s @s +o +o ho ho ho 1D Dj si                                                                                                                                                                      ",
"                                                                                                                                                                              2D 3D V3 4D 5D 6D 7D 8D 9D 0D aD bD cD dD eD fD gD )x 8C hD iD jD lx yr kD lD zy {D ;C =B mD GA nD pB OC qB oD 'm {C Nt Lh vz lg Mf pD qD rD !f 9q sD tD 0q Yx uD Oq 4u /j 6z vD <d +c wD fk vg Xf Ej Xf dk Xf Xf Xf Yf Yf Wf Ij Ij Ij 'l 'l 'l 'l 'l 'l 'l 'l 'l 'l Ij Ij Ij jk Gj Ij Ij Gj @2 kk .g 9b 9b Vh Vh 2f +y hy Zy .g 5a lk 8a xg 6a +g C0 lk 6a xg 6a xg C0 Sa Ra _j tg (j Uf >p bk xD xD bk bk yD Am Am Am zm zm iy ~n                                                                                                                                                                         ",
"                                                                                                                                                                              zD AD BD CD DD ED FD GD HD ID JD KD LD MD ND OD PD :B QD 8C lx RD lD 4B nB SD TD UD LB _y Qk  n :y VD .j WD 6y kn XD Lh }r NA wz YD qD rD mg Mh .q ZD sD sD `D by  E  t wx .E +E mC Ij .o Xf Xf Ej Ta Ej Ej dk dk Yf Yf Wf Wf Ij Ij Ij Ij Ij 'l 'l 'l Ij Ij Ij Ij Ij Gj Gj Gj  g  g Gj Gj jk Jj .g lk 9b 9b Qa Qa Vh 2f +y hy lk 8a 8a 6a 6a 6a 6a 6a 5a 8a 8a 8a 8a C0 s0 Ra mk _j (j Uf >p iy bk xD bk bk Am Am Am Am zm zm iy nk                                                                                                                                                                         ",
"                                                                                                                                                                              @E #E $E %E &E jz *E =E -E ;E >E ,E eD 'E )E !E :B )x Vv ]v ~E Mx Ru ju nB SD {E ]E aC mD ^E /E (E _E qB :E 6y kn XD vz Mf <E YD <E [E [E Of `o ]m gs 9q .q }E |E 1E  E |x 0v 2E 6z jk 'l Wf Wf 0b j| Ta Ta Ta Ta Wf Zf Zf Zf Ij Ij Ij Ij Ij Ij Ij Ij Gj Gj Gj Gj jk jk jk jk li  g jk jk Jj kk lk +g B2 9b Xd $c Xd Qa Vh 2f xg xg xg xg xg xg xg xg kk .g .g lk lk +g Sa Ra Lj mk tg :f sg 1h iy bk iy iy iy iy Am zm zm zm _m Dj                                                                                                                                                                         ",
"                                                                                                                                                                              3E 4E $E 5E 6E 7E 8E 9E 0E aE bE LD cE MD dE eE fE :B {v Jx gE gE Ru ju 4B ^s UD ]E aC MC ^E hE iE iE jE WD oD 8y XD iC wz [E YD <E [E [E Of `o :h _h sD ZD }E &4 by kE lE zu hy Yy Jj Gj `f `f j| }1 j| 0b 0b 0b Zf Zf `f `f Ij Ij Ij Ij Gj Gj Gj Gj jk jk jk jk @2 @2 @2 @2 li li @2 Jj kk .g xg +g B2 9b Xd 8b 8b $c Xd Qa B2 B2 B2 +g +g xg xg xg kk kk .g .g lk xg 9b Ra ym Lj _j (j Uf sg >p iy iy iy iy iy zm zm zm zm ~n Dj                                                                                                                                                                         ",
"                                                                                                                                                                              mE nE oE pE qE rE 8E sE tE aE uE eD vE wE dE eE  B xE ~v ~v yE gE Ru ju sr sr 0C ]E :i zE Yi NC AE BE (D qB ;h 6y QB CE <D <z DE cs <z <z EE FE mn ]m GE GE Sf 0q Yx kE Oq 4u +y Zy Jj jk `f `f }1 }1 j| j| j| 0b Zf Zf `f `f Ij Ij Gj Gj Gj Gj jk jk jk jk @2 @2 @2 @2 @2 @2 li li Jj Kj kk lk xg xg +g B2 Xd $c 8b 8b 8b $c Sa Sa 9b 9b B2 +g +g +g kk .g .g .g lk xg 9b r0 ~l ym mk tg :f Uf _m >p >p >p >p >p >p >p zm zm >p ~n                                                                                                                                                                         ",
"                                                                                                                                                                              HE IE JE KE LE ME 8E NE OE PE bE eD QE ND eE RE SE _B Uv pv yE TE Ru ju sr UE VE WE :i zE Yi vh XE /D YE jE ZE 8y ag CE `E  F Yo .F +F @F FE Zs Kq :h GE GE %y %y #F Zr sp Nq hy Zy Jj Gj `f Zf j| j| j| j| 0b 0b Zf Zf Zf Zf Ij Gj Gj Gj jk jk jk @2 jk jk jk jk jk @2 @2 @2  g li Jj Kj kk .g .g .g xg +g Vh Xd $c 8b Pa Pa Ra r0 r0 Sa Sa 9b 9b 9b lk lk lk lk lk xg 9b r0 El ~l Lj _j (j :f ~n _m _m >p >p >p >p >p zm Am xD iy                                                                                                                                                                         ",
"                                                                                                                                                                              $F %F &F *F =F -F ;F 8D yq >F ,F wE OD OD eE 'F )F _B !F ~F Qu yE tr mB oB ;C {F ]F ^F /F Xi vh (F _F (D :F <F [F }F |F 1F 2F 3F 4F fw 5F 6F xz xz Sr .p .p %y +q +s fo xm sp hy Yy @2 Ij Wf Wf Ta 0b j| 0b 0b Ta Wf Wf Wf Wf Gj Gj Gj jk jk @2 @2 @2 Gj Gj Gj Gj jk jk jk jk  g li Jj Kj kk kk Kj Kj lk lk +y 2f Qa $c Pa A2 d| Ra Ra Ra r0 r0 r0 r0 xg xg xg xg lk xg B2 Sa !l El ym mk tg :f :f Uf _m _m _m >p >p >p >p iy xD iy                                                                                                                                                                         ",
"                                                                                                                                                                              7F 8F 9F 0F aF bF cF dF &C )v eF !E !E dE OD RE fF xE $C !F ~F gF /s hF Nx iF jF ]F zE <i kF Xi lF mF nF oF pF qF rF TC sF 3F tF uF vF wF xF yF zF AF jw jw 0q Sf 8r (m wm wm Zy 7z jk 'l Yf Yf Ej Ta 0b 0b Ta Ej Yf Yf Yf Yf Gj Gj Gj jk jk @2 @2 Jj Ij Ij Ij Gj Gj Gj Gj Gj  g li Jj Kj Kj Kj Jj @2 .g .g hy +y Vh $c (a A2 d| d| d| d| Ra Ra Ra Ra +g +g +g xg lk xg B2 Sa !l El ym mk tg (j :f :f _m _m _m _m >p >p >p iy iy _m                                                                                                                                                                         ",
"                                                                                                                                                                              BF CF 7c DF EF FF GF HF %C xq IF eE !E eE JF JF xE  B ;r !F ^t KF mB oB SD {E WE LF MF NF ^F OF PF QF RF oF SF TF UF VF WF WF XF YF ZF `F 5F  G .G +G @G Zw 0r vl Pq #G &l $G Zy 6z Ij .o vg vg ek ek ek ek Bl dk Yf Wf Wf Zf 'l Ij Gj Gj Gj Gj Gj Gj Gj jk jk @2 @2 @2 @2 @2 li li @2 @2 @2 Jj Jj Jj .g lk 2f Vh Vh Qa $c 8b ck :1 ti si si ti :1 ck =l 5v %G %G y, y, y, y, $c $c $c 8b ym _j :f Uf _j _j yl yl nk _m iy bk iy _m                                                                                                                                                                         ",
"                                                                                                                                                                              &G *G =G Yg EF *E -G Mp %C $C ;G !E !E !E >G >G )F )F ~F ;r ^t {s mB ^s oB UE ]E LF MF ,G ^F 'G )G !G PF ~G {G ]G ^G /G (G _G _G :G <G [G vF }G |G 1G Vq Vq /m 8k oo 6r $G 2G nC _C 'l wD vg vg Bl ek Bl Bl Bl dk Yf Wf Wf Wf Cl 'l 'l Ij Gj Gj Gj Gj Ij Gj Gj jk @2 @2 @2 @2 li li Jj Jj Jj Kj Kj Kj .g lk 2f 2f Vh Qa Xd 8b  s ck ti si ri ri si ti Al =l =l 5v %G %G %G %G $c Xd Xd $c El Lj _j (j mk _j yl Dj ~n >p iy bk bk iy                                                                                                                                                                         ",
"                                                                                                                                                                              3G 4G Vc 5G 6G 7G dF BC $C !F >G !E IF >G 8G 9G >D 0G ~F ~F -u {s mB sr UE UE ]E WE WE WE MC aG bG hE cG dG eG fG gG hG /G /G iG jG kG lG mG nG oG pG eq eq Wq qG oo 6r rG sG tG mC Cl vA vg vg Bl Bl dk dk dk Ej Yf Wf Wf Wf .o Cl Cl 'l Ij Ij Ij Ij Cl 'l Ij Gj jk jk @2 @2 li li Jj Jj Kj kk kk .g .g lk +y 2f 2f Vh Qa Xd !l El Lj _j tg (j (j tg ~l El El !l `n `n `n !l $c $c Xd Xd Xd 8b ym Lj ym mk tg :f sg <m bk xD xD bk                                                                                                                                                                         ",
"                                                                                                                                                                              uG vG Vc wG rE xG yG zG vq *C xE OD eF ;G 8G AG >D 0G ;r ;r -u {s hF sr {E {E ]E WE VE BG ]D CG DG EG FG FG GG HG IG JG KG Gy Gy LG <G MG NG OG PG QG RG eq pw Wq #o #G $A 2G SG ow .o vA wg vg Bl Bl Ej Ej Ej Ej Yf Wf Wf Wf Cl Cl Cl 'l 'l Cl Cl Cl wD .o Cl Ij Gj jk @2 @2  g  g @2 Jj Kj kk kk .g .g lk +y +y +y 2f Vh Qa !l ~l Lj _j (j :f (j (j Lj ym ym ~l ~l ~l ~l ~l Pa 8b $c Xd Qa Xd !l El ~l Lj tg Uf 1h ii xD xD xD bk                                                                                                                                                                         ",
"                                                                                                                                                                              TG UG VG WG XG NE YG ZG `G hu wq  H  H eF .H 8G 0G +H uq @H -u {s #H TD {D ;C {D {D ;C $H %H &H :A *H =H =H -H ;H >H ,H 'H )H Gy !H ~H {H ]H ^H /H (H _H :H pw Wq jo <H $A 2G 5A WC .o vA wg vg dk dk Ej Ej Ta Ta Wf Wf Wf Zf 'l 'l 'l 'l Cl .o wD wD wD .o Cl Ij Gj jk @2 @2 h| h| jk @2 Jj Kj kk kk .g lk +y +y hy hy +y 2f El ~l Lj _j tg (j tg tg _j mk mk Lj Lj Lj mk mk 3d (a Pa $c Xd Xd Xd $c ~l Lj tg Uf 1h ii ~j <f bk iy                                                                                                                                                                         ",
"                                                                                                                                                                           [H }H |H sd Wl wt 1H YG 6C 2H 2H 3H 4H 5H 6H IF >G +H 7H (q uq -u {s 8H TD UD 0C {E {E {D LC iF 9H %B 0H =H =H -H ;H aH bH km cH dH !H ~H eH MG mG fH (H _H :H eq qG gH hH rG sG SG ow .o vA vg vg dk dk Ej Ej Ta Ta Zf Zf Zf `f Gj Gj Ij Ij 'l Cl .o wD .o Cl 'l Gj jk @2 Jj Jj  g li @2 Jj Kj Kj kk kk kk .g hy hy Zy Zy hy +y El ~l Lj mk _j _j _j mk tg tg _j _j _j _j tg tg 5h /a (a 8b $c Xd Xd $c ym Lj tg :f 1h ii <f <f bk iy                                                                                                                                                                         ",
"                                                                                                                                                                           iH jH kH lH mH nH 8D oH 1w 2H Pu pH qH rH sH JF ;G 7H 7H (q @H KF rr 8H Ay {D 0C KB Nx KB tH uH uH vH 0H wH wH xH yH zH AH BH cH )H CH !H ~H DH EH OG FH pG GH HH IH gH hH JH KH tG mC Cl wD vg Xf dk dk Ej Ej Ta Ta Zf `f `f h| Ij Ij Gj Gj Ij Ij 'l 'l Cl 'l Ij jk @2 Jj Jj Jj [1 [1 kk .g .g lk lk lk kk .g hy hy Zy Yy Zy hy `n !l ~l Lj mk mk mk Lj (j tg tg tg tg tg (j (j 93 5h A2 Pa $c Xd Xd $c mk mk tg :f sg ii <f LH xD bk                                                                                                                                                                         ",
"                                                                                                                                                                           MH NH OH PH QH 7C ,F vE RH ov Ou SH zG TH UH VH WH 7H +H uq ^t KF rr hF zy {E KB XH tH tH XH XH XH YH ZH `H wH  I yH .I AH +I @I #I 'H )H !H $I DH mG nG PG %I GH &I *I =I lw rG nC _C 'l wD Xf Xf Xf dk Yf Ej Wf Zf `f `f h| h| 'l Ij Ij Gj Gj jk Gj Gj Ij Ij Gj @2 Jj Jj Kj Kj xg xg xg +g +g +g +g +g kk .g hy Zy Yy Yy Yy Zy Vh Xd 8b (a A2 mk mk Lj (j (j tg tg tg (j (j :f (j tg Lj Pa $c Xd Xd $c /a /a tg (j sg <m -I ;I 8r xD                                                                                                                                                                         ",
"                                                                                                                                                                        h# >I ,I 'I )I _q !I ~I {I ]I ^I :q vq vq /I _q (I KF @H ;u vq $C ;r gE kD _I /y kD _I lx :I jD iD <I [I }I |I 1I 2I 3I 4I 5I 6I 7I AH 8I 8I 9I 'H Gy $I 0I `F 5F }G aI bI cI dI eI fI Dl uA 'w wD wD }f #2 :d .c :d :d +c rc Ij Gj _C _C 6z 6z 6z _C _C mC &A &A 5A SG tG )B )B 'B hy hy hy hy +y +y 2f Vh hy +y +y +y hy Zy Zy Zy $0 gI hI #0 e9 (a (a Pa ~l ym Oj Nj Mj yl yl {l {l ok Oj ~l $c Xd iI iI e9 rw 5h Uf ii -I jI Wt Aj nn                                                                                                                                                                         ",
"                                                                                                                                                                        kI lI mI nI Zm zG oI pI qI rI sI HF &C Kp Kp tI Kp (q Kp uI $C ;r yE kD RD lx vI ~E RD =C :I jD iD <I [I wI 1I xI yI zI 4I 4I 6I AI BI CI DI DI 9I )H !H EI kG lG xF FI GI HI II JI KI LI Hj MI .o wD }f (C Az Az :d :d +c rc Ij Ij mC _C _C 6z 6z 6z _C _C &A 5A SG tG nC )B 'B 'B +y +y +y +y +y 2f Vh Vh hy +y 2f 2f hy Zy Zy hy [d NI  y OI PI PI Pa Pa ~l ~l Oj Nj Mj yl {l {l QI QI Nj Oj (a 8b iI RI OI PI A2 (j sg yD 1D *p jw Cj                                                                                                                                                                         ",
"                                                                                                                                                                        SI TI UI VI Qo WI XI YI qI ZI `I  J hu Kp (q Kp .J tI tI .J ~F Qu TE kD RD RD Jw ]v 2w +J :I jD @J #J [I wI $J %J &J 6I zI zI 6I AI *J =J bH DI 9I )H !H EI kG [G -J |G Mq ;J >J ,J %A tA )l uA Cl .o }f (C }f }f }f }f .o Cl 'l Ij ow mC _C 6z 7z 7z 6z 6z 5A SG tG nC )B 'B 'B ,A 8z 8z Cz Cz Cz 8z 8z 8z ,A Cz 8z 8z Cz ,A ,A +y [d Ty gI hI f9 #0 8b 8b ~l ~l Pj Nj Mj Mj {l {l #A QI Mj Mj 3d Pa iI hI iI f9 (a _j Uf Am 'J &p ct Zn                                                                                                                                                                         ",
"                                                                                                                                                                        W  )J !J ~J Qo {J ]J oI ^J /J ND xE %C ut ut tI tI Kp (q @H gE yE yE yE Mx kD rv 2w +J hD jD iD @J #J [I (J _J :J 2I &J &J &J yI <J 7I [J }J DI 9I )H !H EI |J `F 6F 1J 2J 3J cI 4J 'A 5J @p ik Ij Cl }f lC (C (C }f }f .o Cl 'l Ij WC ow _C 6z 7z 7z 7z 7z tG tG nC )B 'B 'B ,A ,A on 8z 8z Cz Cz Cz 8z 8z Cz 8z on on 8z Cz 8z 8z [d Ty }d rx hI iI $c 8b El ~l Pj Oj Nj Mj ok ok ok {l yl Mj 3d (a #0 f9 hI f9 Pa mk :f iy 'J &p ct +p bq                                                                                                                                                                      ",
"                                                                                                                                                                        6J 7J 8J 9J `l zG 0J aJ bJ cJ !E SE *C Kp .J .J vq !F gF yE Qu gF pv pv ~v ]v 8C hD +J +J hD dJ <I eJ [I [I fJ gJ _J :J xI xI xI hJ `H xH iJ }J JG 'H jJ kJ |J `F 6F 1J 2J 3J Ww 4J Dz Cv #p @p jk 'l :d (C (C (C }f }f .o Cl 'l Ij WC ow _C 6z Yy Yy nC nC nC )B )B 'B ,A ,A 'A 'A Bv Dz Dz 'A 'A 'A Dz Dz Dz zl 1u 1u zl Bv zl `n }d }d gI gI Vh Xd $c $c El ~l Pj Oj Nj Mj Mj ok Fl Gl yl Mj A2 A2 e9 e9 hI iI 8b Lj tg _m yD mo Bj +p D4                                                                                                                                                                      ",
"                                                                                                                                                                        lJ mJ nJ oJ Qp wq pJ qJ rJ sJ OD tJ *C tI .J Kp !F ~F yE TE ~F gF ~v Jx {v qv Jw QD 8C 2w hD uJ eJ vJ vJ vJ wJ wJ fJ gJ 1I 1I 1I xJ 0H yJ zJ !z JG AJ BJ kJ `F lG yF CJ DJ bI cI 4J Dz EJ vp cq Jj Gj +c }f }f }f }f }f .o Cl 'l Ij ow mC _C 7z Yy Yy nC nC 'B 'B 'B ,A Cz Cz 'A Dz Dz Dz Dz 'A 'A Dz Dz Dz zl 1u @y @y 1u 1u 1u @y Qa hI rx rx Vh Qa Xd $c El El Pj Oj Nj Mj Mj Mj Bm Fl yl Mj mk 3d FJ FJ rx Vh Xd El Nj Dj :m @o 0r +o 2h                                                                                                                                                                      ",
"                                                                                                                                                                        )0 GJ HJ qh Fn _B IJ JJ KJ KJ 6H LJ MJ MJ CC DC 0G DC ;D NJ OJ PJ NJ NJ QJ QJ jx RJ QD rv +J uJ SJ TJ vJ #J wJ wJ wJ fJ gJ _J }I hJ UJ Yz )z VJ )H WJ XJ EI [G EH 1J 1G GI YJ >J 4J Dz EJ ZJ vp Kj jk rc }f }f }f :d :d Cl 'l Hj Hj ow mC 6z 7z nC nC nC tG ,A ,A 0A 'A 'A Dz Dz Dz KH KH KH KH KH `J  K  K  K .K +K +K +K .K +K Pj 8b $c Xd Qa Vh Qa `n !l El El Qj Oj Nj Nj Mj Mj Fl Fl nk Dj tg _j 3d 3d Qa Qa Xd El Oj yl Bm =o /m fo f|                                                                                                                                                                      ",
"                                                                                                                                                                        @K #K $K +h Jp _B  H %K &K OD eF wq `A *K =K ,D -K 0G ;D Iw ~x ;K EC PJ )x )x QJ >K Vv QD 2w uJ TJ ,K vJ <I wJ wJ fJ gJ _J $J xI 'K Yz yH )K !K [k ~K {K ]K lG ^K .G aI Vr Ww /K ,J Dz EJ Cv ZJ #p @2 <d :d :d :d :d .o Cl 'l Hj ik mC _C 6z 7z nC nC nC tG ,A ,A 'A 'A Dz Dz Dz Bv `J `J `J `J  K  K (K .K (K .K _K _K +K +K _K Pj ym Pa $c Qa Qa Qa `n !l !l El Qj Oj Nj Nj Mj Mj Gl Fl ~n ~n :f tg 3d A2 $c $c !l ~l Oj Dj :m zm =o ~n =c                                                                                                                                                                      ",
"                                                                                                                                                                        sc :K <K th Fo LJ 6H OD 6H 5H [K VH >G .H }K 9G |K 1K 2K 2K 3K 4K 5K 'F 6K RE 7K 8K 9K 0K 8C hD uJ aK aK uJ 3w bK bK 4w Zv 4w fJ 'K yH cK )K cH WJ ~K dK eK fH fK RG gK YJ cI hK 6r `J iK 5J Dv Dl )l Ij 'l +c +c Cl Cl Cl uA Hj Hj &A &A 5A SG tG nC )B )B KI %A 0A Dz Bv Bv Bv Bv  K  K `J `J  K (K .K .K (K .K +K _K _K +K .K 1u ym ym ym ~l El El !l !l @y @y Qj Pj Oj Nj Mj yl Oj Nj Mj yl (j tg /a 3d (a 8b !l El Oj Dj _m >p @o nk g|                                                                                                                                                                      ",
"                                                                                                                                                                        jK kK lK mK Fo hu BC ND 6H rH [K nK .H }K 9G |K 1K 2K oK oK pK 4K qK 7K rK 'F sK >K 8K 0K rv 8C +J +J 2w 8C tK 4w bK bK bK uK _J #B =J vK cH wK Xk xK yK zK (H AK BK CK >J dI ,J ;w `J iK 5J LI Dl )l Gj Ij rc +c Cl Cl uA uA Hj Hj &A &A 5A SG tG nC )B )B KI %A 0A Dz Bv Bv Dz Dz  K `J `J `J  K (K .K +K .K +K +K _K qk _K _K +K Pj ym ym ~l El El !l !l @y @y @y Qj Pj Oj Mj Mj Oj Nj Mj yl (j tg /a 3d (a Pa !l El Oj yl ~n _m io DK +b                                                                                                                                                                      ",
"                                                                                                                                                                     EK FK GK HK IK tI hu JK wq KK KK LK MK 8G 9G |K NK OK 4K pK pK OK 4K PK QK RK SK RK TK RJ UK 9K 0K QD QD QD QD sv VK bK wJ fJ _J WK @B CI XK !K YK ZK `K  L .L +L +L @L #L dI $L %L ;w  K &L 5J Dv @p Dl jk Gj Ij 'l 'l 'l uA Hj Hj ik &A 5A 5A SG tG nC KI %A %A 0A 'A Dz Bv Dz KH KH `J `J KH `J  K (K +K _K _K _K _K _K qk qk qk qk Oj Pj Pj Qj Qj @y @y 1u 1u 1u 1u @y Qj Pj Oj Nj Lj mk _j (j (j (j tg _j Lj ym El El Lj tg :f ~n Bm *L <a                                                                                                                                                                      ",
"                                                                                                                                                                     =L -L ;L >L ,L ut _q JK fx WH 7H 'L VH 8G 9G |K NK OK 4K pK pK qK qK PK )L PK QK RK RK !L Hx Ix 9K QD 8C +J Wv zt ~L uK fJ _J %J {L ]L CI ^L /L (L ~z _L zK .L :L +L @L <L dI $L %L 5r .K [L EJ 5J #p #p Kj Jj Gj Ij Ij Ij Hj Hj ik ik 5A 5A SG tG nC )B %A %A 0A 'A Dz Dz Bv Dz KH }L KH KH KH `J  K .K +K _K pk pk qk qk qk qk qk pk Oj Oj Pj Pj Qj @y @y @y 1u 1u 1u @y Qj Pj Oj Oj Lj mk _j (j (j (j tg tg _j Lj ~l El ym _j (j nk Dj |L 1L                                                                                                                                                                      ",
"                                                                                                                                                                     2L 3L 4L 5L 6L @H $C xy {y ~F 0G 7L 8L 9L 0L aL bL cL dL dL eL fL fL gL hL ZB hL iL RK jx UK 0K jL kL )D aK lL At At At mL _J WK nL oL =J vK pL qL ~z _L zK rL :L :L gK sL dI eI %L ;w _K tL uL EJ y, RA .g kk jk jk Gj Gj ik ik vL vL 5A SG tG nC )B )B %A 0A 0A 'A Dz Bv `J `J KH KH Dz Dz Dz Bv zl @y Qj Pj Mj Mj Nj Oj Pj Pj Pj Pj Oj Oj Pj Pj Qj Qj @y @y 1u 1u @y @y Qj Pj Oj Oj Lj mk tg (j :f (j Dj yl yl Nj ym ~l ym mk tg yl DK wL Y<                                                                                                                                                                      ",
"                                                                                                                                                                     xL yL zL AL BL CL !F {y {y ~F =K DL EL FL GL HL 0L aL bL IL IL JL JL KL iL hL hL gL LL ML kL )D NL NL OL PL TJ iB QL mL mL gJ :J RL |B [J SL TL UL VL WL XL YL :L ZL #L `L ,J %L eI rG .K  M [L uL 4v y, .g kk @2 @2 jk jk ik ik .M .M SG SG tG nC )B 'B 0A 0A 0A 'A Dz Bv `J `J `J KH Bv Bv Dz Bv zl 1u Qj Pj Nj Nj Oj Oj Pj Pj Qj Qj Oj Oj Oj Pj Qj Qj @y @y Qj Qj Qj Qj Pj Oj Oj Nj Lj mk tg (j :f :f Dj Dj nk Mj ym ~l ym Lj _j Mj *L +M                                                                                                                                                                         ",
"                                                                                                                                                                     @M #M $M %M &M (I !F {y xy *C +H *M =M -M sJ GL ;M HL 0L JL JL >M >M >M JL ,M 'M 'M QK IC OL OL )D NL )D )M !M QL mL At At QL ~M %J #B Yz {M ]M TL ^M /M (M XL AK ZL _M `L hK 4J ,J rG :M <M &L &L 4v ZJ cq )l Jj @2 Dl )l )l )l .M .M SG tG tG nC KI %A 0A 'A %A 0A KH `J  K  K  K `J zl Bv Bv Bv zl 1u @y Qj @y Qj Pj Pj Pj Pj Qj Qj pk qk qk _K Pj Qj Qj @y Pj Pj Pj Pj Oj Nj Nj Mj ym mk tg (j nk nk nk Dj ~n yl Oj Qj ym Lj mk Nj [M }M                                                                                                                                                                         ",
"                                                                                                                                                                     2z |M 1M 2M 3M LK KK fx _s :q *K 8L IJ cJ 4M rJ 5M HL >M 6M 6M 7M 5M 5M >M 8M 'M 9M 0M aM eB bM cM dM cM eM fM gM hM gM hM TJ iB iB _J iM jM {M kM TL lM mM nM rL :L oM pM sL Ww >J %L qM rM sM }L 0A 5J )l uA Jj Jj Dl Dl )l )l )l .M cq tG nC )B %A 0A 0A 'A %A 0A }L `J  K  K  K  K zl zl Bv Bv zl 1u @y @y Bv zl @y Pj Oj Pj Pj Qj pk qk qk _K Pj Qj Qj Qj Oj Oj Oj Oj Nj Nj Mj yl ym mk tg (j nk nk nk Dj ~n Dj Oj Qj ~l ym Lj ti |L gb                                                                                                                                                                         ",
"                                                                                                                                                                  tM uM vM &h wM xM MK VH SE )F  B gD yM vE zM AM BM CM DM EM }C }C FM GM HM IM JM 0M KM LM MM NM OM NM PM QM RM SM TM UM VM WM XM YM )M ZM Hs `M  N .N +N @N #N $N ZK %N &N *N =N -N _M ;N >N ,N 'N )N !N ~N ik 'l jk jk Gj Gj jk Dl SG cq tA tA 5J ZJ Cv EJ EJ EJ 4v 4v Bv Bv zl zl 1u 1u {N 2G 2G {N {N $G &l &l {N $G &l 'n *l *l wm wm Qj Qj Pj Pj Pj Pj Pj Pj Pj Oj Nj Mj Mj Mj Nj Oj Mj Mj wl wl (m xl ak ak ak (m Nj Oj ]N |L ^N %c 0a /N                                                                                                                                                                         ",
"                                                                                                                                                                  (N 03 _N Yi :N <N [N }N JF IF |N 1N 2N MD 3N 4N 5N 6N 7N 8N 9N 9N 0N aN bN cN dN eN LM fN gN hN iN iN jN BB kN lN mN nN oN oN pN qN rN sN tN uN `M vN wN xN yN zN (L ~K AN BN fH CN DN EN ;N FN GN HN IN JN &A Gj Gj Gj Ij Gj Gj @2 SG cq tA KN ZJ Cv EJ EJ EJ EJ 4v 4v Bv Bv zl 1u 1u 1u &l &l $G &l &l &l LN 'n &l LN LN 'n *l *l *l *l Oj Oj Oj Pj Pj Pj Qj Qj Oj Oj Nj Mj Mj Nj Nj Nj Mj Mj wl (m xl xl >n >n ak xl Mj Nj [M ]N MN NN %%                                                                                                                                                                            ",
"                                                                                                                                                                  ON c9 _D PN As QN RN SN sH sH dE QE TN /J sC UN VN WN XN AM AM 7N GM 9N YN ZN dN eN KM KM MM MM MM MM QM `N  O  O .O .O rN rN rN sN )D kL +O @O ZM `M  N #O $O %O &O *O =O XJ -O EH ;O PG >O ,O 'O )O )N !N 5A &A Ij 'l 'l Ij Gj jk 6z cq 5J KN ZJ Cv EJ 4v 4v 4v 4v !O Bv zl zl 1u 1u 1u *l 'n 'n 'n 'n 'n *l *l 'n 'n 'n *l *l *l *l 'n Nj Nj Nj Oj Pj Pj Qj Qj Oj Oj Nj Nj Nj Nj Nj Nj yl yl (m (m xl ak >n dt ho ak Dj Mj *L *L ~O {O qc                                                                                                                                                                            ",
"                                                                                                                                                                  R7 35 ]O ]i ^O *K SN pJ sH 6H QE QE 'E /O UN (O VN 4N XN AM 7N 8N aN _O :O 8M 0M eN eN eN eN 0M 0M 0M <O LM fN [O }O |O 1O 2O 3O 3O 9K Ix 4O 5O 6O ZM 7O  N 8O 9O 0O aO Zz bO =O cO dO eO fO gO hO )O iO jO kO &A 'l 'l 'l 'l Ij jk _C Jj vp lO Cv EJ EJ 4v 4v 4v !O !O Bv zl zl 1u 1u @y wm wm *l *l *l *l *l *l 'n 'n *l wm wm wm wm wm Mj Nj Nj Nj Oj Oj Pj Pj Oj Oj Nj Nj Nj Nj Nj Nj yl Dj (m xl ak fo dt pg +o fo nk yl mO mO nO oO %%                                                                                                                                                                            ",
"                                                                                                                                                                  pO qO ]O ]i rO CC sO tO sO IJ pJ &K /O uO 4N vO WN 5N 6N wO xO yO xO yO 8M 'M eN KM eN 0M zO AO BO BO BO zO CO DO 9K Ix Hx Ix <B <B Fs EO <B _t sv VK FO GO HO iM IO JO KO LO MO NO OO PO QO RO SO TO iO UO kO VO Ij 'l rc rc WO vD |f Jj vp lO Cv EJ EJ 4v 4v 4v !O !O zl zl 1u 1u @y @y wm *l *l *l 'n *l *l *l LN 'n *l wm 0k xm xm xm 0k 0k 0k 0k 0k 0k 0k 0k 0k 0k 0k 0k 0k 0k 0k xm Dj nk xl ak fo fo pg pg +o fo nk yl DK mO nO oO E'                                                                                                                                                                            ",
"                                                                                                                                                                  XO {d YO Rn -u `A tO tO tO IJ pJ pJ ZO `O  P .P +P 6N @P #P yO $P $P %P 'M &P *P KM 0M dN BO =P -P ;P >P ,P 'P )P 9K UK Ix Ix <B !P !P <B :s Xv lu sv Js Bt ~P {P ]P ^P /P (P _P :P <P [P }P |P 1P 2P 3P iO 4P kO ik Gj te te 5P vD |f Jj vp KN ZJ Cv EJ 4v 4v 4v !O !O zl zl 1u @y @y @y *l 'n 'n 'n 'n 'n *l *l 'n 'n *l 0k xm wl wl wl 0k 0k xm xm xm xm wl wl 0k 0k wm wm wm 0k xm xm nk nk ak fo fo ho Tf Tf ho fo Dj yl mO *L nO oO D0                                                                                                                                                                            ",
"                                                                                                                                                                  F2 6P Vn Sn @H  J pJ IJ IJ pJ 7P 7P 8P `O  P  P +P +P 6N 9P EM 0P 0P %P aP 9M 'M aP cN IM AO ,P >x 'x 'x bP ix :s yr yr yr Xv Xv Xv cP dP ^v 4B eP (v uv `v fP gP hP hP iP jP kP lP mP nP oP pP qP rP sP tP >w fI @p Dl @2 jk vD |f ue Jj #p KN ZJ Cv EJ EJ EJ EJ !O sA zl 1u 1u @y @y @y 'n 'n 'n 'n 'n *l *l wm *l wm 0k xm xm wl wl wl wl wl wl wl wl xm xm xm 0k 0k wm wm wm 0k xm xm ~n ~n ak fo ho +o Tf +p ho ak yl Mj *L [M ~O uP +b vP                                                                                                                                                                         ",
"                                                                                                                                                               wP C} xP 5y =k $C {J yP zP SN SN AP 7P 8P BP CP .P 5N 5N +P @P xO EM EM DP 8M ,M 8M DP bN EP 'P FP #C GP GP HP IP :s ^v Tu Tu ^v GB JP KP LP MP /v (v `v `v Ks Ks fP NP NP OP PP QP RP SP nP TP UP VP WP rP XP YP }L Dv cq Jj @2 |f |f ue 7z #p ZP 5J ZJ Cv EJ EJ EJ !O sA zl 1u 1u @y @y Qj LN LN LN 'n 'n *l wm wm 0k 0k xm xm xm xm xm xm (m (m (m wl wl xm xm 0k 0k 0k wm wm wm 0k xm xm ~n ~n fo ho ho +o +p +p fo xl yl Nj *L [M MN uc +b `P                                                                                                                                                                         ",
"                                                                                                                                                                Q ji .Q +Q fp !F oH %K @Q #Q $Q %Q 7P 8P &Q *Q +P @P wO CM xO EM yO DP DP DP cN cN =Q -Q ;Q 'x {y xy 2p Co _s 2p }s >Q nu Uu mu lz ,Q 'Q Ks 7p 6w Vz Wz Jn 1t |t )Q )Q !Q ~Q iP QP {Q ]Q ^Q /Q (Q _Q :Q <Q [Q QI qk Dz 0A )B nC Yy Yy }Q 6z @p |Q 5J Cv 4v 4v 4v 4v 1Q 1Q 1u 1u zl 1u Qj Oj 'n 'n 'n 'n *l *l *l *l *l 0k xm wl wl xm wl (m wm 0k 0k xm wl wl wl wl xm xm xm xm wl (m xl xl ~n _m ho +o +o +o Tf Tf ho fo nk yl *L *L 2Q 3Q pc 4Q                                                                                                                                                                         ",
"                                                                                                                                                               5Q LH 6Q 7Q Ao Np 8Q `I 9Q #Q $Q 0Q %Q aQ bQ *Q +P cQ 8N dQ CM eQ :O 4M -Q fQ =Q gQ hQ iQ 2N jQ 2p xy 2p 2p kQ <o lQ Uu mu MP mQ Dt 'Q Ks 7p ,z mx oA nQ yJ oQ nQ ]P pQ /P qQ rQ sQ RP tQ ^Q uQ vQ wQ xQ yQ zQ AQ BQ  K Dz 'B nC nC nC }Q tG CQ DQ tA ZJ Cv EJ EJ EJ !O sA 1u 1u 1u 1u Qj Pj *l *l *l wm wm wm wm 0k *l 0k xm wl xm xm wl (m 0k 0k xm xm wl wl wl wl xm xm xm wl wl (m xl xl _m _m ho +o +o +o Tf Tf ho ak Dj Mj *L *L 2Q EQ hb xe                                                                                                                                                                         ",
"                                                                                                                                                               -A %4 2k Qn }w >F uE FQ GQ HQ IQ JQ 0J KQ 8P 8P zM LQ 4M sJ MQ GL fQ dE NQ !E AO QJ AO PD #C 2p kQ ,r OQ 'r Vu Uu PQ Io Vm Sp 1o Jo 7p QQ RQ jm *m Dy SQ )z kM TQ UQ TQ VQ VQ WQ VQ tQ VQ XQ YQ ZQ `Q wQ  R .R Tq &q qk .K Dz KI IN !N +R @R .M #R LI tA 5J ZJ ZJ ZJ EJ !O zl 1u 1u @y Qj Pj wm wm wm 0k 0k 0k xm xm *l 0k xm wl xm xm wl (m vm vm vm $R $R $R vm vm $R $R $R $R eo %R %R ak _m >p ho +o +o +o Tf Tf fo ak Dj Mj *L *L &R EQ `d I7                                                                                                                                                                         ",
"                                                                                                                                                               g9 ge Ch *R lv =R 9D -R -R ;R >R ,R $Q 'R )R ZO JJ cJ KJ cJ )E eE eE wE 1N |N fE )x ix [C !R ~R Ar kz Vu Uu MP 'Q Ks Sp Jo 6w kA Wz Jn nQ :v Sw ll nj {R ]R ^R /R (R NO _R _R :R <R [R [R }R |R 1R `Q _Q 2R 3R 4R 5R 6R ok (K sM IN mw JN ~N .M 7R CQ LI Dv tA 5J 5J ZJ EJ zl 1u 1u 1u @y Qj *l *l *l wm wm 0k 0k 0k *l wm xm xm xm xm wl wl $R $R $R $R $R $R vm vm $R $R $R eo eo %R >n ak ho >p +o +o +o +o Tf Tf ak xl yl Mj *L *L &R 8R qe D} j8                                                                                                                                                                      ",
"                                                                                                                                                            9R 0R aR bR cR dR eR fR gR gR hR iR jR kR lR SN IJ eF JF JF eF sH sH UH LJ Np :q xq mR >r ]y ]y nR oR 1s pR Io jA Jo 6w Lo qR rR 7w :v <v sR tR qz uR vR wR ]K nM xR nM cO yR zR AR yR BR CR BR DR ER `Q FR GR 3R HR Tq IR 6R JR :M KR LR UO MR .M 7R .M .M CQ LI tA 5J 5J Cv Bv zl zl zl 1u @y &l LN LN 'n 'n *l wm wm *l wm xm xm xm xm xm wl $R $R $R $R $R $R vm vm eo eo eo eo %R >n >n fo ho iy +o @s @s @s Tf Tf ak xl yl Nj *L *L &R EQ qe D} i8                                                                                                                                                                      ",
"                                                                                                                                                            NR OR PR QR RR SR TR 0D gR UR PE SR jR VR WR yP 6H sH eF eF sH wq wq xq fx fx fx xy {y XR ]y YR 1s ZR ^u PQ Vm Sp _v Vz RQ Ms `R vv  S tR .S *O =O +S @S #S (M $S dO %S (M nM dO &S dO *S -O *S =S ER -S ;S GR >S ,S 4R 'S )S !S JH ~S iO {S ]S ^S 7R .M vL .M LI tA 5J ZJ Cv Dz Bv Bv Bv zl 1u $G $G &l LN 'n 'n *l *l 'n wm 0k xm 0k 0k xm wl $R $R $R eo eo $R $R $R eo eo eo %R %R >n dt fo +o iy @s @s @s @s Tf Tf ak xl yl Nj [M [M 2Q EQ =c D} i8                                                                                                                                                                      ",
"                                                                                                                                                            /S (S PR _S :S <S TR [S fR ;E PE }S |S VR $Q JQ 1S `A MJ KK KK MJ KK *C *C Op 2S Op Op 'r nR nu 7n -B Um Vm ;B 3S Lo QQ 7w `R vv  S SQ kM 4S 5S #S 6S ^K nG FH FH /H 7S nG 8S fK 9S 0S eO /H eO aS bS cS dS GR yQ eS eS 5R fS gS hS iS jS kS lS mS #R .M .M .M LI tA ZJ Cv EJ Dz Dz 'A Dz Bv 1u &l &l LN 'n *l *l wm 0k 'n wm 0k xm 0k 0k xm wl vm vm $R eo eo eo eo eo %R %R %R %R >n >n dt ho +o bk @s @s @s @s Tf Tf fo xl yl Nj [M [M nO 3Q ug I7 j8                                                                                                                                                                      ",
"                                                                                                                                                            nS oS -h pS qS rS sS tS uS vS wS Sv |S |S ,R xS yS 3H `A MJ KK KK !F ;r Pp Op 2S 2S OQ OQ En kz 6p Io Vm jA Sp Jo Vz RQ `R vv <v Rw zS AS pL BS dO 7S /H (H AK +L AK CS fK DS fO ES ES FS FS ES GS HS IS IS JS KS LS Sq AQ MS NS hS OS PS QS RS SS LI .M .M .M LI 5J ZJ EJ EJ 'A 'A 0A 'A Bv 1u LN LN 'n *l wm 0k xm 4r 'n 6r -o -o -o -o 4r oo TS TS 9k $l eo $l eo $l %R %R %R %R >n dt pg ho @s bk @s @s @s @s Tf Tf fo ak wl Nj Oj ]N [M nO uP C0 98                                                                                                                                                                      ",
"                                                                                                                                                            gy .q US Pi iz VS WS XS YS uS nv dR ZS `S  T xS yS hu &C _q %C vq vq vq 3p Pp )u .T Pp Op Su yy nB mQ LP /v Rz 6w oA yJ Dy %m zS nj Sx +T BS {H EH @T #T $T fO FS %T &T *T =T gO -T ,O ,O ;T ;T >T ,T 'T )T !T ~T {T ]T QI ^T YP /T >w (T _T :T ~N ~N ~N ~N ~N ~N ~N ~N fI KI %A 'A Bv zl zl 1u $G &l 'n wm -o 4r -o Qq #G <H <H <H <T [T [T MS ]T gH $o jo %p %o io &o =o @o @o @o =o =o =o @o @o @o ;p ;p 0r 0r 0r 0r 7k =o io {l +K  M tL }T |T 1T 2T                                                                                                                                                                      ",
"                                                                                                                                                            NI fe Ch il }q 3T *D 4T 5T 6T }S }S `S 7T ,R IQ 3H &C &C _q %C %C %C %C 3p Pp Pp Pp Op 8T iu jB 4B nB /v eP Lw (A oA oz 'z Dy `z nj Yk vR 9T @S [G 0T aT DS FS ZL bT cT -T ,O dT eT fT fT hS hS gT NS ]T &q *o &o jo ]T JR hT }L >w iT jT :T 4P ~N ~N ~N ~N ~N ~N ~N ~N fI fI %A 0A Dz Bv zl 1u $G &l 'n *l #G -o Qq Qq <H <H gS gS kT lT mT mT [T MS $o jo &q %o %o &o &o *o @o @o =o io =o @o @o @o @o ;p 0r 0r 0r 0r 7k 7k io oo _K (K tL }T nT oT KN                                                                                                                                                                      ",
"                                                                                                                                                            dy pT Fh rh qT rT 5T sT tT zC 6C uT ex |S JQ vT 3H &C _q _q %C vq vq vq 3p 3p 3p Op wT Su yy jB Tu yr /v (v `v xT Wz 8p 7w :v Rw zS yT zT AT +S lG 0T aT DS %T BT CT SO DT ET fT FT GT TO PS PS iS iS HT IT <H Qq Qq <H hT YP sM iT jT jT JT 4P ~N ~N ~N ~N ~N ~N ~N ~N @R @R KI %A 'A Bv zl 1u &l &l LN 'n 6r #G -o -o Qq <H gS gS kT kT lT lT <T [T gH jo &q %o %o &o %o &o @o @o =o io =o @o =o @o @o ;p 0r 0r 0r /m 7k 7k io Pq _K .K KT }T LT MT +M                                                                                                                                                                      ",
"                                                                                                                                                            FJ Nf qm NT >z GF OT yC PT yG yq yq |S SH lR 4H yS hu &C _q vq $C $C $C 3p Op Op 2S wT 8T Su Es GB Xv eP uv 5w xT Wz Jn 7w vv lm ]M QT +T =O wR OG nG RT $T %T ST cT CT TT DT UT VT GT TO PS PS WT WT iO XT YT HT lw IT YP :M }L >w iT jT jT :T ~N ~N ~N ~N ~N ~N ~N ~N ZT ZT @R KI 0A Dz Bv zl &l &l &l LN 5r 6r #G -o <H <H NS NS `T `T `T kT <T [T gH jo &q %o %o &o %o &o @o =o io io =o @o =o =o @o ;p 0r 0r /m /m 7k 7k io Pq pk _K }T }T nT  U .U                                                                                                                                                                      ",
"                                                                                                                                                            93 Mf 6i 7o |p 8D OT +U yG oH <q <q SH pH @U wE {J )v Mp Np fx mR -x -x XR Do Do Do XR XR >r >r GB Fs Ct Js Bt Is #U 1t pQ 0O $U %U &U NO BS *U fH FH DS CS %T ZL cT =U -T ,O -U UT VT FT tP tP QS WT LR ;U LR iO ~S OS rM /T sM >w iT jT :T :T ~N ~N ~N ~N ~N ~N ~N ~N ~N ZT ZT fI KI 0A Dz Bv &l &l &l LN ;w 5r 6r #G hH hH NS gT gT gT gT NS gS <T gH $o &q %o &o &o %o &o =o =o io io io =o =o =o @o @o /m /m /m /m 7k 7k io #o ok qk }T }T >U >U ,U                                                                                                                                                                      ",
"                                                                                                                                                            83 lp 9o Qm |p 8D +U tS PT dF <q <q |S {J 'U wE {J Tv Mp :q xq mR -x !v XR Do Do {y {y Do XR >r :s Fs Ct Js Bt Is #U 1t jM )U TQ %U &U !U VL *S dO 7S RT CS %T ST cT CT -T ,O -U UT VT FT ~U ~U PS jS XT ;U {S {S LR iO {U RS jT jT :T JT JT JT ZT ZT ZT ZT ZT ZT ZT ZT ZT ZT ZT ZT fI %A 0A Dz $G &l &l LN ;w 5r 5r 5r ]U ]U gT ^U ^U gT gT gT gS gS ]T $o &q %o &o &o %o &o =o =o io %p io =o =o =o @o @o /m /m /m /m /m 7k io #o {l pk |T |T MT /U <a                                                                                                                                                                      ",
"                                                                                                                                                            %q bo 9o Po |p 8D +U ,E YG (U <q yq _U _U `I vE  J Mp JK :q xq mR mR -x XR XR Do {y Do >r ]y :U :s Fs <U [U Bt Is #U 1t oQ 0O SQ kM }U :R (R *S |U ^K #T CS %T ST cT =U ,O TT eT fT VT FT ~U ~U iS iS ~S iO {S 1U 1U {S 2U 3U jT jT :T JT JT JT ZT ZT ZT ZT ZT ZT ZT ZT ZT ZT ~N ZT @R fI %A 0A {N $G &l LN 5r 5r ;w ;w IT IT IT IT IT ]U ]U hH NS gS ]T $o jo %o &o &o &q %o =o =o io %p io =o io =o =o @o /m /m /m 7k /m 7k io #o Gl {l 4U |T ~O 5U y)                                                                                                                                                                      ",
"                                                                                                                                                            6U %w Ts Po 7D 8D +U YS 6T 7C Eo Eo 7C AC 7U 8U LJ JK Np fx fx xq xq xq >r XR Do Do XR ]y 9U ^v :s Fs <U [U Bt Is |t 1t pQ jM aO $U 0U <R (R cO |U ^K #T CS %T ZL aU aU TT DT eT fT VT VT bU bU iS iS YT XT ;U cU cU 1U 2U 3U jT iT jT :T :T jT ZT ZT ZT ZT ZT ZT ZT ZT ZT ZT ~N ~N ZT @R KI %A {N $G &l 'n 5r 5r ;w $A lw lw lw lw IT ]U ]U hH NS gS ]T $o jo %o &o &o &q %o =o =o io %p io =o io =o =o @o /m /m /m 7k /m 7k io %p Fl {l 4U |T dU .b                                                                                                                                                                         ",
"                                                                                                                                                         eU xl $w Ht fU 1p (U +U YS zC Sv wt wt 6C ZG `I 8U LJ Np fx xq xq xq mR -x {y Do XR XR >r ]y GB Tu _t gU [U hU FO GO 1t iU jM )U TQ %U <R jU kU lU mU /H RT DS DS CS nU oU DT ET UT fT VT FT ~U tP ~U ~U OS ~S XT iO LR ;U 3U {U :T jT jT jT jT :T ZT ZT ZT ZT ~N ~N kO nw kO ~N ZT @R @R @R @R ZT IN pU qU 2G rU rG $A $A rU rU rG rG $A $A IT IT gS gS Qq Qq ]T gH $o $o jo jo #o #o Pq Pq %p =o +o +o +o ho pg pg pg pg +p +p @s @s _m yl [M ]N fb sU                                                                                                                                                                         ",
"                                                                                                                                                         tU 0r uU vU wU xU zC yU uS >F 7C nH vr ov Tv ^I 8U Mp Np fx fx xq xq mR -x XR >r >r !u ]y Es ^v yr _t gU zU hU Is GO HO iM )U AU &O 4S BU CU DU EU XL /H DS DS $T CS nU FU ,O ,O dT -U eT UT hS hS bU ~U OS ~S XT iO ;U ;U {U {U :T jT jT jT :T :T ZT ZT ZT ZT ~N ~N kO kO ~N ZT @R @R @R @R @R ZT IN pU GU sG rU rG rG $A rU rU rG rG rG $A lw lw NS gS <H Qq ]T ]T gH gH jo jo %p %p #o #o %p io +o +o +o ho pg pg pg pg Tf Tf @s +o _m yl [M ~O gb                                                                                                                                                                            ",
"                                                                                                                                                         HU `s IU JU |s ov zC +U 5T AC KU Eo Bo )v )v ^I LU Fw MU GP ,x ,x 'x #C >x xr !R NU NU IP yt Fs !P FB OU Js FO Is GO HO iM )U AU &O 4S !U PU WL EU XL /H $T CS CS fO nU FU gO QU RU ;T dT -U NS gT hS bU OS ~S XT iO ;U {S {U {U :T :T jT :T :T :T @R ZT ZT ZT ~N ~N ~N kO ZT @R @R @R fI @R @R @R )N KR 'N SU TU rU rU rU rG rG rG rG rG rG rG UU gT NS hH <H Qq ]T ]T ]T $o jo io io %p %p %p io +o +o +o ho pg pg pg pg pg Tf +o ho ~n yl [M MN VU                                                                                                                                                                            ",
"                                                                                                                                                         wA es WU Jy XU )v yG YU yG _U Ou ZU |p `G HF ^I LU Fw MU GP ,x 'x 'x >x bP !R !R NU IP IP :s Fs !P FB OU `U FO Is GO HO iM oQ )U TQ %U  V lM mM lU ;O FH CS fO FS %T FU oU gO QU .V RU ;T dT NS NS hS bU HT YT qM iO ;U {S {U {U :T :T :T :T :T :T @R ZT ZT ZT ~N ~N ~N ~N @R @R fI fI fI fI @R @R )N KR 'N SU +V TU TU TU rG rG rU rU rU rU rU rU IT ^U ]U hH hH <H Qq Qq gH jo io io io %p %p io +o +o +o ho pg pg pg pg dt pg ho ak nk Dj [M wL @V                                                                                                                                                                            ",
"                                                                                                                                                      #V 3u 2v $V %V &V Dw *V fD -D ZG Ou /t nH vr dF -D *V Dw =V ,x 'x #C >x bP ;x !R NU NU IP -V :s Fs _t Yv ;V 5w xT pA >V mA ,V `R <v zS AS +T ^M VL cO OG FH CS FS %T ES oU bT -T -T ;T dT -U eT ^U ^U hS bU HT YT qM iO LR ;U RS RS JT JT JT JT JT JT @R @R ZT ~N ~N ZT ZT ZT fI fI fI fI fI fI fI KI KR KR 'N SU +V +V sG sG {N {N {N {N {N {N 2G TU lw hS IT IT ]U hH hH <H ]T $o %p io io io io =o +o +o +o ho pg pg pg pg >n pg fo xl Dj Dj [M 'V                                                                                                                                                                               ",
"                                                                                                                                                      )V zg 5k !V Vp ~V HF *V vE -D SH yq {V vt nH ]V -D *V MU GP #C >x bP ;x FP [C IP -V -V yt :s <s !P gU zt VK xT pA >V ^V ,V lA <v {M ]M TL =O BS VL #S ^H nG DS fO FS ES bT cT TT TT -U eT UT fT bU bU bU bU HT YT qM XT iO LR RS RS JT JT 4P JT JT JT @R @R ZT ~N ~N ZT @R @R fI fI fI fI fI KI %A %A KR 'N 'N SU +V +V qU qU 2G 2G 2G 2G 2G 2G 2G TU HT bU UU lw IT ]U ]U ]U <H ]T Pq #o %p io =o @o +o +o +o ho pg pg pg pg %R dt ak wl yl nk [M &c                                                                                                                                                                               ",
"                                                                                                                                                      /V (V 5k _V :V ~R HF LU wE -D pH <q <V jz Eo [V -D *V GP 'x >x ;x FP [C ix gx :s EO <s <s Fs _t OU Gs ~L bK IA ^V xJ 'K Xz xH @n !z AJ <k XJ 0I {H #S EH ^K }V DS CS %T bT =U DT DT eT UT fT VT ~U ~U ~U ~U OS YT ~S qM XT iO RS RS JT 4P 4P 4P JT JT @R @R ZT ~N ~N ZT @R fI @R @R @R fI KI %A 0A 'A 'N SU SU +V +V +V qU qU sG sG sG 2G 2G 2G {N rU OS ~U HT UU lw IT IT ]U hH <H 4r oo #o %p @o no +o +o +o ho pg pg pg pg eo >n xl xm yl nk *L |V                                                                                                                                                                               ",
"                                                                                                                                                      47 ^d gw 1V Pn ,r xU RH yM WI WI `G 2V 2V 1p Fw 3V 4V ,x #C bP FP [C ix gx EO Fs <B !P 5V lu 6V VK FO pA IA $B 8p ,V FA xH {M )z )K 7V ]R 8V VL {K |U #S 6S 9V }V DS FS ST =U DT DT eT UT fT VT bU ~U ~U ~U OS YT ~S qM qM XT _T RS JT 4P 4P 4P 4P JT fI @R ZT ~N ~N ZT fI fI @R @R @R fI KI %A 'A Dz SU SU +V +V +V +V qU qU qU qU sG sG 2G 2G {N rU OS OS HT HT UU lw IT IT ]U hH Qq ]T $o &q wp mo @o +o +o ho pg pg pg ho $R ak xl 0k Mj nk *L fb                                                                                                                                                                               ",
"                                                                                                                                                   0V A0 Cj aV bV th 5q Fn 'u Lp zG ZG ZG ov Fw Dw cV cV cV =V GP xq !v Es Tu ku ~u Yv dP cP dV tv fP IA HO 8p 8p Ln Nn 7w `R vv eV lm Zz fV TL NO !U 8V cO |U gV hV 8S iV jV FS %T CT CT SO kV 2P lV GT iS jS mV nV oV nV nV rM (T (T (T iO LR jO UO pV pV JT :T iT iT jT iT >w sM 'N 'N 'N 'N SU SU SU +V 2G 2G 2G 2G 2G sG sG sG KI KI %A 0A 0A 'A Dz Dz  K  K  K  K YP YP YP YP qV qV rV sV tV uV vV wV =o @o @o ;p ;p @o +o >p xm nk ~n ~n ~n nk si %c 9a                                                                                                                                                                            ",
"                                                                                                                                                   Xa ym gs xV yV zV =u dl Fo uI )v ZG -D .D ^I AV BV cV 5C GP ,x mR Uv 9U Xv lu Yv CV CV /u Et DV ~P |t 1t Nn rR rR rR EV FV GV HV lm Zz fV TL NO lM ^R zR |U gV hV 8S eO 9S FS FS SO SO IV JV lV KV TO PS jS mV mV mV mV mV (T (T _T _T LR ;U UO pV LV LV :T jT iT iT iT iT >w }L SU SU SU +V +V +V TU TU {N 2G 2G 2G 2G sG sG sG %A %A %A %A %A 0A 'A 'A  K  K  K  K JH JH JH JH qV rV MV NV OV PV QV vV &o @o @o ;p ;p @o iy >p yl nk ~n nk nk nk ri  s KN                                                                                                                                                                            ",
"                                                                                                                                                RV f8 sg np SV cC sh TV gm }p UV )v {J -D .D .D AV BV =V GP fx xq !v Gx ^v ku sv ;V uv `v DV Ls {P #U |t |t mx mx Mn mx EV FV GV HV zS ]M *O pL NO lM ^R AR %S VV WV XV YV ZV %T ES SO IV JV `V KV  W 3P jS QS .W .W +W +W .W (T (T _T _T LR LR ;U {S pV pV jT iT sM sM >w sM }L KH TU TU TU TU TU rU rU rU {N {N {N 2G 2G sG sG sG 0A %A KI fI fI KI %A 0A `J `J `J  K JH JH hT hT @W @W sV #W OV PV QV $W &o @o @o ;p ;p @o @o =o nk ~n ~n Dj nk nk yl [M lO                                                                                                                                                                            ",
"                                                                                                                                                %W B0 &W pD *W =W -W gm ;W }p `G Tv WI .D .D .D AV BV GP 'x mR -x pv Jx yr Yv zt ~L  w  w Ls {P #U #U #U |A rR mx mx rR >W ,W HV 'W zS ]M *O pL !U lM PU AR dO WV XV iV 9S )W ES ZL CT IV JV `V  W  W 3P 3P jS .W .W +W +W .W rM /T /T rM qM XT XT iO mw mw >w sM }L KH }L }L `J  K rU rU rU rU rU rU rU rG $G {N {N {N 2G sG sG sG 'A 0A KI @R @R fI KI %A KH KH `J  K hT hT !W !W sV sV #W tV ~W PV PV uV &o @o @o ;p ;p @o @o =o _m >p ~n Dj Dj ~n nk mO 1T vP                                                                                                                                                                         ",
"                                                                                                                                                {W 3h 73 wz jE PN ]W @m ^W /W <q Tv  J .D .D .D Fw =V 'x #C !v pv 9U Xv ~u ;V Bt FO pA pA #U #U |t |t RQ RQ 7w 7w Nn 7w ,W HV aO SQ Zz AS TL 5S !U (R PU (W dO WV XV iV 9S )W ES ZL cT CT IV _W KV KV GT FT PS PS jS jS jS PS iS tP OS OS YT YT ~S ~S qM qM }L KH `J  K `J `J  K .K rG rG rG rG rG rG rG rG $G $G $G {N 2G 2G sG sG 'A 0A KI @R @R @R KI %A +V TU rU rG $A ;w ]U hH [T MS :W fS [Q [Q [Q AQ Wq pw @o ;p ;p @o @o =o iy iy _m Dj nk _m _m <W +M [W                                                                                                                                                                         ",
"                                                                                                                                                37 e| %y :z }W Ri dl  m ^W /W yq ov ^I ^I .D .D Fw =V #C bP Gx Kx Tu ku sv VK FO Is |W |W iU iM iM iU nQ nQ :v `R `R `R GV eV aO SQ Zz AS TL 5S lM ^R kU (W (M hV 8S eO 9S 1W ES ZL aU cT SO JV 2W lV VT fT ~U ~U ~U ~U ~U bU hS hS HT HT HT OS OS OS YT YT `J  K (K (K (K (K .K +K $A $A $A $A $A $A rG rG &l &l $G {N 2G 2G sG sG 0A %A KI fI @R fI KI KI SU +V TU rG $A 5r hH <H [T MS fS AQ 3W 3W 3W 3W Wq pw @o ;p ;p @o @o =o iy iy >p nk ~n >p >p 4W 'V 5W                                                                                                                                                                         ",
"                                                                                                                                                x0 5h :K 6W BE 7W gm  m ^W uI |S ZG 8U ^I .D .D Fw GP #C ;x 9U ^v yr Yv zt ~L xT pA 8W 8O 9W 0W )U jM pQ Ms :v `R 7w 7w ,W HV 'W aO ]M fV pL UL lM ^R kU aW dO WV XV iV ZV )W ZL ST FU aU CT kV 2W 2W UT eT 2P sP bW XP NS NS NS NS ^U ^U IT lw hT hT JH JH JH hT !W ^T !W ^T JR !S ]U ]U ]U ]U IT IT IT ;w &l &l $G {N 2G 2G sG sG %A %A KI KI KI KI KI KI qU sG 2G $G ;w 6r <H Qq ]T gH fS {T 5R 5R cW 3W Wq pw pw ~w ;p @o @o =o @o ;p >p ~n _m iy iy 4W dU dW                                                                                                                                                                         ",
"                                                                                                                                                c8 go Of eW %h fW gm ^W tI Lp ZG _U 8U ^I .D -D Fw GP >x FP ^v Xv ku sv VK gW xT pA iM hW iW jW kW )U pQ lW `R 7w 7w Nn FV ,W HV eV ]M fV pL UL (R ^R kU aW mU eO iV ZV )W mW BT nW &T aU CT kV 2W 2P UT eT oW pW kT lT [T <T <T <T gS gS hH hH JR JR JR ^T hT !W ^T ^T ^T ^T JR #A <H hH hH hH ]U ]U ]U ]U LN &l $G $G {N 2G sG sG %A %A %A %A %A %A %A KI GU qU 2G $G ;w 6r Qq Qq ]T gH fS {T 5R 5R cW 5R Wq pw pw ~w ;p @o @o =o @o ;p iy _m >p bk iy qW MN dW                                                                                                                                                                         ",
"                                                                                                                                             wP 3u qg rW *W sW fW tW ;W .J Lp WI  J ^I 8U RH RH =V ,x >x FP 9U Xv Kw uK 1B |W 1B ^V 9W iW %O uW vW )U pQ lW <v vv vv vv HV 'W SQ $U ]M fV pL qL PU DU wW xW yW ZV ZV 1W )W zW nW AW SO IV JV _W 2P sP UT UT 2W 2P pW BW CW CW .V ;T [T [T <T [T QI #A JR ^T JR !S #A QI QI QI #A #A Qq Qq Qq <H <H <H <H <H 'n 'n 'n LN &l $G 2G sG Dz Dz 'A 'A 0A 0A 'A 'A sG qU qU sG rG 6r 4r #o &o %o {T {T {T Rq Tq ~T ~w 9r #y 9r ~w Wq =o =o =o =o =o %p =o ;p bk DW +M 5W                                                                                                                                                                         ",
"                                                                                                                                             EW FW og GW oF HW al =r IW &C Lp  J zG RH JW JW yM ,x #C FP ix GB Xv ]x uK |W KW KW KW iW +N vW vW kW AU )U jM <v <v vv vv eV aO $U TQ pL 5S (L LW OO MW NW xW OW 1W )W PW zW QW AW RW IV kV _W `V 2P sP eT eT 2P sP SW BW ,T ,T TW RU MS [T [T [T BQ QI !S ^T !S !S #A QI QI QI #A #A Qq Qq Qq Qq Qq Qq <H <H 'n 'n 'n LN &l {N 2G 2G Dz 'A 'A 0A 0A 0A 0A 'A sG sG sG sG rG 5r -o oo %o %o {T {T 5R Rq Tq ~T 9r #y #y 9r ~w pw @o @o =o @o =o io =o ;p bk qW 'V 5W                                                                                                                                                                         ",
"                                                                                                                                             UW hI GE VW iE Ok WW XW Kp YW 3H 4H vE wE QE 1N Gw #C ;x yt EO Tu lD uv IA ZW +B iW +N `W `W AU AU AU kW  X  X {M {M {M {M $U kM %U .X qL /R LW $N DU MW wW +X OW )W mW zW QW @X RW #X IV JV `V `V 2P oW -U -U IV SO =U aU FU FU ,T >T :W MS MS MS tV #W @W qV #A #A #A QI QI QI QI QI ]T ]T ]T ]T Qq Qq Qq Qq *l *l LN &l $G {N {N {N 'A 'A 0A 0A 0A 0A 0A 0A 2G $X $X %X &X *X hK =X qG qG qG *q -X ;X >X ,X #y 'X 'X #y ~w pw ~w 9r @o ;p @o io =o ;p @o :m 'V 5W                                                                                                                                                                         ",
"                                                                                                                                             b5 FJ Kq pF )X !X /s (q %C `A BC vE wE wE QE 1N Gw >x FP :s Xv lD JB  w IA KW @B jW ~X `W `W AU AU kW %O {X ]X vK vK vK vK .X ^X /X (X /R LW _X $N OO DU MW :X yW 1W PW <X QW @X AW AW IV kV _W JV oW SW ;T ;T CT =U cT oU &T &T [X ,T fS :W :W :W }X tV sV rV #A #A #A QI QI QI QI QI ]T ]T ]T ]T ]T ]T Qq Qq wm *l LN &l $G $G $G $G Dz 'A 'A 0A 0A 0A 0A 0A %X %X %X %X &X ,n ,J 4J *I *I qG *q 'T ;X >X ,X 1z 1z 1z #y 9r ~w 9r #y ;p no ;p =o =o ;p @o Fl wL |X                                                                                                                                                                         ",
"                                                                                                                                          %' #9 1X Of 2X ^E 8H ^t 3X MJ MJ tJ wE QE 4X MD 1N Gw >x FP GB Xv (v uv 5X >V KW 6X 7X 8X %O %O uW 9X .X 4S ^X 0X aX aX aX aX 0X bX cX dX /R _X $N $N OO DU MW :X rL ZV )W mW zW <X nW nW SO IV kV kV pW BW .V .V cT eX ST ES &T nU fX [X gX hX :W :W }X tV sV rV #A #A #A #A #A QI QI QI ]T ]T ]T Qq Qq Qq Qq Qq wm *l LN &l $G $G $G &l Bv Dz Dz 'A 'A 'A 'A Dz iX iX &X &X jX jX %L %L TS 9k kX *q ~w 9r ,X ,X lX lX lX mX #y 9r #y 'X 9r #y no @o @o ;p =o Gl wL 5W                                                                                                                                                                         ",
"                                                                                                                                          nX 3f oX <D pX zE qX uq `A MJ _B wq dE dE MD TN Gw gD bP [C ^v yr  w 5w IA |W .B |B rX sX tX uX uX vX bX bX bX (X wX wX aX aX 0X /X (X cX LW _X xX yX zX AX NW xW rL 9S ZV )W mW zW BT BT =U CT IV SO BX >T TW CW ST CX ST ES nU nU fX [X hX DX MS MS tV #W @W qV #A #A !S !S !S #A #A QI Qq <H <H <H <H <H <H hH 6r 'n 'n LN &l &l &l &l zl zl Bv Bv Bv Bv Bv Bv iX iX jX jX ,n ,n eI eI =X %l *I Wq ~w #y ,X ,X lX EX EX EX 1z 'X 'X 'X #y 'X mo ;p @o @o io {l wL 5W                                                                                                                                                                         ",
"                                                                                                                                          FX 9z 6b :D GX >C HX (q `A MJ eF sH ND ND 'E NQ |N IX FP gx Xv ku 5w xT ^V KW 3I JX yN KX LX LX MX NX bX (X (X cX OX zN wX wX 0X /X (X cX LW _X xX PX AX NW QX RX .L 9S ZV 1W PW zW BT nW cT CT SO SO BX >T TW CW ST CX CX SX nU nU fX [X >T BW [T [T #W sV rV TX rV rV qV qV qV rV @W @W NS NS NS NS gT gT gT ]U 5r 'n 'n 'n LN LN &l $G @y @y 1u 1u 1u 1u 1u 1u iX UX 3x 3x *X ,n %L eI 4J =X *I Wq 9r #y ,X ,X mX EX VX VX WX 1z 'X 'X 'X 1z 'X ~w ;p @o %p ok 'V 5W                                                                                                                                                                         ",
"                                                                                                                                          XX d3 YX ZX QF hj -r vq YW MJ UH UH ND Gw iQ >P PD fE ix hx <B ~u gW pA 1B .B ]L `X  Y .Y +Y @Y #Y vX uX zN OX #N LX MX NX vX /X bX (X cX (X LW $N yX $Y %Y &Y *Y yW ZV 1W )W PW CX AW CT cT CT SO SO BX BW .V aU oU =Y -Y ;Y nU >Y fX [X BW BW <T [T sV @W qV TX rV qV qV qV qV qV rV @W gT gT gT gT ^U ^U ^U IT ;w 'n 'n 'n 'n LN &l $G Qj Qj Qj @y @y @y @y LN ,Y UX 3x *X *X *X %L eI ,J =X *I Wq 9r #y )T ,X mX 'Y VX =w )Y !T 'X #y 'X 1z 'X 9r 0r @o 8k 4r !O VU                                                                                                                                                                         ",
"                                                                                                                                          77 !Y 9q Ny kj Mk wT mR xq -x !v mR Gw #C |N ;x [C gx hx Ix 0K jL dJ At hB ~Y {Y ]Y ^Y /Y (Y _Y _Y :Y <Y KX KX [Y }Y |Y 1Y 2Y 3Y 3Y 3Y 3Y 4Y 5Y 6Y 6Y 7Y $Y 8Y 9Y yW ZV 0Y aY SX =Y bY cY BX BX BX BX =U =U =U =U BX >T CW CW >T DX hX [Q gX hX mT kT XP XP XP XP rV rV qV TX dY eY eY fY dY dY TX TX TX dY eY hT rG $G $G &l LN 'n 'n *l LN LN LN LN LN LN LN LN &l &l LN LN 'n 5r 6r 6r 6r #G ]T jo &o wp ko ,X gY hY iY jY kY JS lY mY lY lY lY mX 5x 9r eq #l zl cq                                                                                                                                                                         ",
"                                                                                                                                       %' j8 nY `o Pr kj 0l wT mR xq -x !v mR #C #C bP FP gx oY Ix 0K cM pY lL qY rY sY tY uY vY wY xY yY _Y (Y zY AY BY <Y <Y CY |Y DY 2Y EY 3Y 3Y FY GY HY HY IY JY 8Y KY .L ZV aY LY -Y =Y rP cY BX BX BX BX =U =U AW =U SW lT DX mT lT lT mT DX hX DX lT `T XP XP XP XP rV qV qV TX dY eY fY fY eY eY dY dY dY eY fY JH rU $G $G &l LN 'n 'n *l 'n 'n 'n 'n LN LN LN LN &l LN LN 'n 5r 6r 6r 6r 6r #G Qq $o &q *o ko ~T gY MY NY OY kY PY QY RY lY lY lY mX 5x Zw eq qG 5r ZJ SY                                                                                                                                                                      ",
"                                                                                                                                       TY h8 UY Of VY kj 0l 2S mR xq -x !v -x >x bP [C gx Hx UK WY )D sN XY qY YY ZY `Y  Z uY .Z +Z xY yY _Y (Y zY AY AY <Y @Z }Y }Y |Y 1Y 2Y 3Y #Z $Z $Z %Z %Z xX PX &Z %Y .L ZV aY SX =Y 1P rP rP BW BW BW BW cT cT -T -T SW lT lT lT kT `T kT lT DX lT kT XP bW bW XP XP qV JR JR ^T !W hT hT JH JH JH JH JH JH YP :M :M rU {N $G &l &l LN 'n 'n *l *l *l 'n 'n 'n LN LN LN LN LN 'n 6r 6r #G #G #G #G <H ]T $o %o wp Tq RY *Z hY GR jY kY JS =Z mX lY lY mX lY mY qw *q -o !O Dl                                                                                                                                                                      ",
"                                                                                                                                       T= -Z (f  F ;Z >Z Mk 2S xq xq !v Uv !v bP ;x gx oY UK WY NL ,Z XY 'Z )Z YY ~Y sY `Y tY uY .Z wY xY (Y /Y AY !Z !Z @Z @Z ~Z ~Z ~Z |Y DY LX #Z {Z ]Z dX %Z xX PX &Z %Y .L ZV LY ^Z 1P bY rP rP BW BW BW BW cT cT -T RU BX lT lT lT kT `T `T `T lT kT XP bW /Z bW XP gT JR JR ^T ^T !W hT hT hT YP YP YP YP :M :M (Z (Z 2G {N {N $G &l LN LN 'n wm wm wm *l *l 'n 'n 'n LN LN 'n 'n 6r #G #G #G 4r -o Qq Qq gH &q wp ~T RY _Z *Z NY jY :Z iY 'Y lX mX lY lY lY mY Vq pw 4r ^N #p                                                                                                                                                                      ",
"                                                                                                                                       <Z [Z UB DE Hy Cy |o Op xq xq !v pv pv FP [C oY Ix 0K jL )D }Z XY UM )Z |Z 1Z 2Z {Y `Y tY uY vY vY /Y AY !Z 3Z 4Z 5Z 5Z 6Z 6Z 7Z uX NX LX 3Y (X cX %Z 8Z PX &Z KY 9Z .L 1W SX CX bY bY BX BX BW BW BW BW -T -T -T RU .V MS [T [T <T <T gS gS NS gT ^U hS hS ^U gT NS JR JR JR ^T ^T !W !W !W JH JH YP :M :M (Z (Z (Z 2G 2G {N $G $G &l LN LN wm wm wm *l *l *l *l 'n 'n 'n 'n *l #G #G -o -o oo 4r Qq Qq gH &q wp ~T RY gY gY QY kY :Z kY PY EX mX lY lY lY lY mY ~w oo |L SA                                                                                                                                                                      ",
"                                                                                                                                       0Z aZ bZ TC cZ im zy *C fx xq !v Gx Gx [C ix Hx UK 0K kL )D }Z XY UM dZ |Z 1Z 2Z sY {Y tY  Z eZ eZ !Z 4Z fZ oL oL fZ ~X gZ gZ 7Z tX vX MX LX (X dX hZ iZ jZ 9Y kZ lZ OW 1W SX CX 1P mZ SW SW BW BW BW BW -T -T -T RU TW MS <T <T [T <T gS NS gT ^U hS hS hS ^U NS gS !S !S JR JR JR ^T ^T ^T !W hT JH YP YP :M :M :M sG 2G 2G {N $G &l &l LN *l *l *l *l *l *l *l *l 'n 'n *l *l #G -o -o -o Pq oo ]T ]T gH &q *o Tq mY nZ nZ =Z PY kY kY kY EX lX lY lY lY lY lY ,X jo 4U y, oZ                                                                                                                                                                   ",
"                                                                                                                                       )V Gv @q pZ :y *B zy *C fx xq !v Gx Gx ix hx oY Ix 0K kL OL )M 'Z qZ |Z rZ sZ tZ 2Z 2Z sY `Y {Y `Y 3Z fZ ]L |B |B ]L jW uZ gZ 7Z tX vX vZ vZ cX %Z zX NW QX wZ xZ yZ zZ )W SX ^Z bT =U SW pW lT lT ;T ;T ;T ;T ,O ;T RU <T NS NS gS <T NS gT ^U hS hS hS hS gT gS <T #A !S !S !S !S JR JR JR JR ^T !W hT JH YP YP YP sG sG 2G {N {N $G &l &l 'n 'n 'n 'n *l *l wm wm *l *l *l wm #G -o -o 4r oo 4r ]T ]T gH jo &o Rq AZ nZ gY RY QY PY kY jY JS QY lY lY lY mX lY )T &o BZ =l @V                                                                                                                                                                   ",
"                                                                                                                                       P7 Xt fe qF :y *B Ru mR fx xq Uv Gx ~v gx hx hx Hx 0K kL OL YM UM CZ |Z DZ <t sZ ~Y ~Y ZY ZY sY sY fZ ]L |B @B 6X 6X +N jW gZ 7Z uX vX EZ EZ dX hZ AX %Y FZ GZ HZ IZ PW SX SX -Y bT BX pW oW lT lT ;T ;T ;T ;T ,O ;T gS NS ^U gT NS NS gT ^U ^U hS hS hS ^U gT gS <T #A #A #A #A !S !S !S !S #A !S ^T !W hT JH JH hT sG sG 2G 2G {N $G &l &l LN LN LN 'n *l *l wm wm *l *l wm wm -o -o 4r 4r 4r 4r Qq Qq gH $o &q %o ;X nZ gY RY =Z 'Y iY jY JS QY lY lY lY mX mX JZ lo KZ ^N LZ                                                                                                                                                                   ",
"                                                                                                                                    MZ 77 d9 mn VY fl oB ;r NZ xE xE xE xE SE Hw QJ jx 8K OZ eM PZ XM QZ oN |Z rZ <t <t <t <t ~Y ZY ~Y ~Y }B }B RZ SZ oL fZ TZ TZ yN KX vX MX cX dX kU DU MW wW UZ VZ WZ IZ mW ST BT =U SO oW sP bW bU bU bU hS eT -U ;T ;T gS qV TX dY dY TX qV rV eY eY fY fY eY dY qV rV JR !S #A QI BQ XZ XZ XZ !S !S JR ^T !W hT JH JH zl zl Bv Bv Bv zl zl zl zl zl zl 1u @y Qj Pj Oj Pj Oj Nj Mj ok ok ok pk ok ok QI QI QI QI QI ]T IH ;X JZ YZ !T !T ZZ `Z  ` .R .R .R .R  ` .` .` ~T +` sA VU                                                                                                                                                                   ",
"                                                                                                                                    @` g3 p0 #` $` Qk ^s NZ UH UH NZ NZ xE SE Hw QJ jx !x OZ eM PZ XM QZ oN %` rZ gB <t <t sZ ZY 2Z ~Y ~Y }B RZ RZ SZ oL fZ ~X TZ sX KX vX NX cX cX OO DU MW :X UZ VZ &` *` ST BT =U SO oW 2P /Z =` ~U ~U bU hS UT eT -U gS gT dY eY fY fY eY dY TX fY fY fY fY eY dY TX qV JR !S #A QI BQ XZ XZ XZ #A !S JR ^T !W hT hT  K Bv Bv Bv Dz Dz Bv Bv zl Bv Bv Bv zl 1u @y Qj Pj Pj Oj Nj Mj {l {l ok ok ok ok QI QI QI QI QI QI TW -X ,X JZ JZ JZ .R -` .R .R .R .R .R  ` .` eS ~T ;` uL >`                                                                                                                                                                   ",
"                                                                                                                                    O; g8 1X EE cZ *B ~E UH wq _B _B UH NZ  B )x QJ RJ !x OZ eM PZ XM QZ oN dZ |Z gB <t <t sZ tZ ,` ~Y ~Y }B RZ SZ '` )` fZ uZ rX 8X yN wX OX (X cX DU zX PO :X !` ~` {` ]` AW RW SO kV 2W lV tP tP tP tP tP tP ^` /` 'O IT bU fY (` o) o) (` fY fY o) o) (` fY eY eY dY dY JR _K pk ok {l Gl Fl Fl ok pk qk _K +K .K .K (K Bv Bv Dz Dz 'A Dz Dz Dz Dz Dz Dz Dz Bv zl 1u @y Pj Oj Mj yl {l {l {l {l ok ok QI QI QI QI QI QI .V IH ;X ,X ,X )T JZ YZ .R .R ZZ ZZ .R  ` KS _` :` <` uL [`                                                                                                                                                                   ",
"                                                                                                                                    }` '0 (f |` VD ^x OJ dE BC tJ wq _B UH  B )x QJ >K kx OZ eM PZ XM QZ oN dZ |Z gB <t <t sZ tZ ,` ~Y ~Y }B RZ SZ '` )` )` 7X rX 8X yN wX OX (X cX zX MW :X 1` QO 2` 3` 4` #X 5` JV `V KV 6` PS jS iS PS PS PS 7` ,N ,N HT ~U o) o) oV oV o) o) (` oV oV o) (` fY eY eY hT +K _K qk ok {l Gl Fl Fl {l ok ok pk qk _K +K +K Bv Bv Dz 'A 'A 'A 'A 'A 'A 'A 'A 'A Dz Bv zl zl Pj Oj Nj yl {l {l {l {l ok ok QI QI QI QI QI QI ;T TW -X ;X >X >X )T JZ .R ZZ ZZ ZZ .R .` KS LS cW 8` <M 2T                                                                                                                                                                   ",
"                                                                                                                                    j3 #t UB Wn 9` Nx }K QE LJ BC tJ _B UH  B Hw jx 8K ML 0` eM PZ a` QZ b` WM c` d` e` <t <t sZ tZ tZ tZ RZ RZ SZ '` )` f` 8X sX yN [Y zN #N cX dX MW wW !` g` h` {` i` j` k` l` _W m` 3P n` QS QS o) oV YT YT YT YT 7` OS OS :M (Z (Z (Z (Z :M :M /T (Z :M YP JH JH JH JH +K _K qk ok {l Gl Fl Fl Gl Gl {l ok pk qk _K _K zl zl Bv Dz 'A 'A 0A 0A 'A 0A 0A 'A 'A Dz Bv Bv Qj Pj Oj Mj {l {l {l ok ok ok QI QI QI QI QI QI =I o` IH -X ;X >X ,X )T .R ZZ ZZ ZZ >S yQ p` q` r` s` t` u`                                                                                                                                                                   ",
"                                                                                                                                    v` av le 3k w` SD RE MD 5H BC wq _B NZ )F QJ >K !x ML 0` eM PZ a` QZ b` CZ c` d` d` gB gB <t sZ tZ tZ RZ RZ SZ '` )` f` yN KX [Y x` {Z $Z hZ 8Z AX NW VZ y` {` *` z` A` k` l` _W m` 3P n` QS QS (` (` OS YT YT YT 7` YT OS :M :M :M :M :M :M :M (Z (Z (Z :M YP JH JH hT .K +K qk ok {l Fl Fl Bm Fl Fl Gl {l ok pk pk qk @y 1u zl Bv Dz 'A 'A 'A 'A 'A 'A 'A 'A Dz Bv Bv 1u @y Pj Oj pk ok pk pk ok ok QI QI QI QI QI QI =I o` B` -X ;X ,X ,X ,X  ` .R ZZ -` 3R yQ C` q` D` E` F` G`                                                                                                                                                                   ",
"                                                                                                                                    H` I` /f 6W /r nB RE MD 5H BC wq UH  B fF RJ !x kx dM 0` eM PZ a` QZ b` c` J` d` d` gB gB gB <t tZ tZ K` L` '` )` f` f` .Y x` #Y @Y $Z 6Y yX PX AX %Y M` *` ]` z` eX A` 5` k` N` O` TO 3P jS QS o) oV ~S qM XT XT P` XT YT (Z (Z :M :M (Z (Z (Z :M (Z (Z (Z :M JH hT !W .K +K qk ok Gl Fl Bm Bm Bm Bm Fl Gl {l ok ok pk Pj Qj @y zl Bv Dz Dz 'A Dz Dz Dz Dz Dz Bv Bv zl Bv zl @y Qj qk qk qk qk ok ok QI QI QI QI QI QI =I o` *I Wq >X ,X )T )T .`  ` ZZ -` 3R >S C` Q` R` S` T`                                                                                                                                                                      ",
"                                                                                                                                 $' 47 U` 9q V` /r nB :B MD RH yM _B |N SE Hw >K kx kx dM 0` eM PZ a` QZ WM |Z W` <t gB gB W` X` Y` ZY K` RZ SZ '` )` f` TZ x` #Y @Y #Z 6Y iZ $Y wW AX g` {` <X eX A` A` AW 5` kV Z` `` TO 3P jS jS mV .W iO LR ;U {S {S {S (Z (Z (Z (Z (Z (Z (Z (Z :M :M (Z (Z :M YP hT ^T .K +K #G ok Pq Fl Bm Bm :m :m Bm Fl Gl {l ok ok Oj Pj Qj 1u zl Bv Dz Dz Bv Bv Dz Dz Bv Bv zl zl Dz Bv 1u @y +K _K _K _K ok ok ok QI ok QI ok QI <H o` *I Wq 9r )T )T )T JZ  ` )Y -` ZZ >S .`   .NV . .+ .                                                                                                                                                                     ",
"                                                                                                                                 @ .aZ $p +F yv Kn yr PD ;Q # .$ .'x % .[C & .DO * .eB pY = .rN XY 'Z UM )Z - .; .; .; .; .wN +B > .6X , .uZ TZ 5Z @Z @Z }Y MX ]Z HY ' .$Y &Z ) .! .~ .rL ZV :L ES ST nW { .ET hO Z` FT TO 3P qM XT {S {S {U RS :T :T :T {U (T .W rM /T sM sM >w >w }L KH `J  K JH hT dY TX hH <H ] .gH $l %p io io %p %p xl (m yl Mj Nj Oj Mj Nj Oj Pj Qj 1u zl zl Dz Bv Bv Bv Bv Bv Bv Bv `J `J  K (K Qj Pj Oj Nj Nj Nj Mj ok Mj {l yl {l -o -o oo jo Wq 9r 'X ^ .1z )T #y JZ EX QY lY ;X !S [L ZP                                                                                                                                                                      ",
"                                                                                                                                 3a e9 3r / .9w _v Xv ;x ;Q ( ._ .: .,P 'P CO * .2O eB pY sN < .[ .UM UM } .hB KW #B .B .B +B 9W 0W jW uZ ~X 5Z @Z <Y |Y |Y MX ]Z hZ ' .$Y NW ~ .!` rL ZV :L | .1 .2 .{ .3 .hO hO fT FT TO n` XT XT {S {S 3U {U mS SS SS 4 .rM mV /T (Z }L }L sM sM sM KH `J  K JH JH dY TX =I =I ] .kw $l 8k io io %p %p ak xl Dj yl Nj Nj Mj Nj Oj Pj Qj 1u 1u zl Bv Bv Bv Bv Bv Bv Bv Bv `J `J  K (K Qj Pj Oj Nj Oj Nj Nj Mj Mj yl Dj Dj 4r 4r oo #o *q ~w 'X 1z 1z 'X 'X 1z EX EX lY 9r pk wL ms                                                                                                                                                                      ",
"                                                                                                                              5 .6 .7 .8 .9 .=m Rz ^v ;x 0 .>x bP FP ix oY UK WY jL NL OL }Z gM fM a .a .b .c .KW #B +B @B @B @B +B uZ ~X 5Z d .<Y e .:Y 1Y LX f .hZ ' .wW %Y g .VZ yW )W | .BT nW AW DT hO hO Z` VT GT TO n` XT iO {S 1U ]S ]S 3U {U h .i ./T oV (Z :M KH KH }L }L sM }L `J `J YP JH eY TX =I ] .o` kw *I kX %p io io io io %p nk Dj yl Mj Mj Nj Oj Pj Qj @y 1u zl Bv Bv Bv Bv Bv Bv Bv Bv Bv Bv zl 1u Qj Pj Oj Oj Pj Oj Nj Nj Mj yl Dj Dj Pq Pq oo Pq %p @o #y 1z ^ .1z 'X 1z EX EX mX #y ok dU j .                                                                                                                                                                     ",
"                                                                                                                              k .%0 l .]m V` Vk m .GB IX 0 .;x FP [C gx Hx 9K WY kL NL OL }Z gM fM fM fM fM :J KW .B @B 6X 6X 6X @B uZ ~X 5Z d .<Y e .:Y DY LX n .8Z iZ NW 9Z o .M` 1W PW ST BT nW AW DT hO Z` N` FT GT 3P n` XT iO {S 1U ]S ]S 3U RS p .q .oV oV :M :M KH KH KH KH sM KH `J  K JH JH dY TX ] .o` o` kw *I kX %p %p =o =o io io ~n nk Dj yl Mj Nj Oj Pj Qj @y 1u 1u zl zl zl zl Bv Bv Bv Bv Bv zl 1u @y Qj Pj Pj Oj Pj Pj Oj Nj Mj yl Dj nk %p #o Pq oo #o =o 9r 'X ^ .1z 'X 1z EX r .lX 'X BQ s .lO                                                                                                                                                                      ",
"                                                                                                                              37 t .u .Kq SV w` m .GB IX gD ;x FP [C gx Hx 9K WY kL )D OL )M gM !M fM fM fM %J v .@B |B ]L ]L |B |B uZ ~X TZ d .<Y e .:Y 1Y #Z w .x .y .z .A .RX B .{` *` C .eX =U CT IV JV Z` N` `` O` 3P n` D .D .;U ;U 3U 3U {U _T rM /T oV oV (Z (Z KH KH KH KH }L `J  K (K hT hT TX qV o` kw kw *I *I kX %p %p io io io io Bm Fl Dj Dj Mj Nj Nj Oj Pj Qj @y @y zl zl zl zl zl Bv Bv Bv zl zl 1u @y Qj Qj Pj Oj Qj Pj Oj Nj Mj yl Dj Dj %p #o Pq oo Pq io ;p mo ^ .1z 'X 1z WX E .^ .*p F .G .1T                                                                                                                                                                      ",
"                                                                                                                           H .I .{w J .hw K .kj Qz 9U xE Gw ;x FP ix hx Ix 0K kL NL ,Z }Z YM gM fM a .a .)Z v .RL 6X |B oL oL oL oL ~X ~X 5Z @Z <Y :Y :Y DY GY L .M .N .O .P .B .Q .*` ]` eX A` CT SO kV JV Z` N` `` O` TO 3P n` D .iO iO RS RS _T (T /T (Z o) o) :M :M KH KH `J `J `J  K .K +K ^T ^T rV @W kw *I *I *I kX kX #o #o %p %p %p %p Fl Gl Dj yl Nj Nj Nj Oj Pj Qj Qj @y 1u 1u 1u zl zl Bv Bv Bv zl zl 1u @y Qj Qj Pj Pj Pj Pj Oj Nj Mj Mj yl Dj #o #o Pq Pq #o io @o no ^ .'X #y 'X ^ .E .WX *p 6R R .S .                                                                                                                                                                     ",
"                                                                                                                           T .j8 >4 U .DE :F im mz Es NZ 1N [C ix hx Hx 0K kL OL ,Z gM gM gM !M a .)Z %` |Z {L nL V .W .oL 3Z 4Z 4Z 4Z !Z @Z e .X .Y .Z .EY ` . ..y .N ....+..@..#..$..%..j` &..mZ *..IV JV JV _W _W `V =..-..3P n` jS jS qM qM /T /T (Z (Z fY (` YP YP `J `J  K (K (K .K _K _K JR !S @W #W *I *I *I *I kX kX jo jo #o #o #o #o Gl Gl {l ok Nj Nj Nj Oj Pj Pj Qj Qj @y 1u 1u zl zl Bv Bv Bv `n !l !l El El ~l ym ym Pj Pj Oj Nj Nj Mj Mj yl Dj Dj Pq Pq #o io @o ;p =p mo 9r #y ^ .WX ^ .*p $W ;..>..                                                                                                                                                                     ",
"                                                                                                                           ,..'..1X :K )..pB ij ^s Qu UH yM ix gx oY UK jL )D }Z YM a .fM fM fM )Z %` rZ DZ V .V .V .W .fZ 3Z !Z AY AY zY :Y Y .Z .!..~..{..]..^../..(.._..+..@..#..:..$..i` z` bY mZ CT IV JV JV _W `V O` =..3P 3P PS PS YT YT :M (Z (Z (Z eY fY JH YP  K  K (K .K .K _K qk pk #A #A #W tV kX kX kX kX kX kX jo jo Pq Pq Pq Pq Gl {l ok ok Nj Nj Nj Oj Pj Pj Qj Qj @y @y 1u 1u zl Bv Bv Bv `n !l !l El El ~l ym ym Oj Oj Oj Nj Nj Nj Mj Mj yl yl Pq #o %p io @o @o =p mo 9r #y 1z WX ^ .*p vV ;..>..                                                                                                                                                                     ",
"                                                                                                                           <..ns UB rD qF QF ij #H ;r xE SE [C hx UK jL )D }Z !M a .gM fM )Z dZ %` rZ [..}..nL V .W .|..]Y ^Y AY zY AY AY zY /Y (Y 1..!..~..` . ..^..2....._..3..3..4..%..j` &..&..&..*..5..l` l` JV JV kV JV GT 3P FT FT ~U tP :M YP YP JH (` (` JH JH  K (K (K (K _K _K qk qk QI BQ tV }X IH IH &I &I *q *q &q &q jo $o oo oo ok ok ok ok Nj Nj Oj Pj Qj Qj Qj Qj @y @y @y @y 1u 1u 1u 1u !l $c 8b 8b 8b Pa ~l ~l mk mk Nj Nj Mj Mj Mj Mj yl Dj nk nk nk ~n io @o no mo mo -p 1z 1z 1z *p 6..;..oT                                                                                                                                                                      ",
"                                                                                                                           7..yg 8..<D eW yV hj WW !F *K SE hx Hx 0K kL )D }Z gM fM gM fM )Z dZ %` rZ [..9..W .0..|..]Y ^Y vY /Y /Y (Y (Y (Y _Y a..b..{..c..c..d..` .2..e.....f..3..Q .4..4` j` &..&..g..h..#X #X IV IV IV kV VT GT FT GT tP tP YP YP JH JH fY fY hT hT (K (K .K .K +K _K _K qk #A BQ tV }X IH IH &I &I *q *q &q &q jo $o oo oo ok ok ok ok Nj Oj Oj Pj Qj Qj Qj Qj @y @y @y @y 1u 1u 1u !l $c $c 8b 8b 8b Pa ~l ~l mk mk Nj Nj Mj Mj Mj Mj yl Dj nk nk nk nk io =o ;p no mo -p 'X 1z 1z *p wV R .i..                                                                                                                                                                     ",
"                                                                                                                           j..PI GE UC k..^E l..WW ;r WH )F ]v Jw 8C +J Wv uJ PL SJ lL TJ qY m..n..o..9..p..|..q..eZ ^Y wY xY xY yY a..a..b..b..r..s..t..u..v..w..x..y..z..A..B.._..C..#..D..E..F..F..G..A` nW AW RW #X SO IV JV `V GT GT tP tP ~U bU hS ^U dY dY !W !W .K +K +K +K .K +K +K qk #A BQ tV }X IH IH IH &I &I IH &q &q jo $o gH ]T QI #A pk pk Nj Oj Pj Pj Qj Qj Qj Qj @y @y @y @y 1u 1u 1u !l $c f9 #0 #0 8b Pa Pa Pa mk mk Nj Nj Nj Mj Mj Mj Mj yl Dj Dj Dj Dj ~n >p @o @o ;p mo -p -p 'X *p H..I..>..                                                                                                                                                                     ",
"                                                                                                                           `b J..ZD 9 .K..^E UD L..KF 0G PJ Vv QD 2w Wv dJ aK lL SJ SJ ,K m..n..M..9..p..N..eZ ^Y vY wY yY yY O..O..b..b..r..r..s..s..t..t..P..P..Q..x..]..z..R..B..S..C..T..D..U..4` 4` F..CX nW RW #X IV kV _W m` TO TO tP tP bU hS ^U gT TX TX ^T ^T +K +K +K +K .K .K +K _K #A BQ }X uV IH IH IH &I &I IH &q &q $o $o gH ]T #A #A pk pk Nj Oj Pj Qj Qj @y @y @y @y @y @y @y 1u 1u 1u !l $c f9 #0 #0 8b Pa Pa Pa Lj mk Nj Nj Nj Nj Nj Mj Nj Mj yl yl yl yl nk _m io =o @o ;p no mo #y lo )S G .V..Y<                                                                                                                                                                   ",
"                                                                                                                        W..61 Oa  p X..Y..]D UD Bs rr >D ,D Jw rv +J dJ aK lL TJ qY qY m..n..M..9..p..N..Z..`..`.. +..+.yY O..O..O..++.++.b..b..r..r..r..r..@+.@+.#+.$+.u..z..%+.B..&+.P .GZ *+.*+.*+.=+.]` ^Z C .RW 5` kV JV _W `V  W  W GT FT bU hS gT gT qV qV JR JR _K +K +K +K .K .K +K qk #A BQ }X uV B` IH IH IH IH IH AQ fS $o $o gH ]T #A #A #A pk Oj Oj Pj Qj @y @y @y @y @y @y @y @y 1u 1u 1u !l f9 OI #0 #0 #0 PI Pa Pa Lj Lj Oj Nj Nj Nj pk pk Oj Nj Mj Mj Mj Mj Dj ~n %p io =o @o ;p ;p no no Fl -+.}M ;+.                                                                                                                                                                  ",
"                                                                                                                        >+.re 6U Kq qF ,+.Tz UD '+.Cs )+.!+.Jw 8C hD uJ PL SJ qY m..~+.YY M..{+.]+.^+./+.(+.`..`.. +..+.yY yY yY yY yY O..a..a..b..b..b..b.._+.#+.:+.<+.[+.}+.|+.%+.1+.2+.3+.*Y *Y B .&` =+.PW CX RW 5` kV kV JV JV KV KV GT FT bU ^U gT NS qV qV ^T ^T +K +K +K +K +K +K _K qk QI XZ }X uV B` B` IH IH IH IH fS fS $o gH ]T ]T #A #A #A #A Oj Oj Pj Qj @y @y @y @y @y @y @y @y 1u 1u 1u !l f9 OI #0 #0 #0 PI Pa Pa Lj Lj Oj Oj Nj Nj pk pk Pj Oj Nj Nj Nj Nj yl Dj %p %p io =o =o @o @o Am {l 'V 4+.                                                                                                                                                                     ",
"                                                                                                                        5+.`a aq ds 6+.7+.8+.0C ]s Bs ,D 9+.rv 2w Wv aK lL TJ ~+.m..m..n..M..{+.]+.p..N..Z..0+.`..`.. +.xY xY wY wY yY O..++.a+.b..r..b..b..b+.c+.d+.e+.e+.f+.g+.h+.i+.j+.2+.P .FZ FZ *Y &` mW C .h..k+.l` l` JV JV KV KV FT FT bU hS gT gT TX TX ^T !W .K .K (K (K qk qk qk pk BQ XZ }X uV B` B` B` IH IH B` fS fS $o gH ]T Qq #A !S !S !S Oj Pj Qj Qj @y @y @y @y @y @y @y @y 1u 1u 1u !l f9 OI dy dy #0 PI Pa Pa Lj Lj Oj Oj Oj Nj pk pk |L :1 Oj Oj Oj Nj Mj Dj ~n ~n io io io io io :m Mj +M ms                                                                                                                                                                      ",
"                                                                                                                        %W u0 Uq Zs l+.m+.CG $H /y ~D n+.{x 8C +J dJ PL lL TJ qY m..m..n..M..{+.9..]+.^+./+.(+.(+.`..o+.wY +Z vY .Z yY p+.++.q+.r..#+.r.._+.<+.r+.e+.e+.f+.f+.h+.h+.s+.j+.2+.S..9Z QX wZ &` <X g..k+.t+.u+.`V _W lV lV FT FT ~U UU hT IT ^T !W !W !W .K (K (K (K (K pk pk pk ok BQ XZ F .uV fS B` B` IH IH B` fS fS gH gH ]T Qq #A !S !S qk Oj Pj Qj Qj @y @y @y @y @y @y @y @y 1u 1u 1u !l f9 f9 dy #0 #0 PI Pa Pa Lj Lj Lj Oj Lj Oj Nj Nj ck :1 ym Oj ym Oj Mj yl ~n ~n _m :m io Bm Bm Fl mO &c qc                                                                                                                                                                      ",
"                                                                                                                        M4  e Uq AF v+.w+.aG _y Nx Nx JC RD Wv x+.ZM Hs hM y+.fM )Z )Z %` DZ }..z+.z+.A+.B+.C+.D+.Z..D+.Z..D+.o+.E+.p+.F+.G+.H+.I+.J+.K+.e+.L+.M+.N+.M+.^..2..O+.e..P+.Q+.%Y %Y g .R+.S+.&` T+.h..IV kV kV JV N` GT fT UU OS (Z KH uL (K tL uL uL [L sA 1Q 1Q ^N ^N KT }T _K pk ok {l Gl XZ :W fS fS AQ AQ AQ &q jo 4r 4r 4r 4r -o -o -o 0k 'n 'n 'n LN @y @y 1u 1u Qj Qj ^N ^N 1Q 1Q sA =l $c $c f9 $c 8b Pa (a (a (a (a (a ym A2 Lj Lj 3d (a (a (a ym (a ym :1 :1 ri U+.DW DW _m <W DK V+.uP W+.Y<                                                                                                                                                                      ",
"                                                                                                                     X+.K4 Y+.Cj Z+.`+.m+. @.LB SD Nx .@.{x VK x+.ZM Hs Hs hM fM a .dZ %` rZ DZ DZ }..A+.+@.C+.C+.C+.C+.@@.@@.C+.#@.$@.$@.F+.H+.%@.c+.J+.r+.L+.&@.N+.*@.=@.=@.N .N .-@.Q+.%Y %Y g .R+.S+.&` T+.;@.kV JV JV 2W FT tP UU YP }L >w >@.iK sA 1Q +M 'V sA 1Q 1Q ^N ^N ^N KT KT _K qk pk ok {l XZ gH MS :W :W :W :W gH gH 4r 4r 4r 4r -o -o 0k 0k 'n 'n 'n LN @y @y 1u 1u Qj Qj ^N ^N 1Q 1Q sA sA $c $c $c $c 8b Pa (a (a (a (a (a (a A2 A2 A2 A2 e9 e9 (a (a (a (a :1 :1 si pi qW DW 4W <W V+.V+.{O ,@.`P                                                                                                                                                                      ",
"                                                                                                                     '@.%9 U` 0q FE )@.GG GA LB SD Nx 9C jD Wv ,Z )M )M )M YM gM fM dZ dZ %` %` |Z DZ z+.+@.B+.+@.@@.+@.+@.+@.C+.D+.$@.$@.F+.!@.H+.%@.c+.~@.{@.]@.y..N+. ..^../..O+.-@.Q+.+X xW g` o .OW PW #X IV Z` VT VT FT ,N YT TU sM iT SS tA 5J 1T +M 'V 'V sA 1Q ^N ^N |L |L tL tL +K _K qk pk ok QI ]T [T [T [T ]T ]T Qq Qq ]T ]T 4r -o -o -o -o -o 'n 'n 'n LN @y @y 1u 1u Qj Qj ^N ^N ^N 1Q 1Q 1Q $c $c $c $c 8b Pa (a (a (a (a A2 A2 A2 A2 A2 A2 A2 A2 (a (a (a Pa d| d| :1 ri Cm {j 4W <W V+.V+..U ^@./@.                                                                                                                                                                     ",
"                                                                                                                     (@.h8 _@.Sf EE :@.<@. n _y Nx -C [@.iD Wv ,Z }Z }Z }Z )M YM gM a .)Z dZ dZ %` rZ [..z+.}..A+.B+.@@.@@.D+.}@.E+.|@.$@.$@.F+.!@.H+.%@.1@.2@.3@.w..w..d..4@.5@.5@.Q+.z .+X xW VZ 2` zZ mW SO UT fT VT FT HT YT rM iT h .mS 6@.CQ Dv lO 1T 'V 'V sA 1Q ^N ^N |L |L  M tL .K +K _K qk qk #A Qq [T [T [T ]T Qq Qq <H ]T Qq -o -o -o -o -o #G 'n 'n 'n LN @y @y 1u 1u Qj Qj ^N ^N ^N ^N 1Q 1Q $c $c $c $c 8b Pa (a (a A2 A2 A2 A2 A2 A2 A2 A2 A2 A2 (a (a Pa Pa Ra Ra ck ti qi Cm U+.<W &R 2Q W+.7@.                                                                                                                                                                        ",
"                                                                                                                     )2 3f 8@.%y .F uR <y 9@.(y tH uH [@.:I hD OL ,Z ,Z ,Z ,Z }Z )M gM fM )Z %` |Z |Z DZ [..z+.A+.@@.C+.D+.#@.0@.a@.|@.|@.$@.F+.!@.!@.H+.H+.b@.c@.c@.d@.w..d..5@.5@.z .f..e@.f@.2` g@.mW BT eT IT UU HT OS }L >w iT ~N .M vL h@.Ev i@.ms 4+.+M +M sA sA 1Q 1Q ^N ^N [L [L (K .K .K +K _K JR Qq [T ]T ]T ]T ]T Qq Qq Qq Qq -o -o -o #G #G #G 'n 'n 'n LN @y @y 1u 1u Qj Qj ^N ^N ^N ^N ^N ^N $c $c $c $c 8b Pa (a (a 3d 3d A2 A2 A2 A2 A2 A2 A2 (a (a (a Pa 8b Ra Ra  s :1 si qi pi qi 3Q j@.<a 1L                                                                                                                                                                         ",
"                                                                                                                  k@.l@.Yt C4 ]m .F ml 'z <A Uz XH XH 9C {x hD OL ,Z ,Z OL OL OL ,Z )M !M )Z %` |Z |Z rZ rZ B+.@@.D+.D+.D+.D+.#@.}@.m@.|@.|@.$@.F+.F+.!@.!@.n@.n@.n@.c@.Q..` ./..O+.f..o@.p@.q@.r@.s@.eX CT lw JH OS (Z sM >w jT mS t@.t@.u@.u@.Ev i@.ms j .1T V..4v !O !O sA sA 1Q uL uL  K  K (K .K .K .K <H <T Qq ]T ]T ]T ]T ]T Qq Qq -o -o #G #G #G #G 'n 'n 'n LN @y @y 1u 1u @y @y |L |L |L |L |L |L $c $c $c $c 8b Pa (a (a 3d 3d 3d 3d 3d A2 A2 A2 (a (a Pa Pa Pa 8b Ra Ra  s ck :1 si qi ri oO uc 0a v@.                                                                                                                                                                        ",
"                                                                                                                  w@.R7 }5 x@.]m 3F y@._x %B z@.[@.9C :I {x FC 0` 0` 0` OZ IC OZ 0` YM !M a .dZ dZ %` rZ DZ A+.+@.C+.C+.C+.C+.C+.D+.m@.m@.|@.|@.$@.F+.F+.!@.!@.n@._+.Q..u..z..e..B..C..B .3` A@.=Y rP SO sP :M iK >w p .tA Dv CQ vL TA B@.Xy C@.sU VU qc 9a }M }M Cv EJ 4v 4v !O !O uL uL `J  K  K (K (K (K IT ]U hH <H <H Qq Qq Qq Qq Qq Qq <H <H <H #G #G 'n 'n 'n LN @y @y 1u 1u @y @y |L |L |L |L |L |L $c $c $c $c 8b Pa (a (a /a /a 3d 3d 3d A2 A2 A2 Pa Pa Pa Pa Pa Pa d| d| Ra Ra d| e| f| +2 *c s0 %% Y<                                                                                                                                                                         ",
"                                                                                                                  D@.pO )A qg E@.3F }y dn &B XH F@.9C :I hD FC OZ 0` 0` IC IC IC OZ !M fM a .a .)Z %` DZ }..DZ }..B+.@@.@@.C+.D+.#@.m@.m@.m@.|@.$@.$@.F+.F+.H+.b@.#+.G@.}+.R..H@.A .B .{` A@.1P rP SW sP bU sM I@.h .mS LI .M J@.t@.K@.L@.M@.Ev >` .b qc .b lO lO ZJ Cv EJ EJ 4v 4v &L &L `J `J  K  K  K  K UU UU lw ]U hH hH hH hH Qq Qq <H <H <H <H #G #G 'n 'n 'n LN @y @y 1u 1u @y @y |L |L |L |L |L |L $c $c $c $c 8b Pa (a (a /a /a 3d 3d 3d A2 A2 A2 8b 8b 8b Pa Pa Pa d| d| Ra Ra d| e| +2 e| g| :a qc vP                                                                                                                                                                         ",
"                                                                                                               @` N@.XO V8 &W Kq O@.m+.9@.(y XH :I {x {x hD ;K P@.Q@.Q@.IC OZ HC eM eM PZ !M fM a .dZ |Z DZ rZ [..A+.+@.@@.C+.#@.}@.R@.R@.R@.m@.m@.|@.$@.F+.@+._+.s..c..4Y e..A .B .%..&..;@.2W  W jS kS 3U h .Dv #R h@.u@.S@.B@.B@.L@.B@.Xy Ev VU gb gb 9a KN KN 5J 5J ZJ ZJ ZJ ZJ >@.iK KH `J `J `J KH }L rU rU HT UU lw IT ]U hH <H <H <H Qq Qq <H <H #G *l *l 'n LN 1u 1u 1u 1u Qj Qj |L |L |L |L |L |L Pa Pa 8b $c $c 8b Pa Pa A2 A2 3d 3d /a 3d 3d 3d Pa 8b 8b 8b $c $c Sa Sa r0 Sa Sa d| +2 +2 g| C0 q9                                                                                                                                                                            ",
"                                                                                                               TY T@.U@.b3 xx FE :x m+.bn 9H XH :I =C =C 'D V@.3K P@.P@.P@.IC HC eM eM W@.!M fM a .dZ |Z DZ rZ }..A+.+@.@@.@@.D+.#@.X@.X@.X@.X@.R@.R@.m@.|@.@+.v..c..` .O+.O .RX {` j` 5..2W PS WT {U MR Y@.vL J@.Z@.Z@.S@.S@.B@.B@.Wy Wy C@.i@..b gb gb 9a lO lO ZJ ZJ ZJ ZJ ZJ ZJ >@.iK KH `J `J KH KH }L rU rU HT UU lw IT ]U hH <H <H <H Qq Qq <H <H <H 6r *l 'n LN 1u 1u 1u 1u Qj Qj |L |L |L |L |L |L Pa Pa 8b $c $c 8b Pa Pa A2 A2 3d 3d 3d 3d 3d 3d Pa Pa Pa 8b $c $c Sa Sa r0 Sa Sa Ra e| e| _a C0 q9                                                                                                                                                                            ",
"                                                                                                               <Z 77 #t C4 %y  F ml `@.,z 9H uH {x =C lx ~x oK  #..#.3K P@.+#.HC eM eM PZ !M fM a .dZ @#.gB [..z+.B+.+@.@@.@@.@@.C+.##.##.##.$#.$#.%#.X@.&#.v..*#.4Y O+.O .o@.$..i` *..2P n` {S =#.-#.;#.>#.>#.>#.>#.S@.Z@.u@.u@.h@.|Q DQ |Q ZP 4+.<1 4+.j .}M }M ZJ ZJ ZJ 5J 5J 5J >@.>@.}L }L }L }L }L }L rU rU rU rG $A ;w ]U hH <H <H Qq Qq Qq Qq gS <H 6r *l 'n LN @y 1u 1u 1u Qj Qj |L |L |L |L |L |L Pa Pa 8b $c $c 8b Pa Pa (a A2 A2 3d 3d 3d 3d 3d (a (a Pa 8b $c Xd Sa 9b W8 yg Qt Xh {w Y+.C2 u0 =2                                                                                                                                                                            ",
"                                                                                                               ,#.%9 D2 '#.@q Xn rj w+.2o XH uH =C lx RD ;K 2K  #..#.)#.Q@.!#.~#.PZ PZ a` a .)Z dZ %` gB <t z+.B+.@@.@@.@@.+@.@@.@@.{#.{#.{#.{#.##.$#.%#.]#.^#./#.N .f..o@.$..j` *..sP iS ;U (#._#.TA B@.B@.u@.u@.h@.7R #R |Q ZP KN lO KN KN lO }M 1T <1 lO 1T 1T Cv ZJ ZJ 5J 5J tA I@.I@.>w sM sM sM sM sM TU TU rU rU rG ;w ]U ]U <H Qq Qq Qq Qq Qq <T <H #G *l 'n LN @y @y 1u @y Qj Qj |L |L |L |L |L |L Pa Pa 8b $c $c 8b Pa Pa (a (a A2 3d 3d 3d 3d 3d A2 A2 (a Pa $c Xd 9b 9b W8 yg Qt W8 Y+.gt t0 `a -2                                                                                                                                                                            ",
"                                                                                                               :#.g8 {w &W Mh Py K..(x Nw tH Kw =C RD RD !D oK  #.)#.<#.[#.}#.|#.1#.XM 2#.)Z %` %` rZ <t tZ B+.@@.C+.C+.@@.@@.+@.@@.3#.4#.4#.{#.##.%#.X@.5#.x .6#.7#.f@.$..j` ;@.2W GT iO 8#.9#.0#.Yf Zf `f cq Dv tA 5J Cv EJ !O sA EJ Cv Cv Cv EJ &L EJ Cv V..1T EJ Cv ZJ 5J 5J tA I@.I@.iT iT iT >w >w sM TU TU TU rU rG $A ]U ]U Qq Qq Qq ]T [T <T <T Qq #G *l *l 'n @y @y @y @y Qj Qj |L |L |L |L |L |L Pa Pa 8b $c $c 8b Pa Pa Pa Pa (a A2 3d 3d 3d 3d A2 A2 (a Pa 8b $c Sa 9b W8 Qt Qt W8 a#.b#..v [~ j8                                                                                                                                                                            ",
"                                                                                                               &6 p9 ,4 UB !f Oy cZ $m Mw -C c#.lx RD _I !D V@..#.)#.<#.[#.d#.|#.e#.2#.f#.%` |Z rZ DZ tZ 3#.+@.@@.C+.C+.@@.+@.+@.+@.,` 3#.4#.{#.$#.X@.m@.g#.h#.i#.j#.q@.z` ;@.lV PS LR =#._#.0#.Yf `f 88 [1 RA Cv EJ 4v sA 1Q |L ]N 1Q !O 4v 4v &L &L &L iK V..1T EJ Cv ZJ ZJ 5J 5J I@.p .jT :T :T jT >w sM TU TU TU rU rG $A IT ]U Qq Qq Qq ]T [T <T <T Qq #G wm *l 'n @y @y @y @y Qj Qj |L |L |L |L |L |L Pa Pa 8b $c $c 8b Pa Pa 8b Pa (a A2 3d 3d 3d 3d A2 A2 (a Pa 8b $c Sa Sa W8 Qt k#.yg b#.l#.m#.2u n#.                                                                                                                                                                           ",
"                                                                                                            X+.L4 o#.b3 p#.Rf :x :k q#.Lw Nx RD lx RD RD !D r#.s#.)#.<#.[#.d#.t#.1#.2#.f#.%` |Z rZ [..tZ 3#.B+.+@.@@.@@.+@.B+.B+.B+.tZ tZ 3#.{#.$#.R@.|@.u#.v#.w#.x#.y#.*..z#.6` WT A#.B#.C#.vA Wf 88 '0 t0 5v !O sA 1Q |L [M D#.E#.qk +K (K  K  K `J KH iK 1T 1T EJ Cv Cv ZJ ZJ 5J p .h .:T JT JT :T iT >w 2G 2G TU rU rG $A ;w 5r Qq Qq [T [T [T [T <T Qq #G wm *l 'n Qj @y @y @y Qj Qj |L |L |L |L |L |L Pa Pa 8b $c $c 8b Pa Pa 8b 8b (a A2 3d 3d 3d /a ym ym (a Pa 8b 8b W8 W8 W8 Qt F#.G#.l#.aZ @K St                                                                                                                                                                               ",
"                                                                                                            H#.n9 I#.$q %4 <E 6+.:y ]D -C vI _I lx RD 9+.!D  #.J#.K#.K#.L#.M#.RM N#.O#.oN VM c` P#.Q#.R#.S#.tZ 3#.4#.4#.3#.,` A+.,` <t sZ ,` T#.U#.&#.V#.W#.X#.Y#.Z#.s@.`#. $.jS RS .$.C#.+$.6A Zf [1 :a uc sA  M tL }T 4U E#.@$.Bm Gl ok _K .K (K uL &L iK EJ 1T EJ Cv Cv ZJ ZJ ZJ p .h .JT 4P 4P :T KI %A sG 2G TU rU rG $A ;w 5r Qq Qq ]T [T [T [T <T Qq #G wm *l Qj Qj @y @y @y Qj |L |L |L |L |L ck ck Pa Pa 8b $c $c 8b Pa Pa 8b 8b Pa A2 3d 3d 3d /a ym ym Pa Pa Pa 8b 8b Ra W8 Qt k#.G#.l#.ns #$.$$.                                                                                                                                                                              ",
"                                                                                                            %$.xu FJ  v &$.aV *$. n 9H 9C lx !D ;K ;K =$.3K hL 9M -$.;$.>$.,$.'$.)$.!$.!$.~$.{$.]$.^$./$.($._$.K` L` :$.<$.[$.}$.|$.1$.2$.:$.3$.4$.5#.5$.^#.6$.7$.8$.9$.sP jS MR ;#.0$.a$.b$.0$.LI iK c$.d$.d$.e$.JR #A BQ XZ 6R )S )S F .f$.g$.d$.h$.i$.j$.[L uL &L iK >@.I@.5J 5J LI LI LI Dv tA 5J SA Cv KI %A 'A Bv 1u 1u $A $A $A 5r #G ]T kw o` =I hH -o ok ok ok Nj ]N |L 1Q Al  s  s uc uc %c _a Sa $c $c $c 8b 8b Pa (a (a 8b 8b 8b Pa Pa Pa (a (a e| e| A2 A2 ym ym ym ym Pa 8b r0 Xh 3h t0 #$.$$.                                                                                                                                                                              ",
"                                                                                                            k$.g9 7 .|E l$.m$.n$.CG LC lx o$.EC oK oK oK 4K 9M `B p$.q$.r$.s$.t$.u$.v$.v$.w$.x$.y$.z$.z$./$.2$.A$.B$.C$.D$.[$.E$.|$.F$.[$.L` G$.H$.I$.J$.^#.K$.L$.q@.M$.2W _T -#.0$.N$.O$.P$.Q$.h .R$.eY S$.T$.U$.rV sV tV uV %o &o V$.6R QI W$.e$.h$.i$.j$.[L [L uL &L iK I@.ZJ 5J Dv Dv Dv Dv #p vp SA RA %A 0A Dz Bv zl zl rG rG $A ;w #G 4r kw o` ] .<H -o ok {l {l mO [M |L ^N  s  s uc uc g| _a _a r0 $c $c $c $c 8b Pa Pa (a $c 8b 8b 8b Pa Pa (a (a e| e| A2 A2 Lj Lj Vt Vt ~l El Ra Ra 3h t0 ,0                                                                                                                                                                                  ",
"                                                                                                            X$.gI Y9 Y$.Z$.xV m+.vH Nx vI `$.NK qK OK 2K OK -$.p$. %..%.r$.s$.t$.u$.v$.v$.v$.w$.x$.x$.y$.+%.e` [$.2$.2$.e` @%.#%.$%.#%.%%.<$.G$.H$.I$.EY &%.*%.=%.-%.;@. W ]S ;%.>%.,%.'%.)%.!%.I@.~%.TX {%.@W sV #W }X AQ 5R wp wp ko H..BQ W$.e$.h$.]%.j$.[L [L uL &L EJ Cv ZJ ZJ tA tA #p #p #p vp SA SA %A 0A 'A Dz Dz Dz TU TU $A ;w 6r -o 4r 4r o` Qq 4r ok {l {l ok qk Pj @y ^N ^N  s  s  s  s Al Al $c $c $c $c $c 8b Pa Pa $c $c 8b 8b Pa (a (a (a e| e| A2 A2 Lj Lj Oq Oq ym ~l Ra d| 3h t0 ,0                                                                                                                                                                                  ",
"                                                                                                            6v f9 *4 ^%./%.qF (%.(y SD _%.|K NK qK OK 2K OK :%. %..%.<%.[%.s$.t$.t$.}%.}%.}%.v$.v$.w$.w$.|%.1%.1$.1$.@%.1%.#%.2%.$%.2%.@%.D$.3%.4%.5%.6%. ..7%.8%.M$.9%.QS 0%.a%.)%.b%.c%.d%.e%.iK U$.rV f%.tV tV uV $W Rq Tq lo lo &p *o $o JR hT c$.g%.i$.[L [L uL &L EJ Cv Cv ZJ tA tA #p cq cq #p #p #p KI KI %A %A 0A 'A +V TU rG $A 5r 6r -o 4r o` ]T -o ok {l {l ok pk Pj Qj ^N ^N  s ck  s  s Al Al Xd Xd Xd Xd Xd $c $c 8b $c $c 8b 8b Pa (a (a A2 e| e| A2 3d mk mk Nq Nq Lj ym d| d| Sh t0 ,0                                                                                                                                                                                  ",
"                                                                                                            h%.e9 Zb .q }D SV i%.*B SD kD 1K OK 4K 3K 3K dB ;$.q$..%.<%.r$.[%.s$.j%.k%.l%.l%.l%.}%.}%.v$.m%.n%.#%.#%.o%.o%.p%.p%.q%.2%.@%.<$.r%.5#.s%. ..(..t%.-%.u%. W {S v%.w%.x%.y%.z%.A%.B%.uL C%.sV NV AQ {T 5R Rq >X ,X )T JZ 1z wp $o ^T JH g%.&L &L uL &L 4v EJ Cv Cv ZJ ZJ tA tA cq @p @p @p @p @p @p @p @p cq fI %A 'A Dz Bv zl $A ;w 5r #G -o -o Qq Qq ]T gH 4r -o _K +K .K +K Qj Qj |L ^N ^N Al Xd Xd Qa Qa Qa Xd Xd $c Xd $c $c 8b Pa (a A2 A2 e| +2 3d 3d mk _j sp sp Lj ym  b  b Sh C2 ,0                                                                                                                                                                                  ",
"                                                                                                         D%.%9 FJ E%.:K :z VY nD _y SD Iw qK 4K 3K Q@.Q@.F%.;$.q$..%..%.<%.r$.r$.[%.G%.G%.G%.k%.l%.l%.}%.H%.o%.I%.I%.q%.q%.q%.q%.q%.2%.@%.J%.K%.u#.w..A..L%.%..M%.N%.O%.P%.Q%.x%.R%.S%.S%.T%.Z@.[L 8` tV OV {T 5R Rq Sq ,X )T JZ !T 1z pw o` IT YP :M &L &L iK iK Cv Cv ZJ 5J 5J 5J Dv LI Dl )l )l ik ik ik )l )l ik )l ~N fI %A 0A Dz Dz TU rU rG ;w 5r 6r #G <H Qq ]T -o #G _K +K +K +K Qj Qj |L ^N ^N ^N `n Qa Qa Qa Qa Qa Qa Xd Xd $c $c 8b Pa (a A2 A2 +2 +2 3d 3d _j _j dq dq mk Lj  b  b fq C2 ,0                                                                                                                                                                                  ",
"                                                                                                         U%.V%.W%.Na :K [r rj $m m .kD `$.qK 4K AB F%.PM F%.:%. %.q$.q$..%..%..%.<%.X%.X%.Y%.G%.k%.l%.l%.}%.m%.H%.Z%.`%.`%.`%.Z%.q%.#%. &..&.+&.P..L+.@&.#&.$&.9%.%&.&&.*&.=&.-&.;&.>&.,&.'&.S@.[L <` }X gX cW cW )&.zQ mY lY mX lX Zw *q =I UU }L }L }L }L ZJ ZJ 5J 5J tA tA Dv Dv @p Dl )l Hj uA uA MI MI ik Hj Hj uA ik Dl cq vp 'A 'A 0A 'A 'A Bv zl (K 6r 6r #G -o -o #G 5r ;w +K +K +K +K +K +K .K @y 5v 9b B2 B2 B2 B2 B2 9b Sa Sa r0 Ra d|  b e| +2 +2 +2 3d /a _j tg dq dq _j mk e| e| fq C2 o9                                                                                                                                                                                  ",
"                                                                                                         !&.vu /a #F :K [r rj #n m .~E jx 5K OK ~&.F%.F%.OM  %. %. %. %.q$.q$.q$.q$.{&.{&.X%.Y%.G%.k%.l%.}%.m%.H%.`%.]&.]&.`%.Z%.^&.1%. &./&.(&._&.A..:&.<&.[&.}&.|&.1&.A%.2&.S%.3&.>&.,&.4&.S@.[L #W AQ [Q cW 5&.)&.zQ mY lY mX mX -w 6&.7&.HT SU sM }L }L 5J tA tA tA Dv Dv Dv LI Dl )l ik uA MI 'w TA TA )l Hj uA MI uA ik Dl cq 0A 0A %A %A 0A 'A Bv zl 5r 6r #G #G #G 6r 5r ;w +K +K +K +K +K +K .K @y 5v 9b B2 B2 B2 B2 B2 B2 Sa Sa r0 Ra d|  b e| +2 +2 +2 3d /a tg tg uD uD _j mk e| e| fq  e o9                                                                                                                                                                                  ",
"                                                                                                         8&.9&.3d &4 di aV Hy q#.-C ]v >K qK PK ZB ZB 0&.&P a&.b&.c&.d&.c&.b&.c&.d&.e&.e&.f&.g&.g&.g&.g&.g&.h&.h&.h&.i&.i&.]&.q%.j&.@%.k&.l&.m&.*#.B..n&.E..o&.lS P%.p&.q&.S%.3&.r&.s&.y%.ni u@.p .(` gS gX :` LS zQ   .RY RY lY lY t&.u&.eI +V SU sM 0A 'A Dv Dv LI LI LI LI @p Dl ik Hj Hj uA Cl .o wD wD vg Yf Zf h|  g  g )l ik cq #p vp SA 0A Dz Bv Bv +V rU $A 5r 5r 5r .K (K .K .K +K +K KT KT tL ^N =l Sa 9b 9b B2 B2 +g +g r0 r0 Ra d|  b  b e| e| +2 f| 5h 5h (j :f %q %q _j Lj  b d|  e B0 H2                                                                                                                                                                                  ",
"                                                                                                         v&.9&.Nq og Mh Py K..q#.tH Vv >K PK PK hL ZB ZB 9M w&.x&.b&.c&.c&.c&.d&.d&.y&.e&.z&.f&.g&.g&.g&.g&.i&.h&.h&.i&.h&.`%.p%.A&.k&./&.B&.w..O+.C..C&.D&.E&.F&.;%.)%.G&.H&.I&.r&.J&.K&.mi u@.:T oV gT mT cW cW )&.L&.M&.M&.GH GH sL N&.O&.SU >w >w %A %A Dv Dv LI LI LI CQ Dl Dl Hj Hj uA MI .o wD wD vA Uh Th wg Xf Yf Zf uA Hj )l Dl @p cq fI %A 0A 0A qU +V {N $A LN .K (K (K .K .K .K tL tL tL  M 1Q =l Sa Sa 9b 9b 9b B2 B2 r0 Ra Ra d|  b e| e| +2 f| f| 5h 93 :f :f %q %q (j tg +2 e| fq C2 ,0                                                                                                                                                                                  ",
"                                                                                                         P&.9&.Nq og hw zv 9w Nw ]x Jw 8K PK 'M 'M 'M 'M 'M Q&.R&.S&.b&.b&.c&.d&.T&.U&.y&.e&.z&.f&.f&.f&.f&.V&.i&.i&.h&.]&.W&.A&.($.X&.&#._&.2..L%.<&.Y&.Z&.`&. *..*.+*.y%.@*.J&.#*.$*.%*.Th u@.:T mV bU oW D` &*.&*.r` [X [X IH IH N&.'O **.'N KI KI tA Dv Dv Dv @p @p Dl )l )l ik Hj Hj 'l Cl .o wD vA vA =*.-*.ni ni Uh wg Yf Wf Wf Wf uA ik )l Dl @p cq nC KI ,A Dz on zl zl sA 1Q 1Q 1Q 1Q  M i..i..+M =l Sa Sa Sa Sa Sa Sa Sa Ra Ra d|  b  b e| +2 +2 f| f| 5h 93 :f :f %q %q sg :f Zd f| ki 3h G2 &2                                                                                                                                                                               ",
"                                                                                                         ;*.#$.sp 0q [E :x :k Nw ]x Jw >*.'M aP aP aP aP Q&.,*.'*.x&.S&.S&.b&.c&.d&.)*.U&.U&.y&.e&.z&.f&.f&.V&.i&.h&.]&.!*.~*.{*.]*.^*.g#.&%.(..o@.%..D&.lV /*.(*._*.:*.H&.#*.<*.<*.[*.}*.Bl 7R :T mV FT sP R` R` |*.|*.>T >T .V .V 'O HT SU >w KI tA Dv LI Dv Dv @p Dl )l ik Hj Hj Hj uA Cl .o wD vA vA wg 1*.-*.2*.3*.2*.Uh wg Xf wg wg 0#.'w MI uA Hj ik 5A SG tG )B ,A y, %G 4v sA sA sA 'V +M >..S .V..5v Sa Sa Sa r0 r0 r0 r0 d| d|  b  b e| +2 f| f| Zd Zd 5h 93 :f :f %q %q sg :f 2h Zd ki Sh G2 &2                                                                                                                                                                               ",
"                                                                                                         4*.@K dq Yn [E Vs :k 6w ;V UK 5*.aP ,M ,*.,*.8M 6*.,*.'*.R&.x&.x&.x&.S&.b&.)*.)*.U&.U&.e&.z&.f&.f&.V&.i&.]&.!*.p%.7*.8*.9*.0*.W#.M .a*.p@.j` b*.PS Y@.c*.d*.e*.J&.f*.f*.g*.h*.pn ,l i@.iT oV VT oW i*.j*.j*.k*.mT mT <T <T UU OS 'N iT fI Dv @p l*.@p @p Dl )l ik Hj uA uA Ij 'l Cl .o wD vA vA wg ^j m*.n*.o*.p*.n*.mi Uh mi mi Uh Th 0#.TA 'w MI Ij Ij Gj @2 Kj .g lk <1 |V |V |V V..V..q*.q*.}M %G B2 9b Sa r0 r0 Ra Ra  b  b  b e| +2 f| f| Zd Zd 2h 93 93 :f Uf %q %q Uf (j f| f| C}  e '0 r*.                                                                                                                                                                              ",
"                                                                                                         s*.t*.(m gs [E Vs :k 7p sv Ix LL 8M 8M 6*.u*.ZN u*.v*.w*.'*.R&.R&.R&.x&.x&.x*.)*.)*.U&.y&.z&.f&.g&.i&.]&.`%.y*.j&.z*.9*.&#.u#.&%.O .p@.z` ;@.6` `&.A*.B*.C*.D*.E*.f*.N- O- F*..9 e8 ms sM o) fT `T G*.j*.j*.j*.lT lT <T gS HT /T iT SS LI DQ i@.l*.Dl )l )l ik Hj Hj uA uA Ij Ij 'l Cl .o wD vA vg ^j m*.-*.o*.H*.H*.I*.I*.3*.2*.ni mi +$.C#.0#.vA +c +c +c 'l Gj li Vf 5a 4+.<1 <1 <1 q*.J*.J*.K*.6a xg +g 9b Sa r0 Ra Ra  b e| e| +2 f| Zd Zd 2h 2h 2h 93 q0 :f Uf %q %q :f tg +2 e| fq C2 o9                                                                                                                                                                                  ",
"                                                                                                         L*.F#.xl gs mp Zu mm 7p Yv QJ SK ZN ZN M*.M*.M*.M*.N*.v*.w*.'*.'*.R&.x&.S&.)*.)*.)*.U&.y&.z&.f&.g&.]&.`%.q%.~*.O*.8*.P*.B&._&.=@.o@.4..Q*.R*.S*.T*.a$.U*.V*.W*.E*.X*.W..Y*.Z*.r| k| 4+.}L o) fT XP G*.`*.j*.j*.MV f%.gS NS :M rM JT 6@..M 7R l*.l*.ik ik ik Hj Hj Hj uA uA Ij Ij 'l Cl .o wD wD vg ^j m*. =.-*.o*.H*..=.+=.I*.I*.@=.2*.ni Uh Th Th #2 #2 #2 #2 db `8 li LZ qc %% 9a gb K*.K*.#=.K*.5a 5a 6a C0 :a s0 _a g| `d `d =c qe qe c| nc nc 2h Wh q0 q0 :f Uf %q %q :f tg f| +2 fq  e o9                                                                                                                                                                                  ",
"                                                                                                         $=.t0 xl gs %=.dw _x Mw 8C cB gQ IM M*.M*.M*.M*.N*.&=.N*.*=.w*.'*.R&.S&.b&.)*.)*.)*.U&.y&.z&.g&.==.`%.Z%.p%.A&.($.-=.;=.m&.^#.N .>=.z` ;@. W {S ,=.d*.C*.D*.E*.E*.'=.)=.5+.!n s| 98 4+.iK (Z bU bW G*.G*.f%.f%.f%.rV NS hH (Z iT ^S J@.J@.h@.Ev Ev ik J@.,w J@.J@.J@.uA uA ik Hj Ij uA Cl .o wD Xf !=.!=.!=.!=.~=.{=.]=.^=./=.x%.I*.(=.2*.a$.mi Uh #2 cb fk cb #2 41 }1 y) [a [a qc 9a 0a gb 7@.E' [1 [1 5a 6a 7a s0 _a _a `d =c =c qe c| _=._=._=.Wh Wh q0 q0 q0 Uf %q %q Uf (j f| +2 C}  e '0 r*.                                                                                                                                                                              ",
"                                                                                                      :=.d5 C2 (m <=.VF [=.}=.|=.1=.sJ fQ hQ 2=.2=.3=.4=.N*.5=.6=.7=.8=.9=.0=.)*.)*.a=.U&.z&.g&.b=.c=.W&.d=.|%.{$.e=.z*.-=.l&.m&._&./#.f=.y` nW Z` P` g=.h=.i=.j=.k=.l=.H&.m=.7..j..){ e% Za 4+.4v c$.hT dY dY XP <T [T <T ]U UU TU jT @R ~N VO n=.uA 'l n=.~N 4P pV =#.8#.(#.o=.p=.;#.;#.'w _#.TA TA q=.q=.r=.r=._*.s=.O$.O$.,%.,%.'%.t=.R%.u=.q&.A%.b$.v=.w=.x=.i| ^$ ek Ej 0b j| ,l e8 98 [a 4a qc q9 .6 u0 B0 :a :a &c &c =l  s :1 e| f| V8 _@.w4 y=.z=.b3 b3 !Y 93 93 93 Oa Oa q0 93 V8 ,4 I` I#.XO {4                                                                                                                                                                               ",
"                                                                                                      A=.;6 g| io 6F UF B=.C=.D=.E=.sJ F=.G=.H=.2=.5=.N*.I=.6=.J=.7=.8=.9=.0=.)*.U&.U&.e&.g&.b=.c=.K=.d=.L=.+%.e=.z*.]*./&.(&.s%. ..z .>=.C .hO 7` M=.N=.+$.i=.j=.k=.O=.P=.K&.Q=.2a wA .c re 4+.EJ uL c$.d$.bU ^U hH <H <H IT rU SU ZT ~N VO R=.n=.n=.WC VO S=.pV LV T=.8#.(#.p=.p=.;#.;#.'w _#.TA 0#.q=.q=.U=.V=.r=.W=.s=.X=.,%.Y=.d*.Z=.q&.`=. -..-.T%.d*.w=.+-.@-.A> #-.$-.Ej ,l w> 41 z> 98 98 ;0 H2 >0 z0 u0 7a 7a |V &c =l Al ck ti f| V8 w4 w4 y=.y=.%-.b3 !Y d9 93 93 Oa Oa q0 93 V8 ,4 I` I#.XO {4                                                                                                                                                                               ",
"                                                                                                      &-.>6 j@.*o fw TF *-.=-.--..H !E F=.G=.;-.;-.>-.,-.'-.J=.JM )-.8=.!-.~-.{-.]-.^-./-.(-.H%.m%.|%._-.:-.z*.<-.[-.X&.&#.}-.y..|-.@..4` k+.-..1-.2-.3-.4-.i=.5-.6-.6-.V*.%*.Va bb Xa ,l re j .}M 7-.<M R$.iS ~U hT ^T !W YP sM iT nw ,w uA MI MI uA Gj jk R=.,w ,w o=.o=.o=.8-.8-.MI 'w .o TA wD vA vA vg wg 9-.Th v=.ni b$.3*.0-.@=.x%.a-.2&.b-.c-.d-.a-.^=..=.H*.o*.-*.m*.Fj  9 Xa e% 61 51 51 _d $9 @9 78 eb lk xg RA y, 5v Al ck :1 +2 Zd _@.w4 e-.f-.%-.b3 q0 93 93 93 uD uD q0 93 V8 ,4 I` I#.XO {4                                                                                                                                                                               ",
"                                                                                                      w@.g3 mO Tq g-.h-.*H i-.Lx ;G eE j-.G=.k-.l-.m-.7=.n-.0M 0M n-.o-. C p-.^-.q-.r-.(-.H%.|%.L=.A&.:-.($.s-.t-.P*.&#.}-.x..u-.+..v-.D&.w-.x-.T=..$.y-.z-.A-.B-.e*.C-.K&.D-.ab Xa  9 ,l  g E-.ZP + .q .F-..W PS YP JH JH (Z iT :T ,w t@.MI MI MI uA Gj jk 'l 'l G-.G-.G-.8-.*A *A .o .o .o wD wD vA vA 6A vA vg lC Th 1*.ni H-.2*.I-.I*..=.a-.J-.d-.K-.K-.K-.+=..=.H*.o*.n*.ab ab bb Xa  9  9 c8 d8 m9 51 %0 re Kj kk vp RA %G =l  s :1 +2 Zd V8 _@.L-.M-.b3 b3 q0 93 93 93 uD uD q0 93 V8 ,4 I` I#.XO {4                                                                                                                                                                               ",
"                                                                                                      ,#.f8 nT N-.O-.P-.<A 9C )+.;G PD =P k-.Q-.R-.S-.dN eN LM LM fN [O T-.U-.CB V-.W-.X-.o%.n%.Y-.@%.($.k&.9*.^*.&#.Z-.w..A..`-. ;..;.+;.@;.1U #;.h=.$;.@=.%;.&;.*;.*;.=;.-;.q| s| cb y0 `f Ev #R ;;.>;.,;._T (T (Z YP &L >@.h .mS vL J@.t@.S@.M@.Xy Wy h| `8 `8 rc rc rc 'l +c +c :d :d }f }f ';.';.);.);.!;.(C ~;.{;.|D ];.^;./;.(;.I-.Q=._;.:;._;.Q=.<;.[;.[;.};.|;.1;.(;.2;.3;.4;.4;.5;.5;.4;.5;.6 .Fv 6;.rc jk Jj cq vp y, 5v El ~l Lj tg 93 !Y !Y d9 b3 b3 q0 93 93 93 uD uD q0 93 V8 ,4 I` I#.XO {4                                                                                                                                                                               ",
"                                                                                                      tM q9 tV 7;.8;.9;.(A RD OJ PD j-.0;.a;.R-.b;.c;.0M eN [O [O NM QM U-.d;.e;.W-.f;.I%.o%.1%.d`  &.g;.h;.^*.5#.u#.*#.2..+..i;.Y&.+;.j;.k;.T*.p=.C#.l;.I*.m;.&;.n;.n;.%*.o;.hk w0 w> Ta Wy h@.p;.q;.r;.s;.4 .(T (Z YP &L >@.h .mS CQ .M u@.Z@.Xy Wy C@.h| se %0 %0 &0 <d rc rc rc :d :d }f wD ';.);.);.);.t;.u;.u;.v;.w;.w;.^;.^;.2;.2;.Va Va Va  c 1a 1a };.x;.|;.y;.1;.I-.(;.(;.3;.3;.z;.2;.A;.2;.B;.wA lC }f 'l Gj @2 #p RA %G !l ~l Lj _j 93 q0 q0 d9 b3 b3 q0 93 93 93 uD uD q0 93 V8 ,4 I` I#.XO {4                                                                                                                                                                               ",
"                                                                                                      C;.s0 3W D;.E;.F;.(v Vv Hw -P =P G;.Q-.H;.CO DO PK dB I;.bM J;..O XY 'Z UM UM K;.L;.}$.d` <t <$.M;.U#.N;.DY 6%.^..L%. ;.O;.P;.Q;.@;.1U (#._#.9-.2*.w=.R;.S;.T;.T;.U;.o;.|1 w0 y0 Ta V;.W;.p;.q;.X;.s;.4 .i .iK uL uL iK Y;.Z;.DQ #R h@.u@.`;.W;. >.y) 98 98 k| k| se `8 `f Zf .o wD wD 0#.0#.C#..>.);.+>.+>.@>.@>.];.#>.#>.#>.=*.=*.-*.-*.$>.$>.$>.n*.y;.I*.y;.@=.I-.@=.I-.I-.p*.H*.Q=..=.%>..=.<;.n*.1*.^j #2 Zf jk Kj lk +g !l El Lj _j uD go go q0 D4 D4 q0 93 (j (j uD uD :f (j 2h Zd ki 3h '0 {4                                                                                                                                                                               ",
"                                                                                                   &>.Fv ]N *>.=>.->.;>.dP oY =P >P G;.'P H;.>>.CO TK PK dB PM ,>.'>.qN 'Z UM qZ qZ )>.!>.W` <t K` :$.~>.4%.1Y J$.&%.(..{>.E..]>.^>.@;./>.8#.;#.L@.U=.@=.^=.(>._>.T;.T;.U;.o;.:>.$-.Ta <>.W;.[>.q;.}>.X;.|>.1>.q .&L [L [L &L 2>.3>.DQ #R 7R h@.W;.4>.>` VU [a LZ LZ y)  g h| `f Wy .o TA TA 5>.0#.6>.C#.7>.$;.$;.8>.l;.#>.l;.#>.ni UA mi  =.~=.$>.@-.-;.+-.3*.0-.3*.(=.@=.(=.@=.@=.w=.w=.+=.a-.J-.a-..=.p*.H-.UA fk db te Jj .g +g Xd El ym _j uD go go :f p0 D4 q0 93 (j (j uD uD :f (j 2h Zd ki 3h '0 {4                                                                                                                                                                               ",
"                                                                                                   9>.te Gl FR 0>.a>.b>.c>.G;.>P d>.e>.f>.H;.g>.h>.i>.~&.F%.j>.k>.SM TM TM pN UM qZ fB fB l>.m>.RZ n>.5#.5%.o>.p>.N .{>.q>.r>.s>.t>.u>.LV p=.0#.v=.3*.H*._;.v>.w>.=;.=;.U;.-;.!=.dk Zf Xy u@.x>.4 .q .R$.~%.F` >@.iK iK I@.h .y>.x>.u@.u@.Z@.Z@.`;.W;.4>.[` VU VU VU sU  >.<>.B@.A*.L@.A*.0$.z>.A>.B>.0$.5>.C>.+$.D>.E>.D>.9-.Uh U=.2*.s=.i| s=.F>.G>.@-.H>.0-.)%.(=.d%.I>.A%.'%.'%.J>.b%.C*.A-.K>.L>.M>.M>.p*.Va bb e% &0 re eb 5a +g 9b !l ym wm 0k wl :f p0 D4 p0 p0 Uf Uf go go tg tg f| +2 fq C2 '0 %6                                                                                                                                                                               ",
"                                                                                                   Va Xd 1z N>.O>.P>.Q>.R>.+C S>.d>.T>.e>.U>.Q-.V>.QK 0&.K#.W>.N#.X>.QZ QZ oN b` c` fM :t b .Y>.Z>.)` 4%.1Y `>. ,..,.>=.]` h..`V 3P +,.~N VO MI vg Th m*. =.o;.o;.$>.$>.@,.ek Ta  >.l*.DQ Z;.+ .t` c$.. .U$.tL tL tL  M uL >@.Y;.Z;.u@.u@.u@.u@.W;.4>.[` [` #,.#,.#,.$,.%,.[` h@.u@.0$.0$.A>.&,.*,.=,.*,.*,.a$.v=.v=.U=.U=.N$.v=.r=.N$.N$.N$.N$.-,.-,.B*.B*.O$.P$.P$.)%.d%.;,.>,.>,.'%.,,.m;.%;.A-.B-.L>.K>.',.),.!,.bb d8 >A &0 `8 k#.Sa Pa Lj 0k wl xl ~n {j D4 p0 tp Uf Uf %q go Uf :f 2h Zd ki Sh )0 U7                                                                                                                                                                               ",
"                                                                                                ~,..c sp =w {,.],.^,./,.0;.S>.(,._,.2C :,.<,.[,.k-.},.9M |,.1,.jN 2,.kN kN 3,.TM UM DZ <t sZ 3#.4,.5,.#+.u..z .6,.*+.7,.8,.9,.0,.a,.b,.c,.7>.l;.d,.y;..=..=.:;.:;._;._;.e,.2*.Th L@.uA vL ^S 1>.rM oV o) o) KH KH }L >w h .^S Y@.-#.J@.J@.h@.7R 7R #R #R #R x>.x>.x>.p;.u@.S@.f,.g,.g,.h,.i,.j,.r=.k,._*._*.O$.i| i| ~=.~=.A> ~=.F>.x=.x=.x=.x=.x=.x=.+-.l,.+*.+*.+*.J>.J>.b%.b%.A-.x=.m,.n,._>.T;.o,.*;.p,.q,.r,.s,.gk K4 *0 uu ;2 St 78 lk y, Bv zl .K Pj {j D4 Uf sg sg Uf ak ak Lj ym  b Ra C2 u0 H2                                                                                                                                                                                  ",
"                                                                                                t,.Ij eo u,.v,.w,.x,.y,.Q-.z,.A,.B,.1C <,.C,.;-.J=.9M D,.E,.F,.,$.'$.)$.)$.G,.H,.VM I,.[..tZ 4#.4,.J,.@+.c..O .6,.*` T+.K,.L,.M,.N,.O,.P,.Q,.6A ];.H-.I-.p*.bb bb m*. =.mi Th L@.t@.Dv p .t` JH eY dY eY JH  K `J KH sM p .mS 6@.R,.9#._#.;#.Z@.u@.u@.Z@.Z@.|Q Z;.|Q DQ #R C@.<>.S,.r=.T,.F>.@-.+-.U,.U*.U,.V,.W,.W,.W,.X,.X,.D-.D-.@,.Y,.Y,.Y,.Y,.Y,.@,.@,.~=.~=.i| i| Z,.@-.x=.`,.W,.V,. '..'.+'.@'.#'.$'.N- %'.,..%W XX b5 K4 n9 g8 #$.tc Sa El Pj pk yl ri Zd tg (j (j (j wl wl :f (j Zd f| fq C2 o9 %6                                                                                                                                                                               ",
"                                                                                             &'.d8 Pa :h uU *'.='.-'.;'.S>.>'.,'.''.)'.!'.~'.{'.]'.6*.^'./'.('._'.:'.[%.s$.Y%.<'.['.}'.S#.##.X@.m@.F+.:+.|'.FZ &` QW 1'.2'.3'.4'.5'.6'.7'.8'.:d 9'.kC ^j UA i9 i9 #2 fk vA wD uA nw fI >w :M lw ^U hS bU OS 'N GU fI ZT ~N nw ,w ,w JT SS h .p .I@.I@.p .5J CQ CQ Dl )l C@.Wf Ej Bl 0'.w0 r| H} a8 a'.b'.c'.p| p| p| p| 11 11 d'.d'.e'.e'..9 .9 .9 .9 ab 1a pn pn pn up f'.g'.h'.h'.b'.c'.o| i'.j'.k'.l'.m'.n'.o'.TY O; p'./V H` q'.%9 g8 z0 7a Al |L 4U DK r'.ji ~j ~j xD xD Uq Uq nk nk pi ri `d _a .6 &2                                                                                                                                                                               ",
"                                                                                             s'.51 Oq Z+.0i t'.b>.c>.)P HM (,.u'.v'.w'.x'.{'.y'.v*.z'.A'.B'.C'.:'.D'.E'.t$.F'.~$.]$.G'.H'.C+.X@.m@.F+.#+.|'.wZ IZ @X I'.J'.K'.L'.M'.N'.7'.5P WO O'.P'.db db Wd >A >A Ya Cl Hj &A ZT sM :M lw ]U NS gT fT ^` 'N pU fI ZT ~N ~N ~N ~N =#.=#.6@.^S ^S mS mS LI cq cq Jj @2 Gj Ya e%  9 !n Q'.:#.Y* s'.O; <Z R'.j'.S'.j'.j'.T'.U'.U'.>* V'.+9 L6 *6 *6 *6 )w )w *6 *6 L6 L6 V'.O} XX '2 s'.W'.R'.X'.Y'.Z'.`'.`'.X+.X+.X+. ).nX FX .).+).@).j8 #$.B0 r0 :1 DK U+.pi Wh :f Uf ~n ~n ak ak >p _m {j pi qe g| F} &}                                                                                                                                                                               ",
"                                                                                                1;.#).gK xR vW $).y+.sN OM 9M %).'*.&).*).=).-).;).>).,).').)).!).~).{).]).^)./).()._).:).<).[).}).|).1).2).3).4).5).6).7).8).9).0).a).b).c).d).e).f).g).g).h).f).e).i).j).k).l).m).n).o).p).q).q).r).s).t).u).v).w).l).x).x).y).y).z).z).z).A).A).B).C).D).E).F).G).H).I).J).K).L).M).N).O).&' P).Q).Q).,, R).S).R).R).T).U).V).W).X).O).Y).Z).`).`).`).`).M).M). !. !.O).O).&' &' P)..!.Q).,, ,, t& t& t& +!.@!.@!.Q).#!.$!.%!.&!.*!.=!.-!.;!.>!.(=.>%..*.uA Hj VO VO kO kO S=.S=.B#.,!.0#.E>.mi I*.J-.'!.                                                                                                                                                                              ",
"                                                                                                )!.$G !!.BS ~!. N ZM aM QK {!.]!.4=.^!./!.(!._!.:!.<!.[!.,).}!.|!.{).1!.2!.3!.4!.5!.6!.7!.8!.9!.0!.a!.1).b!.c!.d!.e!.f!.7).8).9).0).g!.h!.i!.j!.k!.e).g).l!.f).i).k!.H).m!.n!.o!.p!.q!.r!.q).s!.s!.q).t!.u!.v!.w!.x!.y!.w).w).m).m).A).A).z).z).A).B).C).D).z!.A!.B!.G).C!.D!.E!.M).M). !.F!.&' .!.Q).@!.@!.G!.G!.G!.G!.,, @!.#!.#!.O).O).H!.I!.J!.J!.J!.J!.H!.K!.O).X).X).L!.P)..!.Q).Q).@!.,, M!.M!.M!.N!.,, ,, M!.M!.,, @!.Q).Q).Y).*!.O!.P!.Q!.I>.R!.*,.'w MI 8-.n=.,w ,w g=.g=.B#.,!.0#.C#.mi I*.J-.'!.                                                                                                                                                                              "};
