/* XPM */
static char * door_xpm[] = {
"199 192 597 2",
"  	c #90837C",
". 	c #766156",
"+ 	c #756055",
"@ 	c #745F54",
"# 	c #7A6255",
"$ 	c #A47456",
"% 	c #A87556",
"& 	c #A97656",
"* 	c #A27256",
"= 	c #896855",
"- 	c #846655",
"; 	c #856655",
"> 	c #826555",
", 	c #8D6955",
"' 	c #A57456",
") 	c #A87656",
"! 	c #9D7056",
"~ 	c #936C56",
"{ 	c #AA7656",
"] 	c #916B55",
"^ 	c #725F54",
"/ 	c #766055",
"( 	c #946D56",
"_ 	c #A77556",
": 	c #906A55",
"< 	c #836655",
"[ 	c #9F7156",
"} 	c #A47356",
"| 	c #8B6955",
"1 	c #836555",
"2 	c #8C6955",
"3 	c #A17256",
"4 	c #786155",
"5 	c #9B908B",
"6 	c #7F6E65",
"7 	c #5B3616",
"8 	c #59330D",
"9 	c #58320C",
"0 	c #60370D",
"a 	c #985716",
"b 	c #9C5916",
"c 	c #9D5A17",
"d 	c #9E5A17",
"e 	c #955515",
"f 	c #754310",
"g 	c #6F3F10",
"h 	c #704010",
"i 	c #6C3E0F",
"j 	c #7B4611",
"k 	c #995716",
"l 	c #9E5A16",
"m 	c #9C5A17",
"n 	c #9C5917",
"o 	c #8F5114",
"p 	c #6F3F0F",
"q 	c #824A13",
"r 	c #9F5B17",
"s 	c #9D5A16",
"t 	c #804912",
"u 	c #55300C",
"v 	c #5A340D",
"w 	c #57310C",
"x 	c #844C13",
"y 	c #9B5916",
"z 	c #9E5B17",
"A 	c #7E4812",
"B 	c #6E3F0F",
"C 	c #6F4010",
"D 	c #703F0F",
"E 	c #925314",
"F 	c #9E5B16",
"G 	c #975615",
"H 	c #784511",
"I 	c #6D3E0F",
"J 	c #794511",
"K 	c #975616",
"L 	c #945415",
"M 	c #5D350D",
"N 	c #8D7F78",
"O 	c #A05C17",
"P 	c #A05B17",
"Q 	c #8C5014",
"R 	c #8A4F13",
"S 	c #8B4F13",
"T 	c #915315",
"U 	c #8F5214",
"V 	c #8D5114",
"W 	c #905314",
"X 	c #714110",
"Y 	c #714010",
"Z 	c #824A12",
"` 	c #9B5917",
" .	c #9B5816",
"..	c #784411",
"+.	c #935415",
"@.	c #905214",
"#.	c #734210",
"$.	c #814912",
"%.	c #9A5816",
"&.	c #7C4711",
"*.	c #6E3E0F",
"=.	c #764310",
"-.	c #744210",
";.	c #6E3F10",
">.	c #7D4712",
",.	c #774410",
"'.	c #8E5114",
").	c #915314",
"!.	c #965615",
"~.	c #9D5915",
"{.	c #A15C16",
"].	c #A45D16",
"^.	c #915313",
"/.	c #6B3D0F",
"(.	c #6A3C0F",
"_.	c #814A12",
":.	c #A15C17",
"<.	c #945515",
"[.	c #955514",
"}.	c #A25C16",
"|.	c #9A5714",
"1.	c #884D12",
"2.	c #8A4E13",
"3.	c #884D13",
"4.	c #894D13",
"5.	c #874D13",
"6.	c #864D13",
"7.	c #864D14",
"8.	c #854D14",
"9.	c #894E13",
"0.	c #864C12",
"a.	c #70400F",
"b.	c #7E4811",
"c.	c #724110",
"d.	c #703F10",
"e.	c #965515",
"f.	c #7E4711",
"g.	c #7A4611",
"h.	c #6C3D0F",
"i.	c #71400F",
"j.	c #925415",
"k.	c #7D4711",
"l.	c #925315",
"m.	c #8A4F14",
"n.	c #884E13",
"o.	c #965616",
"p.	c #884E14",
"q.	c #834B12",
"r.	c #894E14",
"s.	c #8E5014",
"t.	c #854C13",
"u.	c #9D5916",
"v.	c #995816",
"w.	c #754210",
"x.	c #9D5A15",
"y.	c #7E4712",
"z.	c #8B5014",
"A.	c #894F14",
"B.	c #A35C15",
"C.	c #8D521A",
"D.	c #724422",
"E.	c #6F4124",
"F.	c #6F4123",
"G.	c #6E4124",
"H.	c #824B1F",
"I.	c #905215",
"J.	c #8F5115",
"K.	c #7E4920",
"L.	c #6E4123",
"M.	c #734421",
"N.	c #925419",
"O.	c #9A5916",
"P.	c #A95E14",
"Q.	c #7B491E",
"R.	c #19202B",
"S.	c #00132E",
"T.	c #00172D",
"U.	c #00162D",
"V.	c #00112E",
"W.	c #5F3826",
"X.	c #9F5A17",
"Y.	c #533228",
"Z.	c #00132D",
"`.	c #00122E",
" +	c #21232A",
".+	c #864E1C",
"++	c #A75E14",
"@+	c #9A5917",
"#+	c #A85E14",
"$+	c #7C4A1E",
"%+	c #22222B",
"&+	c #02172D",
"*+	c #071B2C",
"=+	c #061A2C",
"-+	c #081B2C",
";+	c #00152D",
">+	c #613926",
",+	c #553328",
"'+	c #071A2C",
")+	c #01162E",
"!+	c #28252A",
"~+	c #071B2D",
"{+	c #061A2D",
"]+	c #081B2D",
"^+	c #071A2D",
"/+	c #00162E",
"(+	c #A65D14",
"_+	c #9A5817",
":+	c #AA5F14",
"<+	c #7D4A1E",
"[+	c #24222B",
"}+	c #633A26",
"|+	c #A35C16",
"1+	c #573428",
"2+	c #2A262A",
"3+	c #874F1C",
"4+	c #9D5917",
"5+	c #995817",
"6+	c #985818",
"7+	c #965718",
"8+	c #A15B15",
"9+	c #77471E",
"0+	c #5F3825",
"a+	c #955614",
"b+	c #995818",
"c+	c #543227",
"d+	c #2A252A",
"e+	c #804C1D",
"f+	c #9F5B15",
"g+	c #A15B16",
"h+	c #8D5219",
"i+	c #6D4223",
"j+	c #673F24",
"k+	c #693F23",
"l+	c #683F24",
"m+	c #663E24",
"n+	c #704223",
"o+	c #533526",
"p+	c #181D2C",
"q+	c #04192D",
"r+	c #00182D",
"s+	c #412928",
"t+	c #663C21",
"u+	c #7E4A1F",
"v+	c #794720",
"w+	c #653B21",
"x+	c #392629",
"y+	c #03182D",
"z+	c #1C1F2B",
"A+	c #5A3826",
"B+	c #693F24",
"C+	c #704322",
"D+	c #915419",
"E+	c #7B4A1D",
"F+	c #2E222C",
"G+	c #00142E",
"H+	c #00152E",
"I+	c #05192C",
"J+	c #603A26",
"K+	c #523328",
"L+	c #00142D",
"M+	c #01192D",
"N+	c #36272B",
"O+	c #844E1B",
"P+	c #A65E14",
"Q+	c #A75E15",
"R+	c #7D4C1C",
"S+	c #33262A",
"T+	c #06192C",
"U+	c #0B1C2C",
"V+	c #00192C",
"W+	c #623B25",
"X+	c #543527",
"Y+	c #081A2C",
"Z+	c #0C1C2C",
"`+	c #02182C",
" @	c #3A2A29",
".@	c #854F1B",
"+@	c #A65D15",
"@@	c #33262B",
"#@	c #01172D",
"$@	c #613A26",
"%@	c #543428",
"&@	c #3A2A2A",
"*@	c #091B2C",
"=@	c #7D4B1C",
"-@	c #31252B",
";@	c #03182C",
">@	c #04182D",
",@	c #04192C",
"'@	c #05192D",
")@	c #613A27",
"!@	c #533328",
"~@	c #39292A",
"{@	c #A65E15",
"]@	c #A55D15",
"^@	c #7F4C1C",
"/@	c #3D2A2A",
"(@	c #1F1E2C",
"_@	c #23202C",
":@	c #231F2C",
"<@	c #221F2C",
"[@	c #28212C",
"}@	c #1A1D2C",
"|@	c #03192C",
"1@	c #051A2D",
"2@	c #131B2C",
"3@	c #211F2C",
"4@	c #1B1D2C",
"5@	c #643C26",
"6@	c #9F5B16",
"7@	c #583627",
"8@	c #1E1E2C",
"9@	c #201E2C",
"0@	c #111B2C",
"a@	c #1D1D2C",
"b@	c #27202C",
"c@	c #1E1D2D",
"d@	c #432D29",
"e@	c #864F1B",
"f@	c #915519",
"g@	c #75471E",
"h@	c #6D441F",
"i@	c #6F451E",
"j@	c #70451E",
"k@	c #6E441F",
"l@	c #74471E",
"m@	c #523625",
"n@	c #03172D",
"o@	c #432E28",
"p@	c #6A431F",
"q@	c #6F451F",
"r@	c #70451F",
"s@	c #814D1C",
"t@	c #7C4B1D",
"u@	c #6F441F",
"v@	c #6E451F",
"w@	c #694220",
"x@	c #141C2C",
"y@	c #593923",
"z@	c #73461E",
"A@	c #78491E",
"B@	c #945618",
"C@	c #A95F14",
"D@	c #AB5F14",
"E@	c #7D4A1D",
"F@	c #28232B",
"G@	c #673C26",
"H@	c #A25C15",
"I@	c #A45D15",
"J@	c #A05B15",
"K@	c #5B3628",
"L@	c #2E272A",
"M@	c #864F1C",
"N@	c #975717",
"O@	c #79491E",
"P@	c #23222B",
"Q@	c #29252A",
"R@	c #834D1D",
"S@	c #985717",
"T@	c #613925",
"U@	c #563328",
"V@	c #01162D",
"W@	c #874E1C",
"X@	c #9C5A16",
"Y@	c #06192D",
"Z@	c #0A1B2C",
"`@	c #00172C",
" #	c #553428",
".#	c #00182C",
"+#	c #091A2C",
"@#	c #7E4A1E",
"##	c #37272B",
"$#	c #2A1F2D",
"%#	c #2B212C",
"&#	c #2A202D",
"*#	c #251E2D",
"=#	c #975716",
"-#	c #5D3628",
";#	c #271F2D",
">#	c #874E1D",
",#	c #A55D14",
"'#	c #7A4511",
")#	c #844B12",
"!#	c #A05B16",
"~#	c #7C4B1C",
"{#	c #77491D",
"]#	c #87501A",
"^#	c #7C4712",
"/#	c #7D4812",
"(#	c #834E1B",
"_#	c #734110",
":#	c #A35D16",
"<#	c #A55D16",
"[#	c #764311",
"}#	c #774411",
"|#	c #6F400F",
"1#	c #854B13",
"2#	c #774311",
"3#	c #6B3C0F",
"4#	c #7F4812",
"5#	c #985715",
"6#	c #72410F",
"7#	c #764410",
"8#	c #844B13",
"9#	c #985615",
"0#	c #9C5714",
"a#	c #9D5310",
"b#	c #9D520E",
"c#	c #9C5512",
"d#	c #9C5511",
"e#	c #9C5715",
"f#	c #9C5713",
"g#	c #9B6729",
"h#	c #9A7538",
"i#	c #9A7437",
"j#	c #9A7335",
"k#	c #9A7537",
"l#	c #9B6C2E",
"m#	c #9C5B18",
"n#	c #9B6E31",
"o#	c #9C6426",
"p#	c #9C5814",
"q#	c #9C5B19",
"r#	c #9D5001",
"s#	c #98996A",
"t#	c #91D7AF",
"u#	c #90E6BE",
"v#	c #90E5B8",
"w#	c #91E3B5",
"x#	c #90E4BB",
"y#	c #95BD99",
"z#	c #9C5A0A",
"A#	c #9C5E17",
"B#	c #94C7A4",
"C#	c #90E3B9",
"D#	c #90E6BF",
"E#	c #91D4AA",
"F#	c #998E60",
"G#	c #9D5204",
"H#	c #9D5B19",
"I#	c #9C5C1A",
"J#	c #9D4E00",
"K#	c #98A071",
"L#	c #8FE7B9",
"M#	c #8EF6C8",
"N#	c #8EF1C1",
"O#	c #8EEFBF",
"P#	c #8EF4C6",
"Q#	c #93CBA2",
"R#	c #9C5A08",
"S#	c #9D5713",
"T#	c #9D5613",
"U#	c #9C5F17",
"V#	c #92D6AD",
"W#	c #8EF3C4",
"X#	c #8EF0BF",
"Y#	c #8EF6CA",
"Z#	c #90E3B3",
"`#	c #999466",
" $	c #9D5C19",
".$	c #989D6D",
"+$	c #90E5B3",
"@$	c #8EF2C3",
"#$	c #8FECBC",
"$$	c #8FEDBD",
"%$	c #8FECBB",
"&$	c #8EF2C2",
"*$	c #94CA9D",
"=$	c #9C5A09",
"-$	c #92D6A8",
";$	c #8EF0C0",
">$	c #8EF4C4",
",$	c #90E0AE",
"'$	c #999162",
")$	c #9D5103",
"!$	c #90E6B4",
"~$	c #8EF4C5",
"{$	c #8FEEBE",
"]$	c #8FEFBF",
"^$	c #94CB9F",
"/$	c #9C5908",
"($	c #92D7AA",
"_$	c #8FEEBD",
":$	c #8EF5C6",
"<$	c #90E1AF",
"[$	c #90E4B2",
"}$	c #8FEBBA",
"|$	c #8FEAB9",
"1$	c #8EF1C0",
"2$	c #94C99C",
"3$	c #9C5E18",
"4$	c #92D4A7",
"5$	c #8EEFBE",
"6$	c #8FEABA",
"7$	c #90DFAD",
"8$	c #98A375",
"9$	c #8FEBBF",
"0$	c #8DFBD0",
"a$	c #8EF8C8",
"b$	c #8EF8C9",
"c$	c #8DF9CD",
"d$	c #93CEA8",
"e$	c #9C5A06",
"f$	c #92D9B3",
"g$	c #8DF7CB",
"h$	c #8EF6C6",
"i$	c #8DFBD1",
"j$	c #8FE6BA",
"k$	c #999669",
"l$	c #9D5000",
"m$	c #9D5107",
"n$	c #998C5B",
"o$	c #93C195",
"p$	c #92CEA3",
"q$	c #92CE9E",
"r$	c #93CC9C",
"s$	c #92CDA1",
"t$	c #96AA83",
"u$	c #9C5A0F",
"v$	c #9C5815",
"w$	c #9C5D17",
"x$	c #95B38C",
"y$	c #92CD9F",
"z$	c #93CD9C",
"A$	c #92CEA4",
"B$	c #93BE91",
"C$	c #9A8252",
"D$	c #9D5309",
"E$	c #9D5B18",
"F$	c #9C6022",
"G$	c #9B6C2F",
"H$	c #9B6F33",
"I$	c #9B6F34",
"J$	c #9B6629",
"K$	c #9B682B",
"L$	c #9B6B2F",
"M$	c #9C5F20",
"N$	c #9D5410",
"O$	c #9D530F",
"P$	c #9D5511",
"Q$	c #9C5C19",
"R$	c #9D5A18",
"S$	c #935314",
"T$	c #9C5915",
"U$	c #995715",
"V$	c #8F5113",
"W$	c #915214",
"X$	c #864C13",
"Y$	c #915215",
"Z$	c #8D5012",
"`$	c #754311",
" %	c #7C4611",
".%	c #8D5014",
"+%	c #794411",
"@%	c #54300C",
"#%	c #5A330D",
"$%	c #58330D",
"%%	c #56310C",
"&%	c #61370D",
"*%	c #955516",
"=%	c #834A13",
"-%	c #532F0C",
";%	c #57320C",
">%	c #59320D",
",%	c #5E360D",
"'%	c #854C14",
")%	c #693C0F",
"!%	c #693C0E",
"~%	c #683C0E",
"{%	c #693B0E",
"]%	c #8B4F14",
"^%	c #75420F",
"/%	c #744211",
"(%	c #683B0F",
"_%	c #5C340D",
":%	c #7A4510",
"<%	c #58320D",
"[%	c #A25C17",
"}%	c #57320D",
"|%	c #A35D17",
"1%	c #55310C",
"2%	c #7D6B62",
"3%	c #59320C",
"4%	c #8C7E77",
"5%	c #A39A95",
"6%	c #8F827B",
"7%	c #94847B",
"8%	c #95847B",
"9%	c #94837B",
"0%	c #A0877C",
"a%	c #B08E7C",
"b%	c #AD8D7C",
"c%	c #AE8D7C",
"d%	c #AF8E7C",
"e%	c #9D877C",
"f%	c #ACA39F",
"  . . + + + + + @ # $ % & & & & & % & * = - ; ; ; ; ; ; > , ' & ) & & & & & & & & & & & & & & & & & & & & & & & & & & & & & & & & & & % & ! - ; ; ; ; ; ; - - ~ { % & & & & & & & ] ^ / + + + + + + + + + + + + + + + / @ ( { & & & & & & _ & : < - ; ; ; ; ; ; ; [ & % & & & & & & & & & & & & & & & & & & & & & & & & & & & & & & & & & & ) & } | 1 ; ; ; ; ; ; - 2 } & % & & & & ) & 3 4 @ + + + + + . . 5 ",
"6 7 7 8 8 8 8 8 9 0 a b c c c c c b d e f g h h h h h h i j k l m c c c c c c c c c c c c c c c c c c c c c c c c c c c c c c c c c c n c o p h h h h h h g p q r b c c c c c s l t u v 8 8 8 8 8 8 8 8 8 8 8 8 8 8 8 v w x r s c c c c c y z A B C h h h h h h D E c n c c c c c c c c c c c c c c c c c c c c c c c c c c c c c c c c c c m F G H I h h h h h h g J K d b c c c c m s L M 9 8 8 8 8 8 7 7 N ",
"6 7 7 8 8 8 8 8 9 0 a b c c c c c b d e f g h h h h h h i j k l m c c c c c c c c c c c c c c c c c c c c c c c c c c c c c c c c c c n c o p h h h h h h g p q r b c c c c c s l t u v 8 8 8 8 8 8 8 8 8 8 8 8 8 8 8 v w x r s c c c c c y z A B C h h h h h h D E c n c c c c c c c c c c c c c c c c c c c c c c c c c c c c c c c c c c m F G H I h h h h h h g J K d b c c c c m s L M 9 8 8 8 8 8 7 7 N ",
"6 7 7 8 8 8 8 8 9 0 a b c c c c c b d e f g h h h h h h i j k l m c c c c c c c c c c c c c c c c c c c c c c c c c c c c c c c c c c n c o p h h h h h h g p q r b c c c c c s l t u v 8 8 8 8 8 8 8 8 8 8 8 8 8 8 8 v w x r s c c c c c y z A B C h h h h h h D E c n c c c c c c c c c c c c c c c c c c c c c c c c c c c c c c c c c c m F G H I h h h h h h g J K d b c c c c m s L M 9 8 8 8 8 8 7 7 N ",
"6 7 7 8 8 8 8 8 9 0 a b c c c c c b d e f g h h h h h h i j k l m c c c c c c c c c c c c c c c c c c c c c c c c c c c c c c c c c c n c o p h h h h h h g p q r b c c c c c s l t u v 8 8 8 8 8 8 8 8 8 8 8 8 8 8 8 v w x r s c c c c c y z A B C h h h h h h D E c n c c c c c c c c c c c c c c c c c c c c c c c c c c c c c c c c c c m F G H I h h h h h h g J K d b c c c c m s L M 9 8 8 8 8 8 7 7 N ",
"6 7 7 8 8 8 8 8 9 0 a b c c c c c b d e f g h h h h h h i j k l m c c c c c c c c c c c c c c c c c c c c c c c c c c c c c c c c c c n c o p h h h h h h g p q r b c c c c c s l t u v 8 8 8 8 8 8 8 8 8 8 8 8 8 8 8 v w x r s c c c c c y z A B C h h h h h h D E c n c c c c c c c c c c c c c c c c c c c c c c c c c c c c c c c c c c m F G H I h h h h h h g J K d b c c c c m s L M 9 8 8 8 8 8 7 7 N ",
"6 7 7 8 8 8 8 8 9 0 a b c c c c c b d e f g h h h h h h i j k l m c c c c c c c c c c c c c c c c c c c c c c c c c c c c c c c c c c n c o p h h h h h h g p q r b c c c c c s l t u v 8 8 8 8 8 8 8 8 8 8 8 8 8 8 8 v w x r s c c c c c y z A B C h h h h h h D E c n c c c c c c c c c c c c c c c c c c c c c c c c c c c c c c c c c c m F G H I h h h h h h g J K d b c c c c m s L M 9 8 8 8 8 8 7 7 N ",
"6 7 7 8 8 8 8 8 9 0 a b c c c c c b d e f g h h h h h h i j k l m c c c c c c c c c c c c c c c c c c c c c c c c c c c c c c c c c c n c o p h h h h h h g p q r b c c c c c s l t u v 8 8 8 8 8 8 8 8 8 8 8 8 8 8 8 v w x r s c c c c c y z A B C h h h h h h D E c n c c c c c c c c c c c c c c c c c c c c c c c c c c c c c c c c c c m F G H I h h h h h h g J K d b c c c c m s L M 9 8 8 8 8 8 7 7 N ",
"6 7 7 8 8 8 8 8 9 0 a b c c c c c b d e f g h h h h h h i j k l m c c c c c c c c c c c c c c c c c c c c c c c c c c c c c c c c c c n c o p h h h h h h g p q r b c c c c c s l t u v 8 8 8 8 8 8 8 8 8 8 8 8 8 8 8 v w x r s c c c c c y z A B C h h h h h h D E c n c c c c c c c c c c c c c c c c c c c c c c c c c c c c c c c c c c m F G H I h h h h h h g J K d b c c c c m s L M 9 8 8 8 8 8 7 7 N ",
"6 7 7 8 8 8 8 8 9 0 a b c c c c c b d e f g h h h h h h i j k l m c c c c c c c c c c c c c c c c c c c c c c c c c c c c c c c c c c n c o p h h h h h h g p q r b c c c c c s l t u v 8 8 8 8 8 8 8 8 8 8 8 8 8 8 8 v w x r s c c c c c y z A B C h h h h h h D E c n c c c c c c c c c c c c c c c c c c c c c c c c c c c c c c c c c c m F G H I h h h h h h g J K d b c c c c m s L M 9 8 8 8 8 8 7 7 N ",
"6 7 7 8 8 8 8 8 9 0 a b c c c c c b d e f g h h h h h h i j k l m c c c c c c c c c c c c c c c c c c c c c c c c c c c c c c c c c c n c o p h h h h h h g p q r b c c c c c s l t u v 8 8 8 8 8 8 8 8 8 8 8 8 8 8 8 v w x r s c c c c c y z A B C h h h h h h D E c n c c c c c c c c c c c c c c c c c c c c c c c c c c c c c c c c c c m F G H I h h h h h h g J K d b c c c c m s L M 9 8 8 8 8 8 7 7 N ",
"6 7 7 8 8 8 8 8 9 0 a b c c c c c b d e f g h h h h h h i j k l m c c c c c c c c c c c c c c c c c c c c c c c c c c c c c c c c c c n c o p h h h h h h g p q r b c c c c c s l t u v 8 8 8 8 8 8 8 8 8 8 8 8 8 8 8 v w x r s c c c c c y z A B C h h h h h h D E c n c c c c c c c c c c c c c c c c c c c c c c c c c c c c c c c c c c m F G H I h h h h h h g J K d b c c c c m s L M 9 8 8 8 8 8 7 7 N ",
"6 7 7 8 8 8 8 8 9 0 a b c c c c c b d e f g h h h h h h i j k l m c c c c c c c c c c c c c c c c c c c c c c c c c c c c c c c c c c n c o p h h h h h h g p q r b c c c c c s l t u v 8 8 8 8 8 8 8 8 8 8 8 8 8 8 8 v w x r s c c c c c y z A B C h h h h h h D E c n c c c c c c c c c c c c c c c c c c c c c c c c c c c c c c c c c c m F G H I h h h h h h g J K d b c c c c m s L M 9 8 8 8 8 8 7 7 N ",
"6 7 7 8 8 8 8 8 9 0 a b c c c c c b d e f g h h h h h h i j k l m c c c c c c c c c c c c c c c c c c c c c c c c c c c c c c c c c c n c o p h h h h h h g p q r b c c c c c s l t u v 8 8 8 8 8 8 8 8 8 8 8 8 8 8 8 v w x r s c c c c c y z A B C h h h h h h D E c n c c c c c c c c c c c c c c c c c c c c c c c c c c c c c c c c c c m F G H I h h h h h h g J K d b c c c c m s L M 9 8 8 8 8 8 7 7 N ",
"6 7 7 8 8 8 8 8 9 0 a b c c c c c b d e f g h h h h h h i j k l m c c c c c c c c c c c c c c c c c c c c c c c c c c c c c c c c c c n c o p h h h h h h g p q r b c c c c c s l t u v 8 8 8 8 8 8 8 8 8 8 8 8 8 8 8 v w x r s c c c c c y z A B C h h h h h h D E c n c c c c c c c c c c c c c c c c c c c c c c c c c c c c c c c c c c m F G H I h h h h h h g J K d b c c c c m s L M 9 8 8 8 8 8 7 7 N ",
"6 7 7 8 8 8 8 8 9 0 a b c c c c c b d e f g h h h h h h i j k l m c c c c c c c c c c c c c c c c c c c c c c c c c c c c c c c c c c n c o p h h h h h h g p q r b c c c c c s l t u v 8 8 8 8 8 8 8 8 8 8 8 8 8 8 8 v w x r s c c c c c y z A B C h h h h h h D E c n c c c c c c c c c c c c c c c c c c c c c c c c c c c c c c c c c c m F G H I h h h h h h g J K d b c c c c m s L M 9 8 8 8 8 8 7 7 N ",
"6 7 7 8 8 8 8 8 9 0 a b c c c c c b d e f g h h h h h h i j k l m c c c c c c c c c c c c c c c c c c c c c c c c c c c c c c c c c c n c o p h h h h h h g p q r b c c c c c s l t u v 8 8 8 8 8 8 8 8 8 8 8 8 8 8 8 v w x r s c c c c c y z A B C h h h h h h D E c n c c c c c c c c c c c c c c c c c c c c c c c c c c c c c c c c c c m F G H I h h h h h h g J K d b c c c c m s L M 9 8 8 8 8 8 7 7 N ",
"6 7 7 8 8 8 8 8 9 0 a b c c c c c b d e f g h h h h h h i j k l m c c c c c c c c c c c c c c c c c c c c c c c c c c c c c c c c c c n c o p h h h h h h g p q r b c c c c c s l t u v 8 8 8 8 8 8 8 8 8 8 8 8 8 8 8 v w x r s c c c c c y z A B C h h h h h h D E c n c c c c c c c c c c c c c c c c c c c c c c c c c c c c c c c c c c m F G H I h h h h h h g J K d b c c c c m s L M 9 8 8 8 8 8 7 7 N ",
"6 7 7 8 8 8 8 8 9 0 a b c c c c c b d e f g h h h h h h i j k l m c c c c c c c c c c c c c c c c c c c c c c c c c c c c c c c c c c n c o p h h h h h h g p q r b c c c c c s l t u v 8 8 8 8 8 8 8 8 8 8 8 8 8 8 8 v w x r s c c c c c y z A B C h h h h h h D E c n c c c c c c c c c c c c c c c c c c c c c c c c c c c c c c c c c c m F G H I h h h h h h g J K d b c c c c m s L M 9 8 8 8 8 8 7 7 N ",
"6 7 7 8 8 8 8 8 9 0 a b c c c c c b d e f g h h h h h h i j k l m c c c c c c c c c c c c c c c c c c c c c c c c c c c c c c c c c c n c o p h h h h h h g p q r b c c c c c s l t u v 8 8 8 8 8 8 8 8 8 8 8 8 8 8 8 v w x r s c c c c c y z A B C h h h h h h D E c n c c c c c c c c c c c c c c c c c c c c c c c c c c c c c c c c c c m F G H I h h h h h h g J K d b c c c c m s L M 9 8 8 8 8 8 7 7 N ",
"6 7 7 8 8 8 8 8 9 0 a b c c c c c b d e f g h h h h h h i j k l m c c c c b c c b b b b b b b b b b b b b b b b b b b b c c c c c c c n c o p h h h h h h g p q r b c c c c c s l t u v 8 8 8 8 8 8 8 8 8 8 8 8 8 8 8 v w x r s c c c c c y z A B C h h h h h h D E c n c c c c m c b b b b b b b b b b b b b b b b b b b b b c c c c c c c m F G H I h h h h h h g J K d b c c c c m s L M 9 8 8 8 8 8 7 7 N ",
"6 7 7 8 8 8 8 8 9 0 a b c c c c c b d e f g h h h h h h i j k l m c c c c c b c r O P P P P P P P P P P P P P P P P O r n m c c c c c n c o p h h h h h h g p q r b c c c c c s l t u v 8 8 8 8 8 8 8 8 8 8 8 8 8 8 8 v w x r s c c c c c y z A B C h h h h h h D E c n c c c c c b c r P P P P P P P P P P P P P P P P P O r s b c c c c c m F G H I h h h h h h g J K d b c c c c m s L M 9 8 8 8 8 8 7 7 N ",
"6 7 7 8 8 8 8 8 9 0 a b c c c c c b d e f g h h h h h h i j k l m c c c c n d K Q R S S S S S S S S S S S S S S S S R T n c c c c c c n c o p h h h h h h g p q r b c c c c c s l t u v 8 8 8 8 8 8 8 8 8 8 8 8 8 8 8 v w x r s c c c c c y z A B C h h h h h h D E c n c c c c b c b U R S S S S S S S S S S S S S S S S R V a d c c c c c m F G H I h h h h h h g J K d b c c c c m s L M 9 8 8 8 8 8 7 7 N ",
"6 7 7 8 8 8 8 8 9 0 a b c c c c c b d e f g h h h h h h i j k l m c c c c b r W f p X Y Y Y Y Y Y Y Y Y Y Y Y Y Y X p Z ` c b c c c c n c o p h h h h h h g p q r b c c c c c s l t u v 8 8 8 8 8 8 8 8 8 8 8 8 8 8 8 v w x r s c c c c c y z A B C h h h h h h D E c n c c c c b c  .A p X Y Y Y Y Y Y Y Y Y Y Y Y Y Y X B ..+.r b c c c c m F G H I h h h h h h g J K d b c c c c m s L M 9 8 8 8 8 8 7 7 N ",
"6 7 7 8 8 8 8 8 9 0 a b c c c c c b d e f g h h h h h h i j k l m c c c c b P @.#.I C g g g g g g g g g g g g g g C I $.` c b c c c c n c o p h h h h h h g p q r b c c c c c s l t u v 8 8 8 8 8 8 8 8 8 8 8 8 8 8 8 v w x r s c c c c c y z A B C h h h h h h D E c n c c c c b c %.&.*.g g g g g g g g g g g g g g g h I =.+.r b c c c c m F G H I h h h h h h g J K d b c c c c m s L M 9 8 8 8 8 8 7 7 N ",
"6 7 7 8 8 8 8 8 9 0 a b c c c c c b d e f g h h h h h h i j k l m c c c c b P @.-.;.h h h h h h h h h h h h h h h h B Z ` c b c c c c n c o p h h h h h h g p q r b c c c c c s l t u v 8 8 8 8 8 8 8 8 8 8 8 8 8 8 8 v w x r s c c c c c y z A B C h h h h h h D E c n c c c c b c %.>.g h h h h h h h h h h h h h h h h I ,.+.r b c c c c m F G H I h h h h h h g J K d b c c c c m s L M 9 8 8 8 8 8 7 7 N ",
"6 7 7 8 8 8 8 8 9 0 a b c c c c c b d e f g h h h h h h i j k l m c c c c b P @.-.;.h h h h h h h h h h h h h h h h B Z ` c b c c c c n c o p h h h h h h g p q r b c c c c c s l t u v 8 8 8 8 8 8 8 8 8 8 8 8 8 8 8 v w x r s c c c c c y z A B C h h h h h h D E c n c c c c b c %.>.;.h h h h h h h h h h h h h h h h I ,.+.r b c c c c m F G H I h h h h h h g J K d b c c c c m s L M 9 8 8 8 8 8 7 7 N ",
"6 7 7 8 8 8 8 8 9 0 a b c c c c c b d e f g h h h h h h i j k l m c c c c b P @.-.;.h h h h h h h h h h h h h h h h B Z ` c b c c c c n c o p h h h h h h g p q r b c c c c c s l t u v 8 8 8 8 8 8 8 8 8 8 8 8 8 8 8 v w x r s c c c c c y z A B C h h h h h h D E c n c c c c b c %.>.;.h h h h h h h h h h h h h h h h I ,.+.r b c c c c m F G H I h h h h h h g J K d b c c c c m s L M 9 8 8 8 8 8 7 7 N ",
"6 7 7 8 8 8 8 8 9 0 a b c c c c c b d e f g h h h h h h i j k l m c c c c b P @.-.;.h h h h h h h h h h h h h h h h B Z ` c b c c c c n c o p h h h h h h g p q r b c c c c c s l t u v 8 8 8 8 8 8 8 8 8 8 8 8 8 8 8 v w x r s c c c c c y z A B C h h h h h h D E c n c c c c b c %.>.;.h h h h h h h h h h h h h h h h I ,.+.r b c c c c m F G H I h h h h h h g J K d b c c c c m s L M 9 8 8 8 8 8 7 7 N ",
"6 7 7 8 8 8 8 8 9 0 a b c c c c c b d e f g h h h h h h i j k l m c c c c b P @.-.;.h h h h h h h h h h h h h h h h B Z ` c b c c c c n c o p h h h h h h g p q r b c c c c c s l t u v 8 8 8 8 8 8 8 8 8 8 8 8 8 8 8 v w x r s c c c c c y z A B C h h h h h h D E c n c c c c b c %.>.;.h h h h h h h h h h h h h h h h I ,.+.r b c c c c m F G H I h h h h h h g J K d b c c c c m s L M 9 8 8 8 8 8 7 7 N ",
"6 7 7 8 8 8 8 8 9 0 a b c c c c c b d e f g h h h h h h i j a s y b b b b y r @.f g Y Y Y Y Y Y Y Y Y Y Y Y Y Y Y Y p Z  .b y b b b y y b '.p h h h h h h g p q r b c c c c c s l t u v 8 8 8 8 8 8 8 8 8 8 8 8 8 8 8 v w x r s c c c c c y z A B C h h h h h h D ).b y y b b b y b %.A C Y Y Y Y Y Y Y Y Y Y Y Y Y Y Y Y B ,.+.z y b b b b y s !.H I h h h h h h g J K d b c c c c m s L M 9 8 8 8 8 8 7 7 N ",
"6 7 7 8 8 8 8 8 9 0 a b c c c c c b d e f g h h h h h h i &.~.{.r r r r r r ].^.X /.I I I I I I I I I I I I I I I I (._.l :.r r r r r P O W p h h h h h h g p q r b c c c c c s l t u v 8 8 8 8 8 8 8 8 8 8 8 8 8 8 8 v w x r s c c c c c y z A B C h h h h h h D <.P P r r r r r :.s &./.I I I I I I I I I I I I I I I I (.-.[.].r r r r r r }.|.J i h h h h h h g J K d b c c c c m s L M 9 8 8 8 8 8 7 7 N ",
"6 7 7 8 8 8 8 8 9 0 a b c c c c c b d e f g h h h h h h B =.1.2.3.3.3.3.3.3.4.5.6.7.7.8.7.7.7.7.7.7.7.7.7.7.7.7.8.7.7.3.9.4.3.3.3.3.3.3.4.t p h h h h h h g p q r b c c c c c s l t u v 8 8 8 8 8 8 8 8 8 8 8 8 8 8 8 v w x r s c c c c c y z A B C h h h h h h p Z 3.3.3.3.3.3.3.9.9.5.7.7.8.7.7.7.7.7.7.7.7.7.7.7.7.8.7.6.6.1.3.3.3.3.3.3.3.2.0.-.B h h h h h h g J K d b c c c c m s L M 9 8 8 8 8 8 7 7 N ",
"6 7 7 8 8 8 8 8 9 0 a b c c c c c b d e f g h h h h h h C a.X Y Y Y Y Y Y Y I b.a c ` n n n n n n n n n n n n n n ` c o c.d.Y Y Y Y Y Y Y h h h h h h h h g p q r b c c c c c s l t u v 8 8 8 8 8 8 8 8 8 8 8 8 8 8 8 v w x r s c c c c c y z A B C h h h h h p h h Y Y Y Y Y Y Y d.#.+.c ` n n n n n n n n n n n n n n ` d e.j I Y Y Y Y Y Y Y X a.C h h h h h h g J K d b c c c c m s L M 9 8 8 8 8 8 7 7 N ",
"6 7 7 8 8 8 8 8 9 0 a b c c c c c b d e f g h h h h h h p C g g g g g g g h /.f.%.r s l l l l l l l l l l l l l l s r U a.B g g g g g g g g p h h h h h h g p q r b c c c c c s l t u v 8 8 8 8 8 8 8 8 8 8 8 8 8 8 8 v w x r s c c c c c y z A B C h h h h h h p g g g g g g g g B Y L r s l l l l l l l l l l l l l l s O G g.h.g g g g g g g g C p h h h h h h g J K d b c c c c m s L M 9 8 8 8 8 8 7 7 N ",
"6 7 7 8 8 8 8 8 9 0 a b c c c c c b d e f g h h h h h h h h h h h h h h h Y I b.k l b c c c c c c c c c c c c c c b d o i.p h h h h h h h h h h h h h h h g p q r b c c c c c s l t u v 8 8 8 8 8 8 8 8 8 8 8 8 8 8 8 v w x r s c c c c c y z A B C h h h h h h h h h h h h h h h p c.j.s b c c c c c c c c c c c c c c b r !.j I Y h h h h h h h h h h h h h h h g J K d b c c c c m s L M 9 8 8 8 8 8 7 7 N ",
"6 7 7 8 8 8 8 8 9 0 a b c c c c c b d e f g h h h h h h h h h h h h h h h Y I b.k l c c c c c c c c c c c c c c c c d o a.p h h h h h h h h h h h h h h h g p q r b c c c c c s l t u v 8 8 8 8 8 8 8 8 8 8 8 8 8 8 8 v w x r s c c c c c y z A B C h h h h h h h h h h h h h h h p X +.l c c c c c c c c c c c c c c c b r !.j I Y h h h h h h h h h h h h h h h g J K d b c c c c m s L M 9 8 8 8 8 8 7 7 N ",
"6 7 7 8 8 8 8 8 9 0 a b c c c c c b d e f g h h h h h h h h h h h h h h h Y I b.k l m c c c c c c c c c c c c c c m d o a.p h h h h h h h h h h h h h h h g p q r b c c c c c s l t u v 8 8 8 8 8 8 8 8 8 8 8 8 8 8 8 v w x r s c c c c c y z A B C h h h h h h h h h h h h h h h p X +.l c c c c c c c c c c c c c c c b r !.j I Y h h h h h h h h h h h h h h h g J K d b c c c c m s L M 9 8 8 8 8 8 7 7 N ",
"6 7 7 8 8 8 8 8 9 0 a b c c c c c b d e f g h h h h h h h h h h h h h h h Y I b.k l m c c c c c c c c c c c c c c m d o a.p h h h h h h h h h h h h h h h g p q r b c c c c c s l t u v 8 8 8 8 8 8 8 8 8 8 8 8 8 8 8 v w x r s c c c c c y z A B C h h h h h h h h h h h h h h h p X +.l c c c c c c c c c c c c c c c b r !.j I Y h h h h h h h h h h h h h h h g J K d b c c c c m s L M 9 8 8 8 8 8 7 7 N ",
"6 7 7 8 8 8 8 8 9 0 a b c c c c c b d e f g h h h h h h h h h h h h h h h Y I b.k l m c c c c c c c c c c c c c c m d o a.p h h h h h h h h h h h h h h h g p q r b c c c c c s l t u v 8 8 8 8 8 8 8 8 8 8 8 8 8 8 8 v w x r s c c c c c y z A B C h h h h h h h h h h h h h h h p X +.l c c c c c c c c c c c c c c c b r !.j I Y h h h h h h h h h h h h h h h g J K d b c c c c m s L M 9 8 8 8 8 8 7 7 N ",
"6 7 7 8 8 8 8 8 9 0 a b c c c c c b d e f g h h h h h h h h h h h h h h h Y I b.k l m c c c c c c c c c c c c c c m d o i.p h h h h h h h h h h h h h h h g p q r b c c c c c s l t u v 8 8 8 8 8 8 8 8 8 8 8 8 8 8 8 v w x r s c c c c c y z A B C h h h h h h h h h h h h h h h p c.+.l c c c c c c c c c c c c c c c b r !.j *.Y h h h h h h h h h h h h h h h g J K d b c c c c m s L M 9 8 8 8 8 8 7 7 N ",
"6 7 7 8 8 8 8 8 9 0 a b c c c c c b d e f g h h h h h h h p *.I I I I I I B (.k.k l m c c c c c c c c c c c c c c m d '.*.i I I I I I I I B h h h h h h h g p q r b c c c c c s l t u v 8 8 8 8 8 8 8 8 8 8 8 8 8 8 8 v w x r s c c c c c y z A B C h h h h h h h B I I I I I I I i p l.l c c c c c c c c c c c c c c c b r !.J (.B I I I I I I B p h h h h h h h g J K d b c c c c m s L M 9 8 8 8 8 8 7 7 N ",
"6 7 7 8 8 8 8 8 9 0 a b c c c c c b d e f g h h h h h h B f 6.m.n.n.n.n.n.9.5.o  .s c c c c c c c c c c c c c c c c s o.p.n.n.n.n.n.n.n.9.$.p h h h h h h g p q r b c c c c c s l t u v 8 8 8 8 8 8 8 8 8 8 8 8 8 8 8 v w x r s c c c c c y z A B C h h h h h h a.q.9.n.n.n.n.n.n.n.r.a s c c c c c c c c c c c c c c c b d %.s.5.9.n.n.n.n.n.m.t.-.B h h h h h h g J K d b c c c c m s L M 9 8 8 8 8 8 7 7 N ",
"6 7 7 8 8 8 8 8 9 0 a b c c c c c b d e f g h h h h h h I g.k c n n n n n n n n b n c c c c c c c c c c c c c c c c b n n n n n n n n n c '.p h h h h h h g p q r b c c c c c s l t u v 8 8 8 8 8 8 8 8 8 8 8 8 8 8 8 v w x r s c c c c c y z A B C h h h h h h D j.n n n n n n n n n n c c c c c c c c c c c c c c c c c b n n n n n n n n n d !...I h h h h h h g J K d b c c c c m s L M 9 8 8 8 8 8 7 7 N ",
"6 7 7 8 8 8 8 8 9 0 a b c c c c c b d e f g h h h h h h i j %.d b u.u.u.u.u.u.u.m c c c c c c c c c c c c c c c c c c s u.u.u.u.u.u.u.c d U p h h h h h h g p q r b c c c c c s l t u v 8 8 8 8 8 8 8 8 8 8 8 8 8 8 8 v w x r s c c c c c y z A B C h h h h h h D j.c c u.u.u.u.u.u.u.c c c c c c c c c c c c c c c c c c c b u.u.u.u.u.u.u.b r G H I h h h h h h g J K d b c c c c m s L M 9 8 8 8 8 8 7 7 N ",
"6 7 7 8 8 8 8 8 9 0 a b c c c c c b d e f g h h h h h h i j k l b c c c c c c c c c c c c c c c c c c c c c c c c c c c c c c c c c n n c '.p h h h h h h g p q r b c c c c c s l t u v 8 8 8 8 8 8 8 8 8 8 8 8 8 8 8 v w x r s c c c c c y z A B C h h h h h h D E c n n c c c c c c c c c c c c c c c c c c c c c c c c c c c c c c c c c b F G H I h h h h h h g J K d b c c c c m s L M 9 8 8 8 8 8 7 7 N ",
"6 7 7 8 8 8 8 8 9 0 a b c c c c c b d e f g h h h h h h i j k l m c c c c c c c c c c c c c c c c c c c c c c c c c c c c c c c c c c n c o p h h h h h h g p q r b c c c c c s l t u v 8 8 8 8 8 8 8 8 8 8 8 8 8 8 8 v w x r s c c c c c y z A B C h h h h h h D E c n c c c c c c c c c c c c c c c c c c c c c c c c c c c c c c c c c c m F G H I h h h h h h g J K d b c c c c m s L M 9 8 8 8 8 8 7 7 N ",
"6 7 7 8 8 8 8 8 9 0 a b c c c c c b d e f g h h h h h h i j k l m c c c c c c c c c c c c c c c c c c c c c c c c c c c c c c c c c c n c o p h h h h h h g p q r b c c c c c s l t u v 8 8 8 8 8 8 8 8 8 8 8 8 8 8 8 v w x r s c c c c c y z A B C h h h h h h D E c n c c c c c c c c c c c c c c c c c c c c c c c c c c c c c c c c c c m F G H I h h h h h h g J K d b c c c c m s L M 9 8 8 8 8 8 7 7 N ",
"6 7 7 8 8 8 8 8 9 0 a b c c c c c b d e f g h h h h h h i j k l m c c c c c c c c c c c c c c c c c c c c c c c c c c c c c c c c c c n c o p h h h h h h g p q r b c c c c c s l t u v 8 8 8 8 8 8 8 8 8 8 8 8 8 8 8 v w x r s c c c c c y z A B C h h h h h h D E c n c c c c c c c c c c c c c c c c c c c c c c c c c c c c c c c c c c m F G H I h h h h h h g J K d b c c c c m s L M 9 8 8 8 8 8 7 7 N ",
"6 7 7 8 8 8 8 8 9 0 a b c c c c c b d e f g h h h h h h i j k l m c c c c c c c n n n n n n n n n n n n n n n n n n n m c c c c c c c n c o p h h h h h h g p q r b c c c c c s l t u v 8 8 8 8 8 8 8 8 8 8 8 8 8 8 8 v w x r s c c c c c y z A B C h h h h h h D E c n c c c c c c c m n n n n n n n n n n n n n n n n n n n c c c c c c c m F G H I h h h h h h g J K d b c c c c m s L M 9 8 8 8 8 8 7 7 N ",
"6 7 7 8 8 8 8 8 9 0 a b c c c c c b d e f g h p p p p h i j v.l m c c c c c c n c s s s s s s s s s s s s s s s s s s c m c c c c c c n c o B p p p p p p p p q r b c c c c c s l t u v 8 8 8 8 8 8 8 8 8 8 8 8 8 8 8 v w x r s c c c c c y z A B p p p p p p p p E c n c c c c c c m c s s s s s s s s s s s s s s s s s s c n c c c c c c m F G H i h p p p p h ;.J K d b c c c c m s L M 9 8 8 8 8 8 7 7 N ",
"6 7 7 8 8 8 8 8 9 0 a b c c c c c b z e w.;.p B B B B C i g.v.l m c c c c c n c s x.x.x.x.x.x.x.x.x.x.x.x.x.x.x.x.x.x.s c n c c c c c n c '.I p B B B B B *.B q r y c c c c c s l t u v 8 8 8 8 8 8 8 8 8 8 8 8 8 8 8 v w x r s c c c c c y z y.B B B B B B B p B l.c n c c c c c n c s x.x.x.x.x.x.x.x.x.x.x.x.x.x.x.x.x.x.s c n c c c c c m F !.H i C B B B B p B H K d b c c c c m s L M 9 8 8 8 8 8 7 7 N ",
"6 7 7 8 8 8 8 8 9 0 a b c c c c c c s v.z.r.r.r.r.r.r.A.n.V  .c c c c c c ` B.C.D.E.F.F.F.F.F.F.F.F.F.F.F.F.F.F.F.F.G.H.%.d n c c c c n c o.r.r.r.r.r.r.r.r.r.I.s m c c c c c s l t u v 8 8 8 8 8 8 8 8 8 8 8 8 8 8 8 v w x r s c c c c c m s J.r.r.r.r.r.r.r.r.r.a c n c c c c n d v.K.L.F.F.F.F.F.F.F.F.F.F.F.F.F.F.F.F.E.M.N.}.` c c c c c c v.Q n.A.r.r.r.r.r.r.V %.s c c c c c m s L M 9 8 8 8 8 8 7 7 N ",
"6 7 7 8 8 8 8 8 9 0 a b c c c c c c c c c c c c c c c c c c c n c c c c c O.P.Q.R.S.T.U.U.U.U.U.U.U.U.U.U.U.U.U.U.T.V.W.a X.n c c c c c n c c c c c c c c c c c n c c c c c c s l t u v 8 8 8 8 8 8 8 8 8 8 8 8 8 8 8 v w x r s c c c c c c n c c c c c c c c c c c n c c c c c n X.o.Y.Z.U.U.U.U.U.U.U.U.U.U.U.U.U.U.U.T.`. +.+++@+c c c c c n c c c c c c c c c c c c c c c c c c m s L M 9 8 8 8 8 8 7 7 N ",
"6 7 7 8 8 8 8 8 9 0 a b c c c c c c c c b b b b b b b b b b c c c c c c c O.#+$+%+&+*+=+=+=+=+=+=+=+=+=+=+=+=+=+=+-+;+>+a X.n c c c c c c n b b b b b b b b b c c c c c c c c s l t u v 8 8 8 8 8 8 8 8 8 8 8 8 8 8 8 v w x r s c c c c c c c c b b b b b b b b b n c c c c c c n X.o.,+T.'+=+=+=+=+=+=+=+=+=+=+=+=+=+=+-+)+!+.+++@+c c c c c c c b b b b b b b b b b c c c c c c c m s L M 9 8 8 8 8 8 7 7 N ",
"6 7 7 8 8 8 8 8 9 0 a b c c c c c c c c c c c c c c c c c c c c c c c c c O.#+$+%+&+~+{+{+{+{+{+{+{+{+{+{+{+{+{+{+]+;+>+a X.n c c c c c c c c c c c c c c c c c c c c c c c c s l t u v 8 8 8 8 8 8 8 8 8 8 8 8 8 8 8 v w x r s c c c c c c c c c c c c c c c c c c c c c c c c n X.o.,+T.^+{+{+{+{+{+{+{+{+{+{+{+{+{+{+-+/+!+.+++@+c c c c c c c c c c c c c c c c c c c c c c c c m s L M 9 8 8 8 8 8 7 7 N ",
"6 7 7 8 8 8 8 8 9 0 a b c c c c c c c c c c c c c c c c c c c c c c c c c O.#+$+%+&+~+{+{+{+{+{+{+{+{+{+{+{+{+{+{+]+;+>+a X.n c c c c c c c c c c c c c c c c c c c c c c c c s l t u v 8 8 8 8 8 8 8 8 8 8 8 8 8 8 8 v w x r s c c c c c c c c c c c c c c c c c c c c c c c c n X.o.,+T.^+{+{+{+{+{+{+{+{+{+{+{+{+{+{+-+/+!+.+++@+c c c c c c c c c c c c c c c c c c c c c c c c m s L M 9 8 8 8 8 8 7 7 N ",
"6 7 7 8 8 8 8 8 9 0 a b c c c c c c c c c c c c c c c c c c c c c c c c c O.#+$+%+&+~+{+{+{+{+{+{+{+{+{+{+{+{+{+{+]+;+>+a X.n c c c c c c c c c c c c c c c c c c c c c c c c s l t u v 8 8 8 8 8 8 8 8 8 8 8 8 8 8 8 v w x r s c c c c c c c c c c c c c c c c c c c c c c c c n X.o.,+T.^+{+{+{+{+{+{+{+{+{+{+{+{+{+{+-+/+!+.+++@+c c c c c c c c c c c c c c c c c c c c c c c c m s L M 9 8 8 8 8 8 7 7 N ",
"6 7 7 8 8 8 8 8 9 0 a b c c c c c c c c c c c c c c c c c c c c c c c c c O.#+$+%+&+~+{+{+{+{+{+{+{+{+{+{+{+{+{+{+]+;+>+a X.n c c c c c c c c c c c c c c c c c c c c c c c c s l t u v 8 8 8 8 8 8 8 8 8 8 8 8 8 8 8 v w x r s c c c c c c c c c c c c c c c c c c c c c c c c n X.o.,+T.^+{+{+{+{+{+{+{+{+{+{+{+{+{+{+-+/+!+.+++@+c c c c c c c c c c c c c c c c c c c c c c c c m s L M 9 8 8 8 8 8 7 7 N ",
"6 7 7 8 8 8 8 8 9 0 a b c c c c c c c c c c c c c c c c c c n m m m m m c %.#+$+%+&+~+{+{+{+{+{+{+{+{+{+{+{+{+{+{+]+;+>+a d n m m m m m m c c c c c c c c c c c c c c c c c c s l t u v 8 8 8 8 8 8 8 8 8 8 8 8 8 8 8 v w x r s c c c c c c c c c c c c c c c c c c m m m m m m n X.o.,+T.^+{+{+{+{+{+{+{+{+{+{+{+{+{+{+-+)+!+.+(+_+c m m m m n n c c c c c c c c c c c c c c c c c m s L M 9 8 8 8 8 8 7 7 N ",
"6 7 7 8 8 8 8 8 9 0 a b c c c c c c c c c c c c c c c c m c r r X.X.X.X.r n :+<+[+&+~+{+{+{+{+{+{+{+{+{+{+{+{+{+{+]+;+}+b |+X.X.X.X.X.X.r d m c c c c c c c c c c c c c c c c s l t u v 8 8 8 8 8 8 8 8 8 8 8 8 8 8 8 v w x r s c c c c c c c c c c c c c c c c c d X.X.X.X.X.X.X.|+v.1+T.^+{+{+{+{+{+{+{+{+{+{+{+{+{+{+-+/+2+3+#+4+r X.X.X.X.r r c n c c c c c c c c c c c c c c c m s L M 9 8 8 8 8 8 7 7 N ",
"6 7 7 8 8 8 8 8 9 0 a b c c c c c c c c c c c c c c c c 4+n 5+6+6+6+6+6+6+7+8+9+[+&+~+{+{+{+{+{+{+{+{+{+{+{+{+{+{+]+;+0+a+` 6+6+6+6+6+6+6+_+n c c c c c c c c c c c c c c c c s l t u v 8 8 8 8 8 8 8 8 8 8 8 8 8 8 8 v w x r s c c c c c c c c c c c c c c c c n b+6+6+6+6+6+6+6+n +.c+T.^+{+{+{+{+{+{+{+{+{+{+{+{+{+{+-+/+d+e+f+7+6+6+6+6+6+6+5+n 4+c c c c c c c c c c c c c c c m s L M 9 8 8 8 8 8 7 7 N ",
"6 7 7 8 8 8 8 8 9 0 a b c c c c c c c c c c c c c c c n g+h+i+j+k+l+l+l+l+m+n+o+p+q+^+{+{+{+{+{+{+{+{+{+{+{+{+{+{+^+r+s+t+l+l+l+l+l+l+l+j+u+d n c c c c c c c c c c c c c c c s l t u v 8 8 8 8 8 8 8 8 8 8 8 8 8 8 8 v w x r s c c c c c c c c c c c c c c c n c v+l+l+l+l+l+l+l+l+w+x+r+^+{+{+{+{+{+{+{+{+{+{+{+{+{+{+^+y+z+A+L.m+B+l+l+l+k+m+C+D+g+n c c c c c c c c c c c c c c m s L M 9 8 8 8 8 8 7 7 N ",
"6 7 7 8 8 8 8 8 9 0 a b c c c c c c c c c c c c c c c y ++E+F+G+U.H+;+;+;+;+S.U.I+=+{+{+{+{+{+{+{+{+{+{+{+{+{+{+{+{+=+r+H+;+;+;+;+;+;+H+Z.J+r n c c c c c c c c c c c c c c c s l t u v 8 8 8 8 8 8 8 8 8 8 8 8 8 8 8 v w x r s c c c c c c c c c c c c c c c n d K+L+H+;+;+;+;+;+;+H+M+=+{+{+{+{+{+{+{+{+{+{+{+{+{+{+{+{+=+q+U.G+;+;+;+;+G+U.`.N+O+P+y c c c c c c c c c c c c c c m s L M 9 8 8 8 8 8 7 7 N ",
"6 7 7 8 8 8 8 8 9 0 a b c c c c c c c c c c c c c c c y Q+R+S+T+U+-+-+-+-+-+-+'+{+{+{+{+{+{+{+{+{+{+{+{+{+{+{+{+{+{+{+^+-+-+-+-+-+-+-+'+V+W+r n c c c c c c c c c c c c c c c s l t u v 8 8 8 8 8 8 8 8 8 8 8 8 8 8 8 v w x r s c c c c c c c c c c c c c c c n d X+V+Y+-+-+-+-+-+-+-+^+{+{+{+{+{+{+{+{+{+{+{+{+{+{+{+{+{+{+{+'+-+-+-+-+-+-+Z+`+ @.@+@y c c c c c c c c c c c c c c m s L M 9 8 8 8 8 8 7 7 N ",
"6 7 7 8 8 8 8 8 9 0 a b c c c c c c c c c c c c c c c y Q+R+@@#@^+{+{+{+{+{+{+{+{+{+{+{+{+{+{+{+{+{+{+{+{+{+{+{+{+{+{+{+{+{+{+{+{+{+{+I+U.$@r n c c c c c c c c c c c c c c c s l t u v 8 8 8 8 8 8 8 8 8 8 8 8 8 8 8 v w x r s c c c c c c c c c c c c c c c n d %@T.I+{+{+{+{+{+{+{+{+{+{+{+{+{+{+{+{+{+{+{+{+{+{+{+{+{+{+{+{+{+{+{+{+{+{+~+/+&@.@+@y c c c c c c c c c c c c c c m s L M 9 8 8 8 8 8 7 7 N ",
"6 7 7 8 8 8 8 8 9 0 a b c c c c c c c c c c c c c c c y Q+R+@@#@^+{+{+{+{+{+{+{+{+{+{+{+{+{+{+{+{+{+{+{+{+{+{+{+{+{+{+{+{+{+{+{+{+{+{+I+U.$@r n c c c c c c c c c c c c c c c s l t u v 8 8 8 8 8 8 8 8 8 8 8 8 8 8 8 v w x r s c c c c c c c c c c c c c c c n d %@T.I+{+{+{+{+{+{+{+{+{+{+{+{+{+{+{+{+{+{+{+{+{+{+{+{+{+{+{+{+{+{+{+{+{+{+~+U.&@.@+@y c c c c c c c c c c c c c c m s L M 9 8 8 8 8 8 7 7 N ",
"6 7 7 8 8 8 8 8 9 0 a b c c c c c c c c c c c c c c c y Q+R+@@#@^+{+{+{+{+{+{+{+{+{+{+{+{+{+{+{+{+{+{+{+{+{+{+{+{+{+{+{+{+{+{+{+{+{+{+I+U.$@r n c c c c c c c c c c c c c c c s l t u v 8 8 8 8 8 8 8 8 8 8 8 8 8 8 8 v w x r s c c c c c c c c c c c c c c c n d %@T.I+{+{+{+{+{+{+{+{+{+{+{+{+{+{+{+{+{+{+{+{+{+{+{+{+{+{+{+{+{+{+{+{+{+{+~+U.&@.@+@y c c c c c c c c c c c c c c m s L M 9 8 8 8 8 8 7 7 N ",
"6 7 7 8 8 8 8 8 9 0 a b c c c c c c c c c c c c c c c y Q+R+@@#@^+{+{+{+{+{+{+{+{+{+{+{+{+{+{+{+{+{+{+{+{+{+{+{+{+{+{+{+{+{+{+{+{+{+{+I+U.$@r n c c c c c c c c c c c c c c c s l t u v 8 8 8 8 8 8 8 8 8 8 8 8 8 8 8 v w x r s c c c c c c c c c c c c c c c n d %@T.I+{+{+{+{+{+{+{+{+{+{+{+{+{+{+{+{+{+{+{+{+{+{+{+{+{+{+{+{+{+{+{+{+{+{+~+U.&@.@+@y c c c c c c c c c c c c c c m s L M 9 8 8 8 8 8 7 7 N ",
"6 7 7 8 8 8 8 8 9 0 a b c c c c c c c c c c c c c c c y Q+R+@@#@^+{+{+{+{+{+{+{+{+{+{+{+{+{+{+{+{+{+{+{+{+{+{+{+{+{+{+{+{+{+{+{+{+{+{+I+U.$@r n c c c c c c c c c c c c c c c s l t u v 8 8 8 8 8 8 8 8 8 8 8 8 8 8 8 v w x r s c c c c c c c c c c c c c c c n d %@T.I+{+{+{+{+{+{+{+{+{+{+{+{+{+{+{+{+{+{+{+{+{+{+{+{+{+{+{+{+{+{+{+{+{+{+~+U.&@.@+@y c c c c c c c c c c c c c c m s L M 9 8 8 8 8 8 7 7 N ",
"6 7 7 8 8 8 8 8 9 0 a b c c c c c c c c c c c c c c c y Q+R+@@#@^+{+{+{+{+{+{+{+{+{+{+{+{+{+{+{+{+{+{+{+{+{+{+{+{+{+{+{+{+{+{+{+{+{+{+I+U.$@r n c c c c c c c c c c c c c c c s l t u v 8 8 8 8 8 8 8 8 8 8 8 8 8 8 8 v w x r s c c c c c c c c c c c c c c c n d %@T.I+{+{+{+{+{+{+{+{+{+{+{+{+{+{+{+{+{+{+{+{+{+{+{+{+{+{+{+{+{+{+{+{+{+{+~+U.&@.@+@y c c c c c c c c c c c c c c m s L M 9 8 8 8 8 8 7 7 N ",
"6 7 7 8 8 8 8 8 9 0 a b c c c c c c c c c c c c c c c y Q+R+@@#@^+{+{+{+{+{+{+{+{+{+{+{+{+{+{+{+{+{+{+{+{+{+{+{+{+{+{+{+{+{+{+{+{+{+{+I+U.$@r n c c c c c c c c c c c c c c c s l t u v 8 8 8 8 8 8 8 8 8 8 8 8 8 8 8 v w x r s c c c c c c c c c c c c c c c n d %@T.I+{+{+{+{+{+{+{+{+{+{+{+{+{+{+{+{+{+{+{+{+{+{+{+{+{+{+{+{+{+{+{+{+{+{+~+U.&@.@+@y c c c c c c c c c c c c c c m s L M 9 8 8 8 8 8 7 7 N ",
"6 7 7 8 8 8 8 8 9 0 a b c c c c c c c c c c c c c c c y Q+R+@@#@^+{+{+{+{+{+{+{+{+{+{+{+{+{+{+{+{+{+{+{+{+{+{+{+{+{+{+{+{+{+{+{+{+{+{+I+U.$@r n c c c c c c c c c c c c c c c s l t u v 8 8 8 8 8 8 8 8 8 8 8 8 8 8 8 v w x r s c c c c c c c c c c c c c c c n d %@T.I+{+{+{+{+{+{+{+{+{+{+{+{+{+{+{+{+{+{+{+{+{+{+{+{+{+{+{+{+{+{+{+{+{+{+~+U.&@.@+@y c c c c c c c c c c c c c c m s L M 9 8 8 8 8 8 7 7 N ",
"6 7 7 8 8 8 8 8 9 0 a b c c c c c c c c c c c c c c c y Q+R+@@#@^+{+{+{+{+{+{+{+{+{+{+{+{+{+{+{+{+{+{+{+{+{+{+{+{+{+{+{+{+{+{+{+{+{+{+I+U.$@r n c c c c c c c c c c c c c c c s l t u v 8 8 8 8 8 8 8 8 8 8 8 8 8 8 8 v w x r s c c c c c c c c c c c c c c c n d %@T.I+{+{+{+{+{+{+{+{+{+{+{+{+{+{+{+{+{+{+{+{+{+{+{+{+{+{+{+{+{+{+{+{+{+{+~+U.&@.@+@y c c c c c c c c c c c c c c m s L M 9 8 8 8 8 8 7 7 N ",
"6 7 7 8 8 8 8 8 9 0 a b c c c c c c c c c c c c c c c y Q+R+@@#@^+{+{+{+{+{+{+{+{+{+{+{+{+{+{+{+{+{+{+{+{+{+{+{+{+{+{+{+{+{+{+{+{+{+{+I+U.$@r n c c c c c c c c c c c c c c c s l t u v 8 8 8 8 8 8 8 8 8 8 8 8 8 8 8 v w x r s c c c c c c c c c c c c c c c n d %@T.I+{+{+{+{+{+{+{+{+{+{+{+{+{+{+{+{+{+{+{+{+{+{+{+{+{+{+{+{+{+{+{+{+{+{+~+U.&@.@+@y c c c c c c c c c c c c c c m s L M 9 8 8 8 8 8 7 7 N ",
"6 7 7 8 8 8 8 8 9 0 a b c c c c c c c c c c c c c c c y Q+R+@@#@^+{+{+{+{+{+{+{+{+{+{+{+{+{+{+{+{+{+{+{+{+{+{+{+{+{+{+{+{+{+{+{+{+{+{+I+U.$@r n c c c c c c c c c c c c c c c s l t u v 8 8 8 8 8 8 8 8 8 8 8 8 8 8 8 v w x r s c c c c c c c c c c c c c c c n d %@T.I+{+{+{+{+{+{+{+{+{+{+{+{+{+{+{+{+{+{+{+{+{+{+{+{+{+{+{+{+{+{+{+{+{+{+~+U.&@.@+@y c c c c c c c c c c c c c c m s L M 9 8 8 8 8 8 7 7 N ",
"6 7 7 8 8 8 8 8 9 0 a b c c c c c c c c c c c c c c c y Q+R+@@#@^+{+{+{+{+{+{+{+{+{+{+{+{+{+{+{+{+{+{+{+{+{+{+{+{+{+{+{+{+{+{+{+{+{+{+I+U.$@r n c c c c c c c c c c c c c c c s l t u v 8 8 8 8 8 8 8 8 8 8 8 8 8 8 8 v w x r s c c c c c c c c c c c c c c c n d %@T.I+{+{+{+{+{+{+{+{+{+{+{+{+{+{+{+{+{+{+{+{+{+{+{+{+{+{+{+{+{+{+{+{+{+{+~+U.&@.@+@y c c c c c c c c c c c c c c m s L M 9 8 8 8 8 8 7 7 N ",
"6 7 7 8 8 8 8 8 9 0 a b c c c c c c c c c c c c c c c y Q+R+@@#@^+{+{+{+{+{+{+{+{+{+{+{+{+{+{+{+{+{+{+{+{+{+{+{+{+{+{+{+{+{+{+{+{+{+{+I+U.$@r n c c c c c c c c c c c c c c c s l t u v 8 8 8 8 8 8 8 8 8 8 8 8 8 8 8 v w x r s c c c c c c c c c c c c c c c n d %@T.I+{+{+{+{+{+{+{+{+{+{+{+{+{+{+{+{+{+{+{+{+{+{+{+{+{+{+{+{+{+{+{+{+{+{+~+U.&@.@+@y c c c c c c c c c c c c c c m s L M 9 8 8 8 8 8 7 7 N ",
"6 7 7 8 8 8 8 8 9 0 a b c c c c c c c c c c c c c c c y Q+R+@@#@^+{+{+{+{+{+{+{+{+{+{+{+{+{+{+{+{+{+{+{+{+{+{+{+{+{+{+{+{+{+{+{+{+{+{+I+U.$@r n c c c c c c c c c c c c c c c s l t u v 8 8 8 8 8 8 8 8 8 8 8 8 8 8 8 v w x r s c c c c c c c c c c c c c c c n d %@T.I+{+{+{+{+{+{+{+{+{+{+{+{+{+{+{+{+{+{+{+{+{+{+{+{+{+{+{+{+{+{+{+{+{+{+~+U.&@.@+@y c c c c c c c c c c c c c c m s L M 9 8 8 8 8 8 7 7 N ",
"6 7 7 8 8 8 8 8 9 0 a b c c c c c c c c c c c c c c c y Q+R+@@y+*@^+^+^+^+^+^+{+{+{+{+{+{+{+{+{+{+{+{+{+{+{+{+{+{+{+{+{+^+^+^+^+^+^+'+=+T.$@r n c c c c c c c c c c c c c c c s l t u v 8 8 8 8 8 8 8 8 8 8 8 8 8 8 8 v w x r s c c c c c c c c c c c c c c c n d %@r+=+^+^+^+^+^+^+^+{+{+{+{+{+{+{+{+{+{+{+{+{+{+{+{+{+{+{+{+{+^+^+^+^+^+^+*@T. @.@+@y c c c c c c c c c c c c c c m s L M 9 8 8 8 8 8 7 7 N ",
"6 7 7 8 8 8 8 8 9 0 a b c c c c c c c c c c c c c c c y ++=@-@;@'+>@>@>@>@q+>@,@{+=+{+{+{+{+{+{+{+{+{+{+{+{+{+{+{+{+=+'@'@>@>@>@>@>@>@>@U.)@r n c c c c c c c c c c c c c c c s l t u v 8 8 8 8 8 8 8 8 8 8 8 8 8 8 8 v w x r s c c c c c c c c c c c c c c c n d !@T.>@>@>@>@>@q+>@'@{+=+{+{+{+{+{+{+{+{+{+{+{+{+{+{+{+{+=+{+q+>@>@>@>@>@>@Y+U.~@.@{@y c c c c c c c c c c c c c c m s L M 9 8 8 8 8 8 7 7 N ",
"6 7 7 8 8 8 8 8 9 0 a b c c c c c c c c c c c c c c c y ]@^@/@(@_@:@:@:@:@<@[@}@|@'@{+{+{+{+{+{+{+{+{+{+{+{+{+{+{+{+1@2@3@:@<@:@:@:@:@<@4@5@6@n c c c c c c c c c c c c c c c s l t u v 8 8 8 8 8 8 8 8 8 8 8 8 8 8 8 v w x r s c c c c c c c c c c c c c c c n d 7@8@<@:@:@:@:@<@:@9@0@1@{+{+{+{+{+{+{+{+{+{+{+{+{+{+{+{+'@|@a@b@<@:@:@:@:@_@c@d@e@]@y c c c c c c c c c c c c c c m s L M 9 8 8 8 8 8 7 7 N ",
"6 7 7 8 8 8 8 8 9 0 a b c c c c c c c c c c c c c c c b P f@g@h@i@j@j@j@j@k@l@m@0@n@{+{+{+{+{+{+{+{+{+{+{+{+{+{+{+{+T.o@p@q@q@j@j@j@j@r@k@s@l n c c c c c c c c c c c c c c c s l t u v 8 8 8 8 8 8 8 8 8 8 8 8 8 8 8 v w x r s c c c c c c c c c c c c c c c n s t@u@r@j@j@j@j@v@q@w@&@r+{+{+{+{+{+{+{+{+{+{+{+{+{+{+{+=+&+x@y@z@k@j@j@j@j@i@h@A@B@6@n c c c c c c c c c c c c c c m s L M 9 8 8 8 8 8 7 7 N ",
"6 7 7 8 8 8 8 8 9 0 a b c c c c c c c c c c c c c c c c b r Q+#+C@:+:+:+:++@D@E@F@#@~+{+{+{+{+{+{+{+{+{+{+{+{+{+{+]+;+G@H@C@#+:+:+:+:+:+C@B.n c c c c c c c c c c c c c c c c s l t u v 8 8 8 8 8 8 8 8 8 8 8 8 8 8 8 v w x r s c c c c c c c c c c c c c c c c n I@C@:+:+:+:+:+#+C@J@K@U.^+{+{+{+{+{+{+{+{+{+{+{+{+{+{+-+/+L@M@:+Q+:+:+:+:+#+#++@d n c c c c c c c c c c c c c c c m s L M 9 8 8 8 8 8 7 7 N ",
"6 7 7 8 8 8 8 8 9 0 a b c c c c c c c c c c c c c c c n c b y O.O.O.O.O.O.N@I@O@P@&+~+{+{+{+{+{+{+{+{+{+{+{+{+{+{+]+;+0+!.c %.O.O.O.O.O.O.y c n c c c c c c c c c c c c c c c s l t u v 8 8 8 8 8 8 8 8 8 8 8 8 8 8 8 v w x r s c c c c c c c c c c c c c c c n c y O.O.O.O.O.O.%.c L c+T.^+{+{+{+{+{+{+{+{+{+{+{+{+{+{+-+/+Q@R@B.S@O.O.O.O.O.O.y m c n c c c c c c c c c c c c c c m s L M 9 8 8 8 8 8 7 7 N ",
"6 7 7 8 8 8 8 8 9 0 a b c c c c c c c c c c c c c c c c c c c c c c c c c O.#+$+%+&+~+{+{+{+{+{+{+{+{+{+{+{+{+{+{+]+;+>+a X.n c c c c c c c c c c c c c c c c c c c c c c c c s l t u v 8 8 8 8 8 8 8 8 8 8 8 8 8 8 8 v w x r s c c c c c c c c c c c c c c c c c c c c c c c c n X.o.,+T.^+{+{+{+{+{+{+{+{+{+{+{+{+{+{+-+/+!+.+P+@+c c c c c c c c c c c c c c c c c c c c c c c c m s L M 9 8 8 8 8 8 7 7 N ",
"6 7 7 8 8 8 8 8 9 0 a b c c c c c c c c c c c c c c c c c c c c c c c c c O.#+$+%+&+~+{+{+{+{+{+{+{+{+{+{+{+{+{+{+]+;+>+a X.n c c c c c c c c c c c c c c c c c c c c c c c c s l t u v 8 8 8 8 8 8 8 8 8 8 8 8 8 8 8 v w x r s c c c c c c c c c c c c c c c c c c c c c c c c n X.o.,+T.^+{+{+{+{+{+{+{+{+{+{+{+{+{+{+-+/+!+.+++@+c c c c c c c c c c c c c c c c c c c c c c c c m s L M 9 8 8 8 8 8 7 7 N ",
"6 7 7 8 8 8 8 8 9 0 a b c c c c c c c c c c c c c c c c c c c c c c c c c O.#+$+%+&+~+{+{+{+{+{+{+{+{+{+{+{+{+{+{+]+;+>+a X.n c c c c c c c c c c c c c c c c c c c c c c c c s l t u v 8 8 8 8 8 8 8 8 8 8 8 8 8 8 8 v w x r s c c c c c c c c c c c c c c c c c c c c c c c c n X.o.,+T.^+{+{+{+{+{+{+{+{+{+{+{+{+{+{+-+/+!+.+++@+c c c c c c c c c c c c c c c c c c c c c c c c m s L M 9 8 8 8 8 8 7 7 N ",
"6 7 7 8 8 8 8 8 9 0 a b c c c c c c c c c c c c c c c c c c c c c c c c c O.#+$+%+&+~+{+{+{+{+{+{+{+{+{+{+{+{+{+{+]+;+>+a X.n c c c c c c c c c c c c c c c c c c c c c c c c s l t u v 8 8 8 8 8 8 8 8 8 8 8 8 8 8 8 v w x r s c c c c c c c c c c c c c c c c c c c c c c c c n X.o.,+T.^+{+{+{+{+{+{+{+{+{+{+{+{+{+{+-+/+!+.+++@+c c c c c c c c c c c c c c c c c c c c c c c c m s L M 9 8 8 8 8 8 7 7 N ",
"6 7 7 8 8 8 8 8 9 0 a b c c c c c c c c c c c c c c c c c c c c c c c c c O.#+$+P@n@*@{+^+^+^+^+^+^+^+^+^+^+^+^+{+*@U.T@a X.n c c c c c c c c c c c c c c c c c c c c c c c c s l t u v 8 8 8 8 8 8 8 8 8 8 8 8 8 8 8 v w x r s c c c c c c c c c c c c c c c c c c c c c c c c n X.o.U@T.-+{+^+^+^+^+^+^+^+^+^+^+^+^+{+*@V@Q@W@++@+c c c c c c c c c c c c c c c c c c c c c c c c m s L M 9 8 8 8 8 8 7 7 N ",
"6 7 7 8 8 8 8 8 9 0 a b c c c c c n c b X@X@X@X@X@X@X@X@X@s c b c c c c c O.#+<+[+>@*@'@Y@Y@Y@Y@Y@Y@Y@Y@Y@Y@Y@Y@'@Z@`@T@a X.n c c c c c c b X@X@X@X@X@X@X@X@X@X@c b c c c c c s l t u v 8 8 8 8 8 8 8 8 8 8 8 8 8 8 8 v w x r s c c c c c b c X@X@X@X@X@X@X@X@X@X@b c c c c c c n r o. #.#+#'@Y@Y@Y@Y@Y@Y@Y@Y@Y@Y@Y@Y@'@Z@&+d+W@++@+c c c c c b c s X@X@X@X@X@X@X@X@X@u.c n c c c c m s L M 9 8 8 8 8 8 7 7 N ",
"6 7 7 8 8 8 8 8 9 0 a b c c c c c c b n b b u.u.u.u.u.u.b b u.c c c c c c O.++@###$#%#&#&#&#&#&#&#&#&#&#&#&#&#&#&#%#*#G@v.r n c c c c c b c s u.u.u.u.u.u.u.s b u.c c c c c c s l t u v 8 8 8 8 8 8 8 8 8 8 8 8 8 8 8 v w x r s c c c c c c u.b s u.u.u.u.u.u.u.s c b c c c c c n r =#-#;#%#&#&#&#&#&#&#&#&#&#&#&#&#&#&#%#$#&@>#,#` c c c c c c u.b b u.u.u.u.u.b b b n b c c c c c m s L M 9 8 8 8 8 8 7 7 N ",
"6 7 7 8 8 8 8 8 9 0 a b c c c c c b d N@t &.>.>.>.>.>.>.'#)#%.l c c c c c b !#f@~#{#{#{#{#{#{#{#{#{#{#{#{#{#{#{#{#{#{#]#b c n c c c c n c l.^#>.>.>.>.>.>.>./#9.z b c c c c c s l t u v 8 8 8 8 8 8 8 8 8 8 8 8 8 8 8 v w x r s c c c c c b d 6.>.>.>.>.>.>.>.>.>.e c n c c c c n s y (#{#{#{#{#{#{#{#{#{#{#{#{#{#{#{#{#{#{#R+B@6@n c c c c m F a Z '#>.>.>.>.>.>.j q S@d b c c c c m s L M 9 8 8 8 8 8 7 7 N ",
"6 7 7 8 8 8 8 8 9 0 a b c c c c c b d e _#I *.I I I I B (.J v.l m c c c c c b r :#<#<#<#<#<#<#<#<#<#<#<#<#<#<#<#<#<#<#}.4+n c c c c c n c V h.I I I I I I I I Z r b c c c c c s l t u v 8 8 8 8 8 8 8 8 8 8 8 8 8 8 8 v w x r s c c c c c b r y.I I I I I I I I I ).c n c c c c c n s |+<#<#<#<#<#<#<#<#<#<#<#<#<#<#<#<#<#<#:#z n c c c c c m F !.[#(.*.I I I I *.h.}#K d b c c c c m s L M 9 8 8 8 8 8 7 7 N ",
"6 7 7 8 8 8 8 8 9 0 a b c c c c c b d e f h h h h h h h I j k l m c c c c n c X@` ` ` ` ` ` ` ` ` ` ` ` ` ` ` ` ` ` ` n c c c c c c c n c o p h h h h h h C |#q r b c c c c c s l t u v 8 8 8 8 8 8 8 8 8 8 8 8 8 8 8 v w x r s c c c c c y z A p C h h h h h h p E c n c c c c m c n ` ` ` ` ` ` ` ` ` ` ` ` ` ` ` ` ` ` ` ` m c c c c c c m F !.H I h h h h h Y g J K d b c c c c m s L M 9 8 8 8 8 8 7 7 N ",
"6 7 7 8 8 8 8 8 9 0 a b c c c c c b d e f g h h h h h h i j k l m c c c c c c c c c c c c c c c c c c c c c c c c c c c c c c c c c c n c o p h h h h h h g p q r b c c c c c s l t u v 8 8 8 8 8 8 8 8 8 8 8 8 8 8 8 v w x r s c c c c c y z A p C h h h h h h D E c n c c c c c c c c c c c c c c c c c c c c c c c c c c c c c c c c c c m F G H I h h h h h h g J K d b c c c c m s L M 9 8 8 8 8 8 7 7 N ",
"6 7 7 8 8 8 8 8 9 0 a b c c c c c b d e f g h h h h h h i j k l m c c c c c c c c c c c c c c c c c c c c c c c c c c c c c c c c c c n c o p h h h h h h g p q r b c c c c c s l t u v 8 8 8 8 8 8 8 8 8 8 8 8 8 8 8 v w x r s c c c c c y z A B C h h h h h h D E c n c c c c c c c c c c c c c c c c c c c c c c c c c c c c c c c c c c m F G H I h h h h h h g J K d b c c c c m s L M 9 8 8 8 8 8 7 7 N ",
"6 7 7 8 8 8 8 8 9 0 a b c c c c c b d e f g h h h h h h i j k l m c c c c c c c c c c c c c c c c c c c c c c c c c c c c c c c c c c n c o p h h h h h h g p q r b c c c c c s l t u v 8 8 8 8 8 8 8 8 8 8 8 8 8 8 8 v w x r s c c c c c y z A B C h h h h h h D E c n c c c c c c c c c c c c c c c c c c c c c c c c c c c c c c c c c c m F G H I h h h h h h g J K d b c c c c m s L M 9 8 8 8 8 8 7 7 N ",
"6 7 7 8 8 8 8 8 9 0 a b c c c c c b d e f g h h h h h h i j k l m c c c c c c c c c c c c c c c c c c c c c c c c c c c c c c c c c c n c o p h h h h h h g p q r b c c c c c s l t u v 8 8 8 8 8 8 8 8 8 8 8 8 8 8 8 v w x r s c c c c c y z A B C h h h h h h D E c n c c c c c c c c c c c c c c c c c c c c c c c c c c c c c c c c c c m F G H I h h h h h h g J K d b c c c c m s L M 9 8 8 8 8 8 7 7 N ",
"6 7 7 8 8 8 8 8 9 0 a b c c c c c b d e f g h h h h h h i j k s m c c c c c c c c c c c c c c c c c c c c c c c c c c c c c c c c c m n c o p h h h h h h g p q r b c c c c c s l t u v 8 8 8 8 8 8 8 8 8 8 8 8 8 8 8 v w x r s c c c c c y z A B C h h h h h h D E c n c c c c c c c c c c c c c c c c c c c c c c c c c c c c c c c c c c n l !.H I h h h h h h g J K d b c c c c m s L M 9 8 8 8 8 8 7 7 N ",
"6 7 7 8 8 8 8 8 9 0 a b c c c c c b d e f g h h h h h h i j a s y b b b b b b b c b c c c c c c c c c c c c c c c c b m b b b b b b b b u.'.p h h h h h h g p q r b c c c c c s l t u v 8 8 8 8 8 8 8 8 8 8 8 8 8 8 8 v w x r s c c c c c y z A B C h h h h h h D T b b b b b b b b b m b c c c c c c c c c c c c c c c c c c b b b b b b b y d !.H I h h h h h h g J K d b c c c c m s L M 9 8 8 8 8 8 7 7 N ",
"6 7 7 8 8 8 8 8 9 0 a b c c c c c b d e f g h h h h h h I g.a c b X@X@X@X@X@X@n b c c c c c c c c c c c c c c c c c c b b X@X@X@X@X@X@X@s '.p h h h h h h g p q r b c c c c c s l t u v 8 8 8 8 8 8 8 8 8 8 8 8 8 8 8 v w x r s c c c c c y z A B C h h h h h h D l.s X@X@X@X@X@X@X@b b c c c c c c c c c c c c c c c c c s b b X@X@X@X@X@X@b d e ..I h h h h h h g J K d b c c c c m s L M 9 8 8 8 8 8 7 7 N ",
"6 7 7 8 8 8 8 8 9 0 a b c c c c c b d e f g h h h h h h p c...J J J J J J J [#1#%.l c c c c c c c c c c c c c c c c d T '#J J J J J J J J [#p h h h h h h g p q r b c c c c c s l t u v 8 8 8 8 8 8 8 8 8 8 8 8 8 8 8 v w x r s c c c c c y z A B C h h h h h h p [#J J J J J J J J j e s c c c c c c c c c c c c c c c n z a Z 2#J J J J J J J }#Y p h h h h h h g J K d b c c c c m s L M 9 8 8 8 8 8 7 7 N ",
"6 7 7 8 8 8 8 8 9 0 a b c c c c c b d e f g h h h h h p h p B B B B B B B p 3#f.k l c c c c c c c c c c c c c c c m d '.h *.B B B B B B B p h p h h h h h g p q r b c c c c c s l t u v 8 8 8 8 8 8 8 8 8 8 8 8 8 8 8 v w x r s c c c c c y z A B C h h h h h p h B B B B B B B B *.Y j.l c c c c c c c c c c c c c c c b r G '#/.p B B B B B B p D h p h h h h h g J K d b c c c c m s L M 9 8 8 8 8 8 7 7 N ",
"6 7 7 8 8 8 8 8 9 0 a b c c c c c b d e f g h h h h h h p h h h h h h h h Y i b.k l m c c c c c c c c c c c c c c m d o a.p h h h h h h h h p h h h h h h g p q r b c c c c c s l t u v 8 8 8 8 8 8 8 8 8 8 8 8 8 8 8 v w x r s c c c c c y z A B C h h h h h h p h h h h h h h h B X j.l c c c c c c c c c c c c c c c b r !.j I h h h h h h h h h p h h h h h h g J K d b c c c c m s L M 9 8 8 8 8 8 7 7 N ",
"6 7 7 8 8 8 8 8 9 0 a b c c c c c b d e f g h h h h h h h h h h h h h h h Y I b.k l m c c c c c c c c c c c c c c m d o a.p h h h h h h h h h h h h h h h g p q r b c c c c c s l t u v 8 8 8 8 8 8 8 8 8 8 8 8 8 8 8 v w x r s c c c c c y z A B C h h h h h h h h h h h h h h h p X +.l c c c c c c c c c c c c c c c b r !.j I Y h h h h h h h h h h h h h h h g J K d b c c c c m s L M 9 8 8 8 8 8 7 7 N ",
"6 7 7 8 8 8 8 8 9 0 a b c c c c c b d e f g h h h h h h h h h h h h h h h Y I b.k l m c c c c c c c c c c c c c c m d o a.p h h h h h h h h h h h h h h h g p q r b c c c c c s l t u v 8 8 8 8 8 8 8 8 8 8 8 8 8 8 8 v w x r s c c c c c y z A B C h h h h h h h h h h h h h h h p X +.l c c c c c c c c c c c c c c c b r !.j I Y h h h h h h h h h h h h h h h g J K d b c c c c m s L M 9 8 8 8 8 8 7 7 N ",
"6 7 7 8 8 8 8 8 9 0 a b c c c c c b d e f g h h h h h h h h h h h h h h h Y I b.k l m c c c c c c c c c c c c c c m d o a.p h h h h h h h h h h h h h h h g p q r b c c c c c s l t u v 8 8 8 8 8 8 8 8 8 8 8 8 8 8 8 v w x r s c c c c c y z A B C h h h h h h h h h h h h h h h p X +.l c c c c c c c c c c c c c c c b r !.j I Y h h h h h h h h h h h h h h h g J K d b c c c c m s L M 9 8 8 8 8 8 7 7 N ",
"6 7 7 8 8 8 8 8 9 0 a b c c c c c b d e f g h h h h h h h h h h h h h h h Y I b.k l m c c c c c c c c c c c c c c m d o a.p h h h h h h h h h h h h h h h g p q r b c c c c c s l t u v 8 8 8 8 8 8 8 8 8 8 8 8 8 8 8 v w x r s c c c c c y z A B C h h h h h h h h h h h h h h h p X +.l c c c c c c c c c c c c c c c b r !.j I Y h h h h h h h h h h h h h h h g J K d b c c c c m s L M 9 8 8 8 8 8 7 7 N ",
"6 7 7 8 8 8 8 8 9 0 a b c c c c c b d e f g h h h h h h h h h h h h h h h Y I b.k l m c c c c c c c c c c c c c c b d o a.p h h h h h h h h h h h h h h h g p q r b c c c c c s l t u v 8 8 8 8 8 8 8 8 8 8 8 8 8 8 8 v w x r s c c c c c y z A B C h h h h h h h h h h h h h h h p X +.l c c c c c c c c c c c c c c c b r !.j I Y h h h h h h h h h h h h h h h g J K d b c c c c m s L M 9 8 8 8 8 8 7 7 N ",
"6 7 7 8 8 8 8 8 9 0 a b c c c c c b d e f g h h h h h h p h h h h h h h h Y I b.k l b b b b b b b b b b b b b b b b d o a.p h h h h h h h h p h h h h h h g p q r b c c c c c s l t u v 8 8 8 8 8 8 8 8 8 8 8 8 8 8 8 v w x r s c c c c c y z A B C h h h h h h p h h h h h h h h p X +.s b b b b b b b b b b b b b b b b r G j I Y h h h h h h h h p h h h h h h g J K d b c c c c m s L M 9 8 8 8 8 8 7 7 N ",
"6 7 7 8 8 8 8 8 9 0 a b c c c c c b d e f g h h h h h p C a.c.c.c.c.c.c.c._#g 4#5#s %.` ` ` ` ` ` ` ` ` ` ` ` ` ` %.b U _#Y c.c.c.c.c.c.c.Y h p h h h h h g p q r b c c c c c s l t u v 8 8 8 8 8 8 8 8 8 8 8 8 8 8 8 v w x r s c c c c c y z A B C h h h h h p h c.c.c.c.c.c.c.c.Y -.j.b %.` ` ` ` ` ` ` ` ` ` ` ` ` ` %.s e.&.h _#c.c.c.c.c.c.6#h C p h h h h h g J K d b c c c c m s L M 9 8 8 8 8 8 7 7 N ",
"6 7 7 8 8 8 8 8 9 0 a b c c c c c b d e f g h h h h h h I g.<.a G G G G G !.v.V j }#}#}#}#}#}#}#}#}#}#}#}#}#}#}#}#}#7#8#o.=#G G G G G G 9#S p h h h h h h g p q r b c c c c c s l t u v 8 8 8 8 8 8 8 8 8 8 8 8 8 8 8 v w x r s c c c c c y z A B C h h h h h h D '.G G G G G G G a o._.}#}#}#}#}#}#}#}#}#}#}#}#}#}#}#}#..=.&.@.v.!.G G G G !.k l.}#I h h h h h h g J K d b c c c c m s L M 9 8 8 8 8 8 7 7 N ",
"6 7 7 8 8 8 8 8 9 0 a b c c c c c b d e f g h h h h h h i j v.l n c c c c b O W -.;.h p p p p p p p p p p p p p p h B Z ` d c c c c c c c o p h h h h h h g p q r b c c c c c s l t u v 8 8 8 8 8 8 8 8 8 8 8 8 8 8 8 v w x r s c c c c c y z A B C h h h h h h D E c c c c c c c d %.>.;.a.p p p p p p p p p p p p p p h I ,.+.P b c c c c n 6@!.H I h h h h h h g J K d b c c c c m s L M 9 8 8 8 8 8 7 7 N ",
"6 7 7 8 8 8 8 8 9 0 a b c c c c c b d e f g h h h h h h i j k l n n n n n y P @.-.;.h h h h h h h h h h h h h h h h B Z ` c b n n n n n c o p h h h h h h g p q r b c c c c c s l t u v 8 8 8 8 8 8 8 8 8 8 8 8 8 8 8 v w x r s c c c c c y z A B C h h h h h h D E c n n n n n b c %.>.;.h h h h h h h h h h h h h h h h I ,.+.r y n n n n n F G H I h h h h h h g J K d b c c c c m s L M 9 8 8 8 8 8 7 7 N ",
"6 7 7 8 8 8 8 8 9 0 a b c c c c c b d e f g h h h h h h i j k l m c c c c b P @.-.;.h h h h h h h h h h h h h h h h B Z ` c b c c c c n c o p h h h h h h g p q r b c c c c c s l t u v 8 8 8 8 8 8 8 8 8 8 8 8 8 8 8 v w x r s c c c c c y z A B C h h h h h h D E c n c c c c b c %.>.;.h h h h h h h h h h h h h h h h I ,.+.r b c c c c n F G H I h h h h h h g J K d b c c c c m s L M 9 8 8 8 8 8 7 7 N ",
"6 7 7 8 8 8 8 8 9 0 a b c c c c c b d e f g h h h h h h i j k l m c c c c b P @.-.;.h h h h h h h h h h h h h h h h B Z ` c b c c c c n c o p h h h h h h g p q r b c c c c c s l t u v 8 8 8 8 8 8 8 8 8 8 8 8 8 8 8 v w x r s c c c c c y z A B C h h h h h h D E c n c c c c b c %.>.;.h h h h h h h h h h h h h h h h I ,.+.r b c c c c m F G H I h h h h h h g J K d b c c c c m s L M 9 8 8 8 8 8 7 7 N ",
"6 7 7 8 8 8 8 8 9 0 a b c c c c c b d e f g h h h h h h i j k l m c c c c b P @.-.;.h h h h h h h h h h h h h h h h B Z ` c b c c c c n c o p h h h h h h g p q r b c c c c c s l t u v 8 8 8 8 8 8 8 8 8 8 8 8 8 8 8 v w x r s c c c c c y z A B C h h h h h h D E c n c c c c b c %.>.;.h h h h h h h h h h h h h h h h I ,.+.r b c c c c m F G H I h h h h h h g J K d b c c c c m s L M 9 8 8 8 8 8 7 7 N ",
"6 7 7 8 8 8 8 8 9 0 a b c c c c c b d e f g h h h h h h i j k l m c c c c b P @.-.;.h h h h h h h h h h h h h h h h B Z ` c b c c c c n c o p h h h h h h g p q r b c c c c c s l t u v 8 8 8 8 8 8 8 8 8 8 8 8 8 8 8 v w x r s c c c c c y z A B C h h h h h h D E c n c c c c b c %.>.;.h h h h h h h h h h h h h h h h I ,.+.r b c c c c m F G H I h h h h h h g J K d b c c c c m s L M 9 8 8 8 8 8 7 7 N ",
"6 7 7 8 8 8 8 8 9 0 a b c c c c c b d e f g h h h h h h i j k l m c c c c b P @.-.;.h h h h h h h h h h h h h h h h *.Z ` c b c c c c n c o p h h h h h h g p q r b c c c c c s l t u v 8 8 8 8 8 8 8 8 8 8 8 8 8 8 8 v w x r s c c c c c y z A B C h h h h h h D E c n c c c c b c %.>.;.h h h h h h h h h h h h h h h h I 7#+.r b c c c c m F G H I h h h h h h g J K d b c c c c m s L M 9 8 8 8 8 8 7 7 N ",
"6 7 7 8 8 8 8 8 9 0 a b c c c c c b d e f g h h h h h h i j k l m c c c c b O U #.I p B p p p p p p p p p p p p B p I _.` c b c c c c n c o p h h h h h h g p q r b c c c c c s l t u v 8 8 8 8 8 8 8 8 8 8 8 8 8 8 8 v w x r s c c c c c y z A B C h h h h h h D E c n c c c c b c %.^#I p B p p p p p p p p p p p p B p h.f +.r b c c c c m F G H I h h h h h h g J K d b c c c c m s L M 9 8 8 8 8 8 7 7 N ",
"6 7 7 8 8 8 8 8 9 0 a b c c c c c b d e f g h h h h h h i j k l m c c c c b r T H c.-.-.-.-.-.-.-.-.-.-.-.-.-.-.-.-.c.8#` c b c c c c n c o p h h h h h h g p q r b c c c c c s l t u v 8 8 8 8 8 8 8 8 8 8 8 8 8 8 8 v w x r s c c c c c y z A B C h h h h h h D E c n c c c c b c %.t c.-.-.-.-.-.-.-.-.-.-.-.-.-.-.-.-.c.g.L r b c c c c m F G H I h h h h h h g J K d b c c c c m s L M 9 8 8 8 8 8 7 7 N ",
"6 7 7 8 8 8 8 8 9 0 a b c c c c c b d e f g h h h h h h i j k l m c c c c c s  .k a a a a a a a a a a a a a a a a a a v.n u.c c c c c n c o p h h h h h h g p q r b c c c c c s l t u v 8 8 8 8 8 8 8 8 8 8 8 8 8 8 8 v w x r s c c c c c y z A B C h h h h h h D E c n c c c c c u.n v.a a a a a a a a a a a a a a a a a a k y s c c c c c m F G H I h h h h h h g J K d b c c c c m s L M 9 8 8 8 8 8 7 7 N ",
"6 7 7 8 8 8 8 8 9 0 a b c c c c c b d e f g h h h h h h i j k l m c c c c b c u.u.s s s s s s s s s s s s s s s s s s u.b c c c c c c n c o p h h h h h h g p q r b c c c c c s l t u v 8 8 8 8 8 8 8 8 8 8 8 8 8 8 8 v w x r s c c c c c y z A B C h h h h h h D E c n c c c c c c b u.s s s s s s s s s s s s s s s s s s u.c c c c c c c m F G H I h h h h h h g J K d b c c c c m s L M 9 8 8 8 8 8 7 7 N ",
"6 7 7 8 8 8 8 8 9 0 a b c c c c c b d e f g h h h h h h i j k l m c c c c c c c c c c c c c c c c c c c c c c c c c c c c c c c c c c n c o p h h h h h h g p q r b c c c c c s l t u v 8 8 8 8 8 8 8 8 8 8 8 8 8 8 8 v w x r s c c c c c y z A B C h h h h h h D E c n c c c c c c c c c c c c c c c c c c c c c c c c c c c c c c c c c c m F G H I h h h h h h g J K d b c c c c m s L M 9 8 8 8 8 8 7 7 N ",
"6 7 7 8 8 8 8 8 9 0 a b c c c c c b d e f g h h h h h h i j k l m c c c c c c c c c c c c c c c c c c c c c c c c c c c c c c c c c c n c o p h h h h h h g p q r b c c c c c s l t u v 8 8 8 8 8 8 8 8 8 8 8 8 8 8 8 v w x r s c c c c c y z A B C h h h h h h D E c n c c c c c c c c c c c c c c c c c c c c c c c c c c c c c c c c c c m F G H I h h h h h h g J K d b c c c c m s L M 9 8 8 8 8 8 7 7 N ",
"6 7 7 8 8 8 8 8 9 0 a b c c c c c b d e f g h h h h h h i j k l m c c c c c c c c c c c c c c c c c c c c c c c c c c c c c c c c c c n c o p h h h h h h g p q r b c c c c c s l t u v 8 8 8 8 8 8 8 8 8 8 8 8 8 8 8 v w x r s c c c c c y z A B C h h h h h h D E c n c c c c c c c c c c c c c c c c c c c c c c c c c c c c c c c c c c m F G H I h h h h h h g J K d b c c c c m s L M 9 8 8 8 8 8 7 7 N ",
"6 7 7 8 8 8 8 8 9 0 a b c c c c c b d e f g h h h h h h i j k l m c c c c c c c c c c c c c c c c c c c c c c c c c c c c c c c c c c n c o p h h h h h h g p q r b c c c c c s l t u v 8 8 8 8 8 8 8 8 8 8 8 8 8 8 8 v w x r s c c c c c y z A B C h h h h h h D E c n c c c c c c c c c c c c c c c c c c c c c c c c c c c c c c c c c c m F G H I h h h h h h g J K d b c c c c m s L M 9 8 8 8 8 8 7 7 N ",
"6 7 7 8 8 8 8 8 9 0 a b c c c c c b d e f g h h h h h h i j k l m c c c c c c c c c c c c c c c c c c c c c c c c c c c c c c c c c c n c o p h h h h h h g p q r b c c c c c s l t u v 8 8 8 8 8 8 8 8 8 8 8 8 8 8 8 v w x r s c c c c c y z A B C h h h h h h D E c n c c c c c c c c c c c c c c c c c c c c c c c c c c c c c c c c c c m F G H I h h h h h h g J K d b c c c c m s L M 9 8 8 8 8 8 7 7 N ",
"6 7 7 8 8 8 8 8 9 0 a b c c c c c b d e f g h h h h h h i j k l m c c c c c c c c c c c c c c c m m m m m m m m m m m m m c c c c c c n c o p h h h h h h g p q r b c c c c c s l t u v 8 8 8 8 8 8 8 8 8 8 8 8 8 8 8 v w x r s c c c c c y z A B C h h h h h h D E c n c c c c c b m m m m m m m m m m m m m c c c c c c c c c c c c c c c m F G H I h h h h h h g J K d b c c c c m s L M 9 8 8 8 8 8 7 7 N ",
"6 7 7 8 8 8 8 8 9 0 a b c c c c c b d e f g h h h h h h i j k l m c c c c c c c c c c c c c c m m 0#a#b#b#b#b#b#b#b#b#c#m m c c c c c n c o p h h h h h h g p q r b c c c c c s l t u v 8 8 8 8 8 8 8 8 8 8 8 8 8 8 8 v w x r s c c c c c y z A B C h h h h h h D E c n c c c c b m b d#b#b#b#b#b#b#b#b#a#e#m c c c c c c c c c c c c c c c m F G H I h h h h h h g J K d b c c c c m s L M 9 8 8 8 8 8 7 7 N ",
"6 7 7 8 8 8 8 8 9 0 a b c c c c c b d e f g h h h h h h i j k l m c c c c c c c c c c c c c c m f#g#h#i#j#j#j#j#j#j#k#l#m b m c c c c n c o p h h h h h h g p q r b c c c c c s l t u v 8 8 8 8 8 8 8 8 8 8 8 8 8 8 8 v w x r s c c c c c y z A B C h h h h h h D E c n c c c c m y m#n#i#j#j#j#j#j#j#k#k#o#p#c c c c c c c c c c c c c c c m F G H I h h h h h h g J K d b c c c c m s L M 9 8 8 8 8 8 7 7 N ",
"6 7 7 8 8 8 8 8 9 0 a b c c c c c b d e f g h h h h h h i j k l m c c c c c c c c c c c c c c q#r#s#t#u#v#v#v#v#v#w#x#y#z#0#m c c c c n c o p h h h h h h g p q r b c c c c c s l t u v 8 8 8 8 8 8 8 8 8 8 8 8 8 8 8 v w x r s c c c c c y z A B C h h h h h h D E c n c c c c m 0#A#B#C#w#v#v#v#v#v#D#E#F#G#H#c c c c c c c c c c c c c c m F G H I h h h h h h g J K d b c c c c m s L M 9 8 8 8 8 8 7 7 N ",
"6 7 7 8 8 8 8 8 9 0 a b c c c c c b d e f g h h h h h h i j k l m c c c c c c c c c c c c c c I#J#K#L#M#N#N#N#N#N#O#P#Q#R#S#m c c c c n c o p h h h h h h g p q r b c c c c c s l t u v 8 8 8 8 8 8 8 8 8 8 8 8 8 8 8 v w x r s c c c c c y z A B C h h h h h h D E c n c c c c m T#U#V#W#X#N#N#N#N#N#Y#Z#`#r# $c c c c c c c c c c c c c c m F G H I h h h h h h g J K d b c c c c m s L M 9 8 8 8 8 8 7 7 N ",
"6 7 7 8 8 8 8 8 9 0 a b c c c c c b d e f g h h h h h h i j k l m c c c c c c c c c c c c c c I#J#.$+$@$#$$$$$$$$$%$&$*$=$S#m c c c c n c o p h h h h h h g p q r b c c c c c s l t u v 8 8 8 8 8 8 8 8 8 8 8 8 8 8 8 v w x r s c c c c c y z A B C h h h h h h D E c n c c c c m T#A#-$;$%$$$$$$$$$#$>$,$'$)$ $c c c c c c c c c c c c c c m F G H I h h h h h h g J K d b c c c c m s L M 9 8 8 8 8 8 7 7 N ",
"6 7 7 8 8 8 8 8 9 0 a b c c c c c b d e f g h h h h h h i j k l m c c c c c c c c c c c c c c I#J#.$!$~${$]$]$]$]$$$>$^$/$S#m c c c c n c o p h h h h h h g p q r b c c c c c s l t u v 8 8 8 8 8 8 8 8 8 8 8 8 8 8 8 v w x r s c c c c c y z A B C h h h h h h D E c n c c c c m T#A#($&$_$]$]$]$]${$:$<$'$)$ $c c c c c c c c c c c c c c m F G H I h h h h h h g J K d b c c c c m s L M 9 8 8 8 8 8 7 7 N ",
"6 7 7 8 8 8 8 8 9 0 a b c c c c c b d e f g h h h h h h i j k l m c c c c c c c c c c c c c c I#J#.$!$>${$]$]$]$]$$$>$^$/$S#m c c c c n c o p h h h h h h g p q r b c c c c c s l t u v 8 8 8 8 8 8 8 8 8 8 8 8 8 8 8 v w x r s c c c c c y z A B C h h h h h h D E c n c c c c m T#A#($&$_$]$]$]$]${$:$<$'$)$ $c c c c c c c c c c c c c c m F G H I h h h h h h g J K d b c c c c m s L M 9 8 8 8 8 8 7 7 N ",
"6 7 7 8 8 8 8 8 9 0 a b c c c c c b d e f g h h h h h h i j k l m c c c c c c c c c c c c c c I#J#.$!$>${$]$]$]$]$$$>$^$/$S#m c c c c n c o p h h h h h h g p q r b c c c c c s l t u v 8 8 8 8 8 8 8 8 8 8 8 8 8 8 8 v w x r s c c c c c y z A B C h h h h h h D E c n c c c c m T#A#($&$_$]$]$]$]${$:$<$'$)$ $c c c c c c c c c c c c c c m F G H I h h h h h h g J K d b c c c c m s L M 9 8 8 8 8 8 7 7 N ",
"6 7 7 8 8 8 8 8 9 0 a b c c c c c b d e f g h h h h h h i j k l m c c c c c c c c c c c c c c I#J#.$!$>${$]$]$]$]$$$>$^$/$S#m c c c c n c o p h h h h h h g p q r b c c c c c s l t u v 8 8 8 8 8 8 8 8 8 8 8 8 8 8 8 v w x r s c c c c c y z A B C h h h h h h D E c n c c c c m T#A#($&$_$]$]$]$]${$:$<$'$)$ $c c c c c c c c c c c c c c m F G H I h h h h h h g J K d b c c c c m s L M 9 8 8 8 8 8 7 7 N ",
"6 7 7 8 8 8 8 8 9 0 a b c c c c c b d e f g h h h h h h i j k l m c c c c c c c c c c c c c c I#J#.$!$>${$]$]$]$]$$$>$^$/$S#m c c c c n c o p h h h h h h g p q r b c c c c c s l t u v 8 8 8 8 8 8 8 8 8 8 8 8 8 8 8 v w x r s c c c c c y z A B C h h h h h h D E c n c c c c m T#A#($&$_$]$]$]$]${$:$<$'$)$ $c c c c c c c c c c c c c c m F G H I h h h h h h g J K d b c c c c m s L M 9 8 8 8 8 8 7 7 N ",
"6 7 7 8 8 8 8 8 9 0 a b c c c c c b d e f g h h h h h h i j k l m c c c c c c c c c c c c c c I#J#.$!$>${$]$]$]$]$$$>$^$/$S#m c c c c n c o p h h h h h h g p q r b c c c c c s l t u v 8 8 8 8 8 8 8 8 8 8 8 8 8 8 8 v w x r s c c c c c y z A B C h h h h h h D E c n c c c c m T#A#($&$_$]$]$]$]${$:$<$'$)$ $c c c c c c c c c c c c c c m F G H I h h h h h h g J K d b c c c c m s L M 9 8 8 8 8 8 7 7 N ",
"6 7 7 8 8 8 8 8 9 0 a b c c c c c b d e f g h h h h h h i j k l m c c c c c c c c c c c c c c I#J#.$!$>${$]$]$]$]$$$>$^$/$S#m c c c c n c o p h h h h h h g p q r b c c c c c s l t u v 8 8 8 8 8 8 8 8 8 8 8 8 8 8 8 v w x r s c c c c c y z A B C h h h h h h D E c n c c c c m T#A#($&$_$]$]$]$]${$:$<$'$)$ $c c c c c c c c c c c c c c m F G H I h h h h h h g J K d b c c c c m s L M 9 8 8 8 8 8 7 7 N ",
"6 7 7 8 8 8 8 8 9 0 a b c c c c c b d e f g h h h h h h i j k l m c c c c c c c c c c c c c c I#J#.$!$>${$]$]$]$]$$$>$^$/$S#m c c c c n c o p h h h h h h g p q r b c c c c c s l t u v 8 8 8 8 8 8 8 8 8 8 8 8 8 8 8 v w x r s c c c c c y z A B C h h h h h h D E c n c c c c m T#A#($&$_$]$]$]$]${$:$<$'$)$ $c c c c c c c c c c c c c c m F G H I h h h h h h g J K d b c c c c m s L M 9 8 8 8 8 8 7 7 N ",
"6 7 7 8 8 8 8 8 9 0 a b c c c c c b d e f g h h h h h h i j k l m c c c c c c c c c c c c c c I#J#.$!$>${$]$]$]$]$$$>$^$/$S#m c c c c n c o p h h h h h h g p q r b c c c c c s l t u v 8 8 8 8 8 8 8 8 8 8 8 8 8 8 8 v w x r s c c c c c y z A B C h h h h h h D E c n c c c c m T#A#($&$_$]$]$]$]${$:$<$'$)$ $c c c c c c c c c c c c c c m F G H I h h h h h h g J K d b c c c c m s L M 9 8 8 8 8 8 7 7 N ",
"6 7 7 8 8 8 8 8 9 0 a b c c c c c b d e f g h h h h h h i j k l m c c c c c c c c c c c c c c I#J#.$!$>${$]$]$]$]$$$>$^$/$S#m c c c c n c o p h h h h h h g p q r b c c c c c s l t u v 8 8 8 8 8 8 8 8 8 8 8 8 8 8 8 v w x r s c c c c c y z A B C h h h h h h D E c n c c c c m T#A#($&$_$]$]$]$]${$:$<$'$)$ $c c c c c c c c c c c c c c m F G H I h h h h h h g J K d b c c c c m s L M 9 8 8 8 8 8 7 7 N ",
"6 7 7 8 8 8 8 8 9 0 a b c c c c c b d e f g h h h h h h i j k l m c c c c c c c c c c c c c c I#J#.$!$>${$]$]$]$]$$$>$^$/$S#m c c c c n c o p h h h h h h g p q r b c c c c c s l t u v 8 8 8 8 8 8 8 8 8 8 8 8 8 8 8 v w x r s c c c c c y z A B C h h h h h h D E c n c c c c m T#A#($&$_$]$]$]$]${$:$<$'$)$ $c c c c c c c c c c c c c c m F G H I h h h h h h g J K d b c c c c m s L M 9 8 8 8 8 8 7 7 N ",
"6 7 7 8 8 8 8 8 9 0 a b c c c c c b d e f g h h h h h h i j k l m c c c c c c c c c c c c c c I#J#.$!$>${$]$]$]$]$$$>$^$/$S#m c c c c n c o p h h h h h h g p q r b c c c c c s l t u v 8 8 8 8 8 8 8 8 8 8 8 8 8 8 8 v w x r s c c c c c y z A B C h h h h h h D E c n c c c c m T#A#($&$_$]$]$]$]${$:$<$'$)$ $c c c c c c c c c c c c c c m F G H I h h h h h h g J K d b c c c c m s L M 9 8 8 8 8 8 7 7 N ",
"6 7 7 8 8 8 8 8 9 0 a b c c c c c b d e f g h h h h h h i j k l m c c c c c c c c c c c c c c I#J#.$!$>${$]$]$]$]$$$>$^$/$S#m c c c c n c o p h h h h h h g p q r b c c c c c s l t u v 8 8 8 8 8 8 8 8 8 8 8 8 8 8 8 v w x r s c c c c c y z A B C h h h h h h D E c n c c c c m T#A#($&$_$]$]$]$]${$:$<$'$)$ $c c c c c c c c c c c c c c m F G H I h h h h h h g J K d b c c c c m s L M 9 8 8 8 8 8 7 7 N ",
"6 7 7 8 8 8 8 8 9 0 a b c c c c c b d e f g h h h h h h i j k l m c c c c c c c c c c c c c c I#J#.$!$~${$]$]$]$]$$$>$^$/$S#m c c c c n c o p h h h h h h g p q r b c c c c c s l t u v 8 8 8 8 8 8 8 8 8 8 8 8 8 8 8 v w x r s c c c c c y z A B C h h h h h h D E c n c c c c m T#A#($&$_$]$]$]$]${$:$<$'$)$ $c c c c c c c c c c c c c c m F G H I h h h h h h g J K d b c c c c m s L M 9 8 8 8 8 8 7 7 N ",
"6 7 7 8 8 8 8 8 9 0 a b c c c c c b d e f g h h h h h h i j k l m c c c c c c c c c c c c c c I#J#.$[$N#}$%$%$%$%$|$1$2$z#S#m c c c c n c o p h h h h h h g p q r b c c c c c s l t u v 8 8 8 8 8 8 8 8 8 8 8 8 8 8 8 v w x r s c c c c c y z A B C h h h h h h D E c n c c c c m T#3$4$5$6$%$%$%$%$}$&$7$'$)$ $c c c c c c c c c c c c c c m F G H I h h h h h h g J K d b c c c c m s L M 9 8 8 8 8 8 7 7 N ",
"6 7 7 8 8 8 8 8 9 0 a b c c c c c b d e f g h h h h h h i j k l m c c c c c c c c c c c c c c I#J#8$9$0$a$b$b$b$b$:$c$d$e$S#m c c c c n c o p h h h h h h g p q r b c c c c c s l t u v 8 8 8 8 8 8 8 8 8 8 8 8 8 8 8 v w x r s c c c c c y z A B C h h h h h h D E c n c c c c m T#U#f$g$h$b$b$b$b$a$i$j$k$l$ $c c c c c c c c c c c c c c m F G H I h h h h h h g J K d b c c c c m s L M 9 8 8 8 8 8 7 7 N ",
"6 7 7 8 8 8 8 8 9 0 a b c c c c c b d e f g h h h h h h i j k l m c c c c c c c c c c c c c c m#m$n$o$p$q$q$q$q$q$r$s$t$u$v$m c c c c n c o p h h h h h h g p q r b c c c c c s l t u v 8 8 8 8 8 8 8 8 8 8 8 8 8 8 8 v w x r s c c c c c y z A B C h h h h h h D E c n c c c c m v$w$x$y$z$q$q$q$q$q$A$B$C$D$E$c c c c c c c c c c c c c c m F G H I h h h h h h g J K d b c c c c m s L M 9 8 8 8 8 8 7 7 N ",
"6 7 7 8 8 8 8 8 9 0 a b c c c c c b d e f g h h h h h h i j k l m c c c c c c c c c c c c c c m 0#F$G$H$I$I$I$I$I$I$I$J$` n m c c c c n c o p h h h h h h g p q r b c c c c c s l t u v 8 8 8 8 8 8 8 8 8 8 8 8 8 8 8 v w x r s c c c c c y z A B C h h h h h h D E c n c c c c m n ` K$I$I$I$I$I$I$I$H$L$M$v$c c c c c c c c c c c c c c c m F G H I h h h h h h g J K d b c c c c m s L M 9 8 8 8 8 8 7 7 N ",
"6 7 7 8 8 8 8 8 9 0 a b c c c c c b d e f g h h h h h h i j k l m c c c c c c c c c c c c c c m m p#N$O$O$O$O$O$O$O$O$c#n b c c c c c n c o p h h h h h h g p q r b c c c c c s l t u v 8 8 8 8 8 8 8 8 8 8 8 8 8 8 8 v w x r s c c c c c y z A B C h h h h h h D E c n c c c c c b n P$O$O$O$O$O$O$O$O$N$v$m c c c c c c c c c c c c c c c m F G H I h h h h h h g J K d b c c c c m s L M 9 8 8 8 8 8 7 7 N ",
"6 7 7 8 8 8 8 8 9 0 a b c c c c c b d e f g h h h h h h i j k l m c c c c c c c c c c c c c c c c E$Q$Q$Q$Q$Q$Q$Q$Q$Q$E$c c c c c c c n c o p h h h h h h g p q r b c c c c c s l t u v 8 8 8 8 8 8 8 8 8 8 8 8 8 8 8 v w x r s c c c c c y z A B C h h h h h h D E c n c c c c c c c H#Q$Q$Q$Q$Q$Q$Q$Q$Q$R$c c c c c c c c c c c c c c c c m F G H I h h h h h h g J K d b c c c c m s L M 9 8 8 8 8 8 7 7 N ",
"6 7 7 8 8 8 8 8 9 0 a b c c c c c b d e f g h h h h h h i j k l m c c c c c c c c c c c c c c c c c c c c c c c c c c c c c c c c c c n c o p h h h h h h g p q r b c c c c c s l t u v 8 8 8 8 8 8 8 8 8 8 8 8 8 8 8 v w x r s c c c c c y z A B C h h h h h h D E c n c c c c c c c c c c c c c c c c c c c c c c c c c c c c c c c c c c m F G H I h h h h h h g J K d b c c c c m s L M 9 8 8 8 8 8 7 7 N ",
"6 7 7 8 8 8 8 8 9 0 a b c c c c c b d e f g h h h h h h i j k l m c c c c c c c c c c c c c c c c c c c c c c c c c c c c c c c c c c n c o p h h h h h h g p q r b c c c c c s l t u v 8 8 8 8 8 8 8 8 8 8 8 8 8 8 8 v w x r s c c c c c y z A B C h h h h h h D E c n c c c c c c c c c c c c c c c c c c c c c c c c c c c c c c c c c c m F G H I h h h h h h g J K d b c c c c m s L M 9 8 8 8 8 8 7 7 N ",
"6 7 7 8 8 8 8 8 9 0 a b c c c c c b d e f g h h h h h h i j k l m c c c c c c c c c c c c c c c c c c c c c c c c c c c c c c c c c c n c o p h h h h h h g p q r b c c c c c s l t u v 8 8 8 8 8 8 8 8 8 8 8 8 8 8 8 v w x r s c c c c c y z A B C h h h h h h D E c n c c c c c c c c c c c c c c c c c c c c c c c c c c c c c c c c c c m F G H I h h h h h h g J K d b c c c c m s L M 9 8 8 8 8 8 7 7 N ",
"6 7 7 8 8 8 8 8 9 0 a b c c c c c b d e f g h h h h h h i j k l m c c c c c c c c c c c c c c c c c c c c c c c c c c c c c c c c c c n c o p h h h h h h g p q r b c c c c c s l t u v 8 8 8 8 8 8 8 8 8 8 8 8 8 8 8 v w x r s c c c c c y z A B C h h h h h h D S$c n c c c c c c c c c c c c c c c c c c c c c c c c c c c c c c c c c c m F G H I h h h h h h g J K d b c c c c m s L M 9 8 8 8 8 8 7 7 N ",
"6 7 7 8 8 8 8 8 9 0 a b c c c c c b d e f g h h h h h h i j k s y n n n n n n b c c c c c c c c c c c c c c c c c c c c b n n n n n n n b '.p h h h h h h g p q r b c c c c c s l t u v 8 8 8 8 8 8 8 8 8 8 8 8 8 8 8 v w x r s c c c c c y z A B C h h h h h h D E b n n n n n n n b c c c c c c c c c c c c c c c c c c c c b n n n n n n y l !.H I h h h h h h g J K d b c c c c m s L M 9 8 8 8 8 8 7 7 N ",
"6 7 7 8 8 8 8 8 9 0 a b c c c c c b d e f g h h h h h h i &.T$P d r r r r r r d c b c c c c c c c c c c c c c c c c b c r r r r r r r r r @.p h h h h h h g p q r b c c c c c s l t u v 8 8 8 8 8 8 8 8 8 8 8 8 8 8 8 v w x r s c c c c c y z A B C h h h h h h D L r r r r r r r r r c b c c c c c c c c c c c c c c c c b c d r z r r r r d {.U$J i h h h h h h g J K d b c c c c m s L M 9 8 8 8 8 8 7 7 N ",
"6 7 7 8 8 8 8 8 9 0 a b c c c c c b d e f g h h h h h h *...V$S$W$).).).).).@.<.y c c c c c c c c c c c c c c c c c c k T @.).).).).).).T X$p h h h h h h g p q r b c c c c c s l t u v 8 8 8 8 8 8 8 8 8 8 8 8 8 8 8 v w x r s c c c c c y z A B C h h h h h h p 9.T ).).).).).).@.T %.c c c c c c c c c c c c c c c c c c %.+.W$).).).).).Y$S$Z$=.B h h h h h h g J K d b c c c c m s L M 9 8 8 8 8 8 7 7 N ",
"6 7 7 8 8 8 8 8 9 0 a b c c c c c b d e f g h h h h h h a.i.c._#_#_#_#_#_#-.d.t v.l m c c c c c c c c c c c c c c n d I.-.Y _#_#_#_#_#_#_#c.p h h h h h h g p q r b c c c c c s l t u v 8 8 8 8 8 8 8 8 8 8 8 8 8 8 8 v w x r s c c c c c y z A B C h h h h h h D c._#_#_#_#_#_#_#Y `$L l c c c c c c c c c c c c c c c b r G y.h -._#_#_#_#_#_#c.a.D h h h h h h g J K d b c c c c m s L M 9 8 8 8 8 8 7 7 N ",
"6 7 7 8 8 8 8 8 9 0 a b c c c c c b d e f g h h h h h h h p B B B B B B B p (.k.k l m c c c c c c c c c c c c c c m d '.p I B B B B B B B p h h h h h h h g p q r b c c c c c s l t u v 8 8 8 8 8 8 8 8 8 8 8 8 8 8 8 v w x r s c c c c c y z A B C h h h h h h h B B B B B B B B I h j.l c c c c c c c c c c c c c c c b r !.'#/.p B B B B B B B p h h h h h h h g J K d b c c c c m s L M 9 8 8 8 8 8 7 7 N ",
"6 7 7 8 8 8 8 8 9 0 a b c c c c c b d e f g h h h h h h h h h h h h h h h Y I b.k l m c c c c c c c c c c c c c c m d o i.p h h h h h h h h h h h h h h h g p q r b c c c c c s l t u v 8 8 8 8 8 8 8 8 8 8 8 8 8 8 8 v w x r s c c c c c y z A B C h h h h h h h h h h h h h h h p c.+.l c c c c c c c c c c c c c c c b r !.j I Y h h h h h h h h h h h h h h h g J K d b c c c c m s L M 9 8 8 8 8 8 7 7 N ",
"6 7 7 8 8 8 8 8 9 0 a b c c c c c b d e f g h h h h h h h h h h h h h h h Y I b.k l m c c c c c c c c c c c c c c m d o a.p h h h h h h h h h h h h h h h g p q r b c c c c c s l t u v 8 8 8 8 8 8 8 8 8 8 8 8 8 8 8 v w x r s c c c c c y z A B C h h h h h h h h h h h h h h h p X +.l c c c c c c c c c c c c c c c b r !.j I Y h h h h h h h h h h h h h h h g J K d b c c c c m s L M 9 8 8 8 8 8 7 7 N ",
"6 7 7 8 8 8 8 8 9 0 a b c c c c c b d e f g h h h h h h h h h h h h h h h Y I b.k l m c c c c c c c c c c c c c c m d o a.p h h h h h h h h h h h h h h h g p q r b c c c c c s l t u v 8 8 8 8 8 8 8 8 8 8 8 8 8 8 8 v w x r s c c c c c y z A B C h h h h h h h h h h h h h h h p X +.l c c c c c c c c c c c c c c c b r !.j I Y h h h h h h h h h h h h h h h g J K d b c c c c m s L M 9 8 8 8 8 8 7 7 N ",
"6 7 7 8 8 8 8 8 9 0 a b c c c c c b d e f g h h h h h h h h h h h h h h h Y I b.k l m c c c c c c c c c c c c c c m d o a.p h h h h h h h h h h h h h h h g p q r b c c c c c s l t u v 8 8 8 8 8 8 8 8 8 8 8 8 8 8 8 v w x r s c c c c c y z A B C h h h h h h h h h h h h h h h p X +.l c c c c c c c c c c c c c c c b r !.j I Y h h h h h h h h h h h h h h h g J K d b c c c c m s L M 9 8 8 8 8 8 7 7 N ",
"6 7 7 8 8 8 8 8 9 0 a b c c c c c b d e f g h h h h h h h h h h h h h h h Y I b.k l c c c c c c c c c c c c c c c c d o a.p h h h h h h h h h h h h h h h g p q r b c c c c c s l t u v 8 8 8 8 8 8 8 8 8 8 8 8 8 8 8 v w x r s c c c c c y z A B C h h h h h h h h h h h h h h h p X +.l c c c c c c c c c c c c c c c b r !.j I Y h h h h h h h h h h h h h h h g J K d b c c c c m s L M 9 8 8 8 8 8 7 7 N ",
"6 7 7 8 8 8 8 8 9 0 a b c c c c c b d e f g h h h h h h h h h h h h h h h Y I b.a l b c c c c c c c c c c c c c c b d o a.p h h h h h h h h h h h h h h h g p q r b c c c c c s l t u v 8 8 8 8 8 8 8 8 8 8 8 8 8 8 8 v w x r s c c c c c y z A B C h h h h h h h h h h h h h h h p X +.s b c c c c c c c c c c c c c c b r !.j I Y h h h h h h h h h h h h h h h g J K d b c c c c m s L M 9 8 8 8 8 8 7 7 N ",
"6 7 7 8 8 8 8 8 9 0 a b c c c c c b d e f g h h h h h h h h h h h h h h h Y i 4#%.r s l l l l l l l l l l l l l l s r @.a.p h h h h h h h h h h h h h h h g p q r b c c c c c s l t u v 8 8 8 8 8 8 8 8 8 8 8 8 8 8 8 v w x r s c c c c c y z A B C h h h h h h h h h h h h h h h p X L r s l l l l l l l l l l l l l l s O 5# %I Y h h h h h h h h h h h h h h h g J K d b c c c c m s L M 9 8 8 8 8 8 7 7 N ",
"6 7 7 8 8 8 8 8 9 0 a b c c c c c b d e f g h h h h h h h h h h h h h h h h I j '.l.I.T T T T T T T T T T T T T T I.l.X$a.p h h h h h h h h h h h h h h h g p q r b c c c c c s l t u v 8 8 8 8 8 8 8 8 8 8 8 8 8 8 8 v w x r s c c c c c y z A B C h h h h h h h h h h h h h h h p Y 9.T I.T T T T T T T T T T T T T T I.l..%+%*.h h h h h h h h h h h h h h h h g J K d b c c c c m s L M 9 8 8 8 8 8 7 7 N ",
"6 7 7 8 8 8 8 8 9 0 a b c c c c c b d e f g h h h h h h h h h h h h h h h h p a.h h h h h h h h h h h h h h h h h h h h g h h h h h h h h h h h h h h h h g p q r b c c c c c s l t u v 8 8 8 8 8 8 8 8 8 8 8 8 8 8 8 v w x r s c c c c c y z A B C h h h h h h h h h h h h h h h h C h h h h h h h h h h h h h h h h h h h h a.p h h h h h h h h h h h h h h h h g J K d b c c c c m s L M 9 8 8 8 8 8 7 7 N ",
"6 7 7 8 8 8 8 8 9 0 a b c c c c c b d e f g h h h h h h h h h h h h h h h h h p p p p p p p p p p p p p p p p p p p p p h h h h h h h h h h h h h h h h h g p q r b c c c c c s l t u v 8 8 8 8 8 8 8 8 8 8 8 8 8 8 8 v w x r s c c c c c y z A B C h h h h h h h h h h h h h h h h h p p p p p p p p p p p p p p p p p p p p p g h h h h h h h h h h h h h h h h g J K d b c c c c m s L M 9 8 8 8 8 8 7 7 N ",
"6 7 7 8 8 8 8 8 9 0 a b c c c c c b d e f g h h h h h h h h h h h h h h h h h h h h h h h h h h h h h h h h h h h h h h h h h h h h h h h h h h h h h h h g p q r b c c c c c s l t u v 8 8 8 8 8 8 8 8 8 8 8 8 8 8 8 v w x r s c c c c c y z A B C h h h h h h h h h h h h h h h h h h h h h h h h h h h h h h h h h h h h h h h h h h h h h h h h h h h h h h h g J K d b c c c c m s L M 9 8 8 8 8 8 7 7 N ",
"6 7 7 8 8 8 8 8 9 0 a b c c c c c b d e f g h h h h h h h h h h h h h h h h h h h h h h h h h h h h h h h h h h h h h h h h h h h h h h h h h h h h h h h g p q r b c c c c c s l t u v 8 8 8 8 8 8 8 8 8 8 8 8 8 8 8 v w x r s c c c c c y z A B C h h h h h h h h h h h h h h h h h h h h h h h h h h h h h h h h h h h h h h h h h h h h h h h h h h h h h h h g J K d b c c c c m s L M 9 8 8 8 8 8 7 7 N ",
"6 7 7 8 8 8 8 8 9 0 a b c c c c c b d e f g h h h h h h h h h h h h h h h h h h h h h h h h h h h h h h h h h h h h h h h h h h h h h h h h h h h h h h h g p q r b c c c c c s l t u v 8 8 8 8 8 8 8 8 8 8 8 8 8 8 8 v w x r s c c c c c y z A B C h h h h h h h h h h h h h h h h h h h h h h h h h h h h h h h h h h h h h h h h h h h h h h h h h h h h h h h g J K d b c c c c m s L M 9 8 8 8 8 8 7 7 N ",
"6 7 7 8 8 8 8 8 9 0 a b c c c c c b d e f g h h h h h h h h h h h h h h h h h h h h h h h h h h h h h h h h h h h h h h h h h h h h h h h h h h h h h h h g p q r b c c c c c s l t u v 8 8 8 8 8 8 8 8 8 8 8 8 8 8 8 v w x r s c c c c c y z A B C h h h h h h h h h h h h h h h h h h h h h h h h h h h h h h h h h h h h h h h h h h h h h h h h h h h h h h h g J K d b c c c c m s L M 9 8 8 8 8 8 7 7 N ",
"6 7 7 8 8 8 8 8 9 0 a b m c c c c b d e f g h h h h h h h h h h h h h h h h h h h h h h h h h h h h h h h h h h h h h h h h h h h h h h h h h h h h h h h g p q r y c c c c m s l t u v 8 8 8 8 8 8 8 8 8 8 8 8 8 8 8 v w x r s c c c c c y z A B C h h h h h h h h h h h h h h h h h h h h h h h h h h h h h h h h h h h h h h h h h h h h h h h h h h h h h h h g J K d b c c c c m s L M 9 8 8 8 8 8 7 7 N ",
"6 7 7 8 8 8 8 8 9 0 k b b u.u.u.u.b r e f g D p p p p p p p p p p p p p p p p p p p p p p p p p p p p p p p p p p p p p p p p p p p p p p p p p p p p p h C p q r b u.u.u.u.u.l l t @%#%$%$%$%$%$%$%$%$%$%$%$%$%$%$%8 #%%%x r s u.u.u.u.u.b z A p C p p p p p p p p p p p p p p p p p p p p p p p p p p p p p p p p p p p p p p p p p p p p p p p p p p p p p p h g J K r b u.u.u.u.b c e M 9 8 8 8 8 8 7 7 N ",
"6 7 7 8 8 8 8 8 9 &%k n c c c c c c r *%`$g h h h h h h h h h h h h h h h h h h h h h h h h h h h h h h h h h h h h h h h h h h h h h h h h h h h h h h h C h =%r b c c c c c d l t -%8 ;%;%;%;%;%;%;%;%;%;%;%;%;%;%;%>%u t.r c c c c c c b r 4#|#h h h h h h h h h h h h h h h h h h h h h h h h h h h h h h h h h h h h h h h h h h h h h h h h h h h h h h h h ;.H K r c c c c c c c e M ;%8 8 8 8 8 7 7 N ",
"6 7 7 8 8 8 8 8 9 ,%n.m.m.m.m.m.m.m.Q '%I )%!%~%~%~%~%~%~%~%~%~%~%~%~%~%~%~%~%~%~%~%~%~%~%~%~%~%~%~%~%~%~%~%~%~%~%~%~%~%~%~%~%~%~%~%~%~%~%~%~%~%~%~%~%~%!%{%)%}#.%m.m.m.m.m.m.]%Q 4#^%-.-.-.-.-.-.-.-.-.-.-.-.-.-.-.-.-.^%t .%m.m.m.m.m.m.m.Q /%!%!%!%~%~%~%~%~%~%~%~%~%~%~%~%~%~%~%~%~%~%~%~%~%~%~%~%~%~%~%~%~%~%~%~%~%~%~%~%~%~%~%~%~%~%~%~%~%~%~%~%~%~%~%~%~%!%(%g 7.Q m.m.m.m.m.m.]%t._%9 8 8 8 8 8 7 7 N ",
"6 7 7 8 8 8 8 8 8 9 ;%w w w w w w w w w 9 9 9 9 9 9 9 9 9 9 9 9 9 9 9 9 9 9 9 9 9 9 9 9 9 9 9 9 9 9 9 9 9 9 9 9 9 9 9 9 9 9 9 9 9 9 9 9 9 9 9 9 9 9 9 9 9 9 9 ;%w w w w w w ;%%%;%:%].c d z z z z z z z z z z z z z d c B.-.%%;%;%w w w w w w ;%9 9 9 9 9 9 9 9 9 9 9 9 9 9 9 9 9 9 9 9 9 9 9 9 9 9 9 9 9 9 9 9 9 9 9 9 9 9 9 9 9 9 9 9 9 9 9 9 9 9 9 9 9 9 9 9 9 9 9 w w w w w w w w w ;%9 8 8 8 8 8 8 7 7 N ",
"6 7 7 8 8 8 8 8 9 8 8 8 8 8 8 8 8 8 8 8 8 8 8 8 8 8 8 8 8 8 8 8 8 8 8 8 8 8 8 8 8 8 8 8 8 8 8 8 8 8 8 8 8 8 8 8 8 8 8 8 8 8 8 8 8 8 8 8 8 8 8 8 8 8 8 8 8 8 8 8 8 8 8 8 8 8 8 >%8 J :. .b b b b b b b b b b b b b b b y P -.9 8 8 8 8 8 8 8 8 8 8 8 8 8 8 8 8 8 8 8 8 8 8 8 8 8 8 8 8 8 8 8 8 8 8 8 8 8 8 8 8 8 8 8 8 8 8 8 8 8 8 8 8 8 8 8 8 8 8 8 8 8 8 8 8 8 8 8 8 8 8 8 8 8 8 8 8 8 8 8 9 8 8 8 8 8 7 7 N ",
"6 7 7 8 8 8 8 8 8 8 8 8 8 8 8 8 8 8 8 8 8 8 8 8 8 8 8 8 8 8 8 8 8 8 8 8 8 8 8 8 8 8 8 8 8 8 8 8 8 8 8 8 8 8 8 8 8 8 8 8 8 8 8 8 8 8 8 8 8 8 8 8 8 8 8 8 8 8 8 8 8 8 8 8 8 8 8 <%<%'#[%y c c c c c c c c c c c c c c c y :.-.%%$%8 8 8 8 8 8 8 8 8 8 8 8 8 8 8 8 8 8 8 8 8 8 8 8 8 8 8 8 8 8 8 8 8 8 8 8 8 8 8 8 8 8 8 8 8 8 8 8 8 8 8 8 8 8 8 8 8 8 8 8 8 8 8 8 8 8 8 8 8 8 8 8 8 8 8 8 8 8 8 8 8 8 8 8 7 7 N ",
"6 7 7 8 8 8 8 8 8 8 8 8 8 8 8 8 8 8 8 8 8 8 8 8 8 8 8 8 8 8 8 8 8 8 8 8 8 8 8 8 8 8 8 8 8 8 8 8 8 8 8 8 8 8 8 8 8 8 8 8 8 8 8 8 8 8 8 8 8 8 8 8 8 8 8 8 8 8 8 8 8 8 8 8 8 8 8 <%<%'#[%y c c c c c c c c c c c c c c c y :.-.%%$%8 8 8 8 8 8 8 8 8 8 8 8 8 8 8 8 8 8 8 8 8 8 8 8 8 8 8 8 8 8 8 8 8 8 8 8 8 8 8 8 8 8 8 8 8 8 8 8 8 8 8 8 8 8 8 8 8 8 8 8 8 8 8 8 8 8 8 8 8 8 8 8 8 8 8 8 8 8 8 8 8 8 8 8 7 7 N ",
"6 7 7 8 8 8 8 8 8 8 8 8 8 8 8 8 8 8 8 8 8 8 8 8 8 8 8 8 8 8 8 8 8 8 8 8 8 8 8 8 8 8 8 8 8 8 8 8 8 8 8 8 8 8 8 8 8 8 8 8 8 8 8 8 8 8 8 8 8 8 8 8 8 8 8 8 8 8 8 8 8 8 8 8 8 8 8 <%<%'#[%y c c c c c c c c c c c c c c c y :.-.%%$%8 8 8 8 8 8 8 8 8 8 8 8 8 8 8 8 8 8 8 8 8 8 8 8 8 8 8 8 8 8 8 8 8 8 8 8 8 8 8 8 8 8 8 8 8 8 8 8 8 8 8 8 8 8 8 8 8 8 8 8 8 8 8 8 8 8 8 8 8 8 8 8 8 8 8 8 8 8 8 8 8 8 8 8 7 7 N ",
"6 7 7 8 8 8 8 8 8 8 8 8 8 8 8 8 8 8 8 8 8 8 8 8 8 8 8 8 8 8 8 8 8 8 8 8 8 8 8 8 8 8 8 8 8 8 8 8 8 8 8 8 8 8 8 8 8 8 8 8 8 8 8 8 8 8 8 8 8 8 8 8 8 8 8 8 8 8 8 8 8 8 8 8 8 8 8 <%<%'#[%y c c c c c c c c c c c c c c c y :.-.%%$%8 8 8 8 8 8 8 8 8 8 8 8 8 8 8 8 8 8 8 8 8 8 8 8 8 8 8 8 8 8 8 8 8 8 8 8 8 8 8 8 8 8 8 8 8 8 8 8 8 8 8 8 8 8 8 8 8 8 8 8 8 8 8 8 8 8 8 8 8 8 8 8 8 8 8 8 8 8 8 8 8 8 8 8 7 7 N ",
"6 7 7 8 8 8 8 8 8 8 8 8 8 8 8 8 8 8 8 8 8 8 8 8 8 8 8 8 8 8 8 8 8 8 8 8 8 8 8 8 8 8 8 8 8 8 8 8 8 8 8 8 8 8 8 8 8 8 8 8 8 8 8 8 8 8 8 8 8 8 8 8 8 8 8 8 8 8 8 8 8 8 8 8 8 8 8 <%<%'#[% .c c c c c c c c c c c c c c c y :.-.%%$%8 8 8 8 8 8 8 8 8 8 8 8 8 8 8 8 8 8 8 8 8 8 8 8 8 8 8 8 8 8 8 8 8 8 8 8 8 8 8 8 8 8 8 8 8 8 8 8 8 8 8 8 8 8 8 8 8 8 8 8 8 8 8 8 8 8 8 8 8 8 8 8 8 8 8 8 8 8 8 8 8 8 8 8 7 7 N ",
"6 7 7 8 8 8 8 8 9 8 <%<%<%<%<%<%<%<%<%<%<%<%<%<%<%<%<%<%<%<%<%<%<%<%<%<%<%<%<%<%<%<%<%<%<%<%<%<%<%<%<%<%<%<%<%<%<%<%<%<%<%<%<%<%<%<%<%<%<%<%<%<%<%<%<%<%<%<%<%<%<%<%<%<%<%<%<%}%;%'#|%b s s s s s s s s s s s s s s s b [%-.1%<%<%<%<%<%<%<%<%<%<%<%<%<%<%<%<%<%<%<%<%<%<%<%<%<%<%<%<%<%<%<%<%<%<%<%<%<%<%<%<%<%<%<%<%<%<%<%<%<%<%<%<%<%<%<%<%<%<%<%<%<%<%<%<%<%<%<%<%<%<%<%<%<%<%<%<%<%<%8 9 8 8 8 8 8 7 7 N ",
"2%8 8 8 8 8 8 9 8 9 3%3%3%3%3%3%3%3%3%3%3%3%3%3%3%3%3%3%3%3%3%3%3%3%3%3%3%3%3%3%3%3%3%3%3%3%3%3%3%3%3%3%3%3%3%3%3%3%3%3%3%3%3%3%3%3%3%3%3%3%3%3%3%3%3%3%3%3%3%3%3%3%3%3%3%3%3%9 9 :%}.n c c c c c c c c c c c c c c c n 8+-.w 3%3%3%3%3%3%3%3%3%3%3%3%3%3%3%3%3%3%3%3%3%3%3%3%3%3%3%3%3%3%3%3%3%3%3%3%3%3%3%3%3%3%3%3%3%3%3%3%3%3%3%3%3%3%3%3%3%3%3%3%3%3%3%3%3%3%3%3%3%3%3%3%3%3%3%3%3%3%9 8 9 8 8 8 8 8 8 4%",
"5%    6%6%6%6%6%6%6%7%8%8%8%8%8%8%8%8%8%8%8%8%8%8%8%8%8%8%8%8%8%8%8%8%8%8%8%8%8%8%8%8%8%8%8%8%8%8%8%8%8%8%8%8%8%8%8%8%8%8%8%8%8%8%8%8%8%8%8%8%8%8%8%8%8%8%8%8%8%8%8%8%8%8%8%8%8%9%0%a%b%b%b%b%b%b%b%b%b%b%b%b%b%b%b%b%c%d%e%9%8%8%8%8%8%8%8%8%8%8%8%8%8%8%8%8%8%8%8%8%8%8%8%8%8%8%8%8%8%8%8%8%8%8%8%8%8%8%8%8%8%8%8%8%8%8%8%8%8%8%8%8%8%8%8%8%8%8%8%8%8%8%8%8%8%8%8%8%8%8%8%8%8%8%8%8%8%9%6%6%6%6%6%6%6%    f%"};
