/* door_sci.xpm */
static const char *door_sci_xpm[] = {
"32 32 5 1",
"  c #2A2E35",
". c #3B424C",
"+ c #55606D",
"* c #A4BACD",
"= c #00A0FF",
"................................",
"................................",
"................................",
"..++++++++++++++++++++++++++++..",
"..++++++++++++++++++++++++++++..",
"..++++++++++++++++++++++++++++..",
"..++++++++++++++++++++++++++++..",
"..++++++++++++++++++++++++++++..",
"..++++++++++++++++++++++++++++..",
"..++++++++++++++++++++++++++++..",
"..++++++++++************++++++..",
"..++++++++++************++++++..",
"..++++++++++************++++++..",
"..++++++++++************++++++..",
"..++++++++++************++++++..",
"..++++++++++************++++++..",
"..++++++++++************++++++..",
"..++++++++++************++++++..",
"..++++++++++++++++++++++++++++..",
"..++++++++++++++++++++++++++++..",
"..++++++++++++++++++++++++++++..",
"..++++++++++++++++++++++++++++..",
"..++++++++++++++++++++++++++++..",
"..++++++++++++++++++++++++++++..",
"..++++++++++++++++++++++++++++..",
"..++++++++++++++++++++++++++++..",
"..++++++++++++++++++++++++++++..",
"..============================..",
"..============================..",
"................................",
"................................",
"................................"
};