/* XPM */
static char * smoke_02_xpm[] = {
"320 320 6 1",
" 	c None",
".	c #666666",
"+	c #999999",
"@	c #7F7F7F",
"#	c #727272",
"$	c #8C8C8C",
"                                                                                                                                                                                                                                                                                                                                ",
"                                                                                                                                                                                                                                                                                                                                ",
"                                                                                                                                                                                                                                                                                                                                ",
"                                                                                                                                                                                                                                                                                                                                ",
"                                                                                                                                                                                                                                                                                                                                ",
"                                                                                                                                                                                                                                                                                                                                ",
"                                                                                                                                                                                                                                                                                                                                ",
"                                                                                                                                                                                                                                                                                                                                ",
"                                                                                                                                                                                                                                                                                                                                ",
"                                                                                                                                                                                                                                                                                                                                ",
"                                                                                                                                                                                                                                                                                                                                ",
"                                                                                                                                                                                                                                                                                                                                ",
"                                                                                                                                                                                                                                                                                                                                ",
"                                                                                                                                                                                                                                                                                                                                ",
"                                                                                                                                                                                                                                                                                                                                ",
"                                                                                                                                                                                                                                                                                                                                ",
"                                                                                                                                                                                                                                                                                                                                ",
"                                                                                                                                                                                                                                                                                                                                ",
"                                                                                                                                                                                                                                                                                                                                ",
"                                                                                                                                                                                                                                                                                                                                ",
"                                                                                                                                                                                                                                                                                                                                ",
"                                                                                                                                                                                                                                                                                                                                ",
"                                                                                                                                                                                                                                                                                                                                ",
"                                                                                                                                                                                                                                                                                                                                ",
"                                                                                                                                                                                                                                                                                                                                ",
"                                                                                                                                                                                                                                                                                                                                ",
"                                                                                                                                                                                                                                                                                                                                ",
"                                                                                                                                                                                                                                                                                                                                ",
"                                                                                                                                                                                                                                                                                                                                ",
"                                                                                                                                                                                                                                                                                                                                ",
"                                                                                                                                                                                                                                                                                                                                ",
"                                                                                                                                                                                                                                                                                                                                ",
"                                                                                                                                                                                                                                                                                                                                ",
"                                                                                                                                                                                                                                                                                                                                ",
"                                                                                                                                                                                                                                                                                                                                ",
"                                                                                                                                                                                                                                                                                                                                ",
"                                                                                                                                                                                                                                                                                                                                ",
"                                                                                                                                                                                                                                                                                                                                ",
"                                                                                                                                                                                                                                                                                                                                ",
"                                                                                                                                                                                                                                                                                                                                ",
"                                                                                                                                                                                                                                                                                                                                ",
"                                                                                                                                                                                                                                                                                                                                ",
"                                                                                                                                                                                                                                                                                                                                ",
"                                                                                                                                                                                                                                                                                                                                ",
"                                                                                                                                                                                                                                                                                                                                ",
"                                                                                                                                                                                                                                                                                                                                ",
"                                                                                                                                                                                                                                                                                                                                ",
"                                                                                                                                                                                                                                                                                                                                ",
"                                                                                                                                                                                                                                                                                                                                ",
"                                                                                                                                                                                                                                                                                                                                ",
"                                                                                                                                                                                                                                                                                                                                ",
"                                                                                                                                                                                                                                                                                                                                ",
"                                                                                                                                                                                                                                                                                                                                ",
"                                                                                                                                                                                                                                                                                                                                ",
"                                                                                                                                                                                                                                                                                                                                ",
"                                                                                                                                                                                                                                                                                                                                ",
"                                                                                                                                                                                                                                                                                                                                ",
"                                                                                                                                                                                                                                                                                                                                ",
"                                                                                                                                                                                                                                                                                                                                ",
"                                                                                                                                                                                                                                                                                                                                ",
"                                                                                                                                                                                                                                                                                                                                ",
"                                                                                                                                                                                                                                                                                                                                ",
"                                                                                                                                                                                                                                                                                                                                ",
"                                                                                                                                                                                                                                                                                                                                ",
"                                                                                                                                                                                                                                                                                                                                ",
"                                                                                                                                                                                                                                                                                                                                ",
"                                                                                                                                                                                                                                                                                                                                ",
"                                                                                                                                                                                                                                                                                                                                ",
"                                                                                                                                                                                                                                                                                                                                ",
"                                                                                                                                                                                                                                                                                                                                ",
"                                                                                                                                                                                                                                                                                                                                ",
"                                                                                                                                                                                                                                                                                                                                ",
"                                                                                                                                                                                                                                                                                                                                ",
"                                                                                                                                                                      ..........                                                                                                                                                ",
"                                                                                                                                                                      ..........                                                                                                                                                ",
"                                                                                                                                                                      ..........                                                                                                                                                ",
"                                                                                                                                                                      ..........                                                                                                                                                ",
"                                                                                                                                                                      ..........                                                                                                                                                ",
"                                                                                                                                                                 .....+++++@@@@@.....                                                                                                                                           ",
"                                                                                                                                                                 .....+++++@@@@@.....                                                                                                                                           ",
"                                                                                                                                                                 .....+++++@@@@@.....                                                                                                                                           ",
"                                                                                                                                                                 .....+++++@@@@@.....                                                                                                                                           ",
"                                                                                                                                                                 .....+++++@@@@@.....                                                                                                                                           ",
"                                                                                                                                                            .....@@@@@@@@@@#####                                                                                                                                                ",
"                                                                                                                                                            .....@@@@@@@@@@#####                                                                                                                                                ",
"                                                                                                                                                            .....@@@@@@@@@@#####                                                                                                                                                ",
"                                                                                                                                                            .....@@@@@@@@@@#####                                                                                                                                                ",
"                                                                                                                                                            .....@@@@@@@@@@#####                                                                                                                                                ",
"                                                                                                                                             #####               #####.....                                                                                                                                                     ",
"                                                                                                                                             #####               #####.....                                                                                                                                                     ",
"                                                                                                                                             #####               #####.....                                                                                                                                                     ",
"                                                                                                                                             #####               #####.....                                                                                                                                                     ",
"                                                                                                                                             #####               #####.....                                                                                                                                                     ",
"                                                                                                                                   #####.....$$$$$#####                                                                                                                                                                         ",
"                                                                                                                                   #####.....$$$$$#####                                                                                                                                                                         ",
"                                                                                                                                   #####.....$$$$$#####                                                                                                                                                                         ",
"                                                                                                                                   #####.....$$$$$#####                                                                                                                                                                         ",
"                                                                                                                                   #####.....$$$$$#####                                                                                                                                                                         ",
"                                                                                                                              .....+++++@@@@@+++++@@@@@.....                                                                                                                                                                    ",
"                                                                                                                              .....+++++@@@@@+++++@@@@@.....                                                                                                                                                                    ",
"                                                                                                                              .....+++++@@@@@+++++@@@@@.....                                                                                                                                                                    ",
"                                                                                                                              .....+++++@@@@@+++++@@@@@.....                                                                                                                                                                    ",
"                                                                                                                              .....+++++@@@@@+++++@@@@@.....                                                                                                                                                                    ",
"                                                                                                                              #####@@@@@@@@@@@@@@@@@@@@#####                                                                                                                                                                    ",
"                                                                                                                              #####@@@@@@@@@@@@@@@@@@@@#####                                                                                                                                                                    ",
"                                                                                                                              #####@@@@@@@@@@@@@@@@@@@@#####                                                                                                                                                                    ",
"                                                                                                                              #####@@@@@@@@@@@@@@@@@@@@#####                                                                                                                                                                    ",
"                                                                                                                              #####@@@@@@@@@@@@@@@@@@@@#####                                                                                                                                                                    ",
"                                                                                                                                   ##########.....#####                                                                                                                                                                         ",
"                                                                                                                                   ##########.....#####                                                                                                                                                                         ",
"                                                                                                                                   ##########.....#####                                                                                                                                                                         ",
"                                                                                                                                   ##########.....#####                                                                                                                                                                         ",
"                                                                                                                                   ##########.....#####                                                                                                                                                                         ",
"                                                                                                                                                                                                                                                                                                                                ",
"                                                                                                                                                                                                                                                                                                                                ",
"                                                                                                                                                                                                                                                                                                                                ",
"                                                                                                                                                                                                                                                                                                                                ",
"                                                                                                                                                                                                                                                                                                                                ",
"                                                                                                                                                                      ###############                                                                                                                                           ",
"                                                                                                                                                                      ###############                                                                                                                                           ",
"                                                                                                                                                                      ###############                                                                                                                                           ",
"                                                                                                                                                                      ###############                                                                                                                                           ",
"                                                                                                                                                                      ###############                                                                                                                                           ",
"                                                                                                                                                                 #####+++++@@@@@.....                                                                                                                                           ",
"                                                                                                                                                                 #####+++++@@@@@.....                                                                                                                                           ",
"                                                                                                                                                                 #####+++++@@@@@.....                                                                                                                                           ",
"                                                                                                                                                                 #####+++++@@@@@.....                                                                                                                                           ",
"                                                                                                                                                                 #####+++++@@@@@.....                                                                                                                                           ",
"                                                                                                                                                                      .....#####                                                                                                                                                ",
"                                                                                                                                                                      .....#####                                                                                                                                                ",
"                                                                                                                                                                      .....#####                                                                                                                                                ",
"                                                                                                                                                                      .....#####                                                                                                                                                ",
"                                                                                                                                                                      .....#####                                                                                                                                                ",
"                                                                                                                                                                                                                                                                                                                                ",
"                                                                                                                                                                                                                                                                                                                                ",
"                                                                                                                                                                                                                                                                                                                                ",
"                                                                                                                                                                                                                                                                                                                                ",
"                                                                                                                                                                                                                                                                                                                                ",
"                                                                                                                                                                                                                                                                                                                                ",
"                                                                                                                                                                                                                                                                                                                                ",
"                                                                                                                                                                                                                                                                                                                                ",
"                                                                                                                                                                                                                                                                                                                                ",
"                                                                                                                                                                                                                                                                                                                                ",
"                                                                                                                                                                                                                                                                                                                                ",
"                                                                                                                                                                                                                                                                                                                                ",
"                                                                                                                                                                                                                                                                                                                                ",
"                                                                                                                                                                                                                                                                                                                                ",
"                                                                                                                                                                                                                                                                                                                                ",
"                                                                                                                                                                                                                                                                                                                                ",
"                                                                                                                                                                                                                                                                                                                                ",
"                                                                                                                                                                                                                                                                                                                                ",
"                                                                                                                                                                                                                                                                                                                                ",
"                                                                                                                                                                                                                                                                                                                                ",
"                                                                                                                                                                                                                                                                                                                                ",
"                                                                                                                                                                                                                                                                                                                                ",
"                                                                                                                                                                                                                                                                                                                                ",
"                                                                                                                                                                                                                                                                                                                                ",
"                                                                                                                                                                                                                                                                                                                                ",
"                                                                                                                                                                                                                                                                                                                                ",
"                                                                                                                                                                                                                                                                                                                                ",
"                                                                                                                                                                                                                                                                                                                                ",
"                                                                                                                                                                                                                                                                                                                                ",
"                                                                                                                                                                                                                                                                                                                                ",
"                                                                                                                                                                                                                                                                                                                                ",
"                                                                                                                                                                                                                                                                                                                                ",
"                                                                                                                                                                                                                                                                                                                                ",
"                                                                                                                                                                                                                                                                                                                                ",
"                                                                                                                                                                                                                                                                                                                                ",
"                                                                                                                                                                                                                                                                                                                                ",
"                                                                                                                                                                                                                                                                                                                                ",
"                                                                                                                                                                                                                                                                                                                                ",
"                                                                                                                                                                                                                                                                                                                                ",
"                                                                                                                                                                                                                                                                                                                                ",
"                                                                                                                                                                                                                                                                                                                                ",
"                                                                                                                                                                                                                                                                                                                                ",
"                                                                                                                                                                                                                                                                                                                                ",
"                                                                                                                                                                                                                                                                                                                                ",
"                                                                                                                                                                                                                                                                                                                                ",
"                                                                                                                                                                                                                                                                                                                                ",
"                                                                                                                                                                                                                                                                                                                                ",
"                                                                                                                                                                                                                                                                                                                                ",
"                                                                                                                                                                                                                                                                                                                                ",
"                                                                                                                                                                                                                                                                                                                                ",
"                                                                                                                                                                                                                                                                                                                                ",
"                                                                                                                                                                                                                                                                                                                                ",
"                                                                                                                                                                                                                                                                                                                                ",
"                                                                                                                                                                                                                                                                                                                                ",
"                                                                                                                                                                                                                                                                                                                                ",
"                                                                                                                                                                                                                                                                                                                                ",
"                                                                                                                                                                                                                                                                                                                                ",
"                                                                                                                                                                                                                                                                                                                                ",
"                                                                                                                                                               ####################                                                                                                                                             ",
"                                                                                                                                                               ####################                                                                                                                                             ",
"                                                                                                                                                               ####################                                                                                                                                             ",
"                                                                                                                                                               ####################                                                                                                                                             ",
"                                                                                                                                                               ####################                                                                                                                                             ",
"                                                                                                                                           #####.....#####.....$$$$$+++++++++++++++#####                                                                                                                                        ",
"                                                                                                                                           #####.....#####.....$$$$$+++++++++++++++#####                                                                                                                                        ",
"                                                                                                                                           #####.....#####.....$$$$$+++++++++++++++#####                                                                                                                                        ",
"                                                                                                                                           #####.....#####.....$$$$$+++++++++++++++#####                                                                                                                                        ",
"                                                                                                                                           #####.....#####.....$$$$$+++++++++++++++#####                                                                                                                                        ",
"                                                                                                                                 .....#####$$$$$++++++++++$$$$$.....+++++++++++++++.....                                                                                                                                        ",
"                                                                                                                                 .....#####$$$$$++++++++++$$$$$.....+++++++++++++++.....                                                                                                                                        ",
"                                                                                                                                 .....#####$$$$$++++++++++$$$$$.....+++++++++++++++.....                                                                                                                                        ",
"                                                                                                                                 .....#####$$$$$++++++++++$$$$$.....+++++++++++++++.....                                                                                                                                        ",
"                                                                                                                                 .....#####$$$$$++++++++++$$$$$.....+++++++++++++++.....                                                                                                                                        ",
"                                                                                                                            .....+++++++++++++++++++++++++++++++++++$$$$$+++++@@@@@.....                                                                                                                                        ",
"                                                                                                                            .....+++++++++++++++++++++++++++++++++++$$$$$+++++@@@@@.....                                                                                                                                        ",
"                                                                                                                            .....+++++++++++++++++++++++++++++++++++$$$$$+++++@@@@@.....                                                                                                                                        ",
"                                                                                                                            .....+++++++++++++++++++++++++++++++++++$$$$$+++++@@@@@.....                                                                                                                                        ",
"                                                                                                                            .....+++++++++++++++++++++++++++++++++++$$$$$+++++@@@@@.....                                                                                                                                        ",
"                                                                                                                            .....@@@@@+++++++++++++++++++++++++++++++++++@@@@@@@@@@.....                                                                                                                                        ",
"                                                                                                                            .....@@@@@+++++++++++++++++++++++++++++++++++@@@@@@@@@@.....                                                                                                                                        ",
"                                                                                                                            .....@@@@@+++++++++++++++++++++++++++++++++++@@@@@@@@@@.....                                                                                                                                        ",
"                                                                                                                            .....@@@@@+++++++++++++++++++++++++++++++++++@@@@@@@@@@.....                                                                                                                                        ",
"                                                                                                                            .....@@@@@+++++++++++++++++++++++++++++++++++@@@@@@@@@@.....                                                                                                                                        ",
"                                                                                                                            .....$$$$$+++++$$$$$++++++++++++++++++++@@@@@@@@@@#####                                                                                                                                             ",
"                                                                                                                            .....$$$$$+++++$$$$$++++++++++++++++++++@@@@@@@@@@#####                                                                                                                                             ",
"                                                                                                                            .....$$$$$+++++$$$$$++++++++++++++++++++@@@@@@@@@@#####                                                                                                                                             ",
"                                                                                                                            .....$$$$$+++++$$$$$++++++++++++++++++++@@@@@@@@@@#####                                                                                                                                             ",
"                                                                                                                            .....$$$$$+++++$$$$$++++++++++++++++++++@@@@@@@@@@#####                                                                                                                                             ",
"                                                                                                                            #####@@@@@@@@@@+++++++++++++++$$$$$++++++++++###############                                                                                                                                        ",
"                                                                                                                            #####@@@@@@@@@@+++++++++++++++$$$$$++++++++++###############                                                                                                                                        ",
"                                                                                                                            #####@@@@@@@@@@+++++++++++++++$$$$$++++++++++###############                                                                                                                                        ",
"                                                                                                                            #####@@@@@@@@@@+++++++++++++++$$$$$++++++++++###############                                                                                                                                        ",
"                                                                                                                            #####@@@@@@@@@@+++++++++++++++$$$$$++++++++++###############                                                                                                                                        ",
"                                                                                                                            #####@@@@@@@@@@@@@@@+++++$$$$$@@@@@$$$$$+++++++++++++++$$$$$#####                                                                                                                                   ",
"                                                                                                                            #####@@@@@@@@@@@@@@@+++++$$$$$@@@@@$$$$$+++++++++++++++$$$$$#####                                                                                                                                   ",
"                                                                                                                            #####@@@@@@@@@@@@@@@+++++$$$$$@@@@@$$$$$+++++++++++++++$$$$$#####                                                                                                                                   ",
"                                                                                                                            #####@@@@@@@@@@@@@@@+++++$$$$$@@@@@$$$$$+++++++++++++++$$$$$#####                                                                                                                                   ",
"                                                                                                                            #####@@@@@@@@@@@@@@@+++++$$$$$@@@@@$$$$$+++++++++++++++$$$$$#####                                                                                                                                   ",
"                                                                                                                                 #####@@@@@@@@@@@@@@@@@@@@.....+++++++++++++++$$$$$@@@@@#####                                                                                                                                   ",
"                                                                                                                                 #####@@@@@@@@@@@@@@@@@@@@.....+++++++++++++++$$$$$@@@@@#####                                                                                                                                   ",
"                                                                                                                                 #####@@@@@@@@@@@@@@@@@@@@.....+++++++++++++++$$$$$@@@@@#####                                                                                                                                   ",
"                                                                                                                                 #####@@@@@@@@@@@@@@@@@@@@.....+++++++++++++++$$$$$@@@@@#####                                                                                                                                   ",
"                                                                                                                                 #####@@@@@@@@@@@@@@@@@@@@.....+++++++++++++++$$$$$@@@@@#####                                                                                                                                   ",
"                                                                                                                                      ##########..........@@@@@$$$$$+++++@@@@@+++++$$$$$.....                                                                                                                                   ",
"                                                                                                                                      ##########..........@@@@@$$$$$+++++@@@@@+++++$$$$$.....                                                                                                                                   ",
"                                                                                                                                      ##########..........@@@@@$$$$$+++++@@@@@+++++$$$$$.....                                                                                                                                   ",
"                                                                                                                                      ##########..........@@@@@$$$$$+++++@@@@@+++++$$$$$.....                                                                                                                                   ",
"                                                                                                                                      ##########..........@@@@@$$$$$+++++@@@@@+++++$$$$$.....                                                                                                                                   ",
"                                                                                                                                                          #####@@@@@+++++@@@@@@@@@@@@@@@#####                                                                                                                                   ",
"                                                                                                                                                          #####@@@@@+++++@@@@@@@@@@@@@@@#####                                                                                                                                   ",
"                                                                                                                                                          #####@@@@@+++++@@@@@@@@@@@@@@@#####                                                                                                                                   ",
"                                                                                                                                                          #####@@@@@+++++@@@@@@@@@@@@@@@#####                                                                                                                                   ",
"                                                                                                                                                          #####@@@@@+++++@@@@@@@@@@@@@@@#####                                                                                                                                   ",
"                                                                                                                                                          .....@@@@@@@@@@@@@@@..........                                                                                                                                        ",
"                                                                                                                                                          .....@@@@@@@@@@@@@@@..........                                                                                                                                        ",
"                                                                                                                                                          .....@@@@@@@@@@@@@@@..........                                                                                                                                        ",
"                                                                                                                                                          .....@@@@@@@@@@@@@@@..........                                                                                                                                        ",
"                                                                                                                                                          .....@@@@@@@@@@@@@@@..........                                                                                                                                        ",
"                                                                                                                                                               ...............                                                                                                                                                  ",
"                                                                                                                                                               ...............                                                                                                                                                  ",
"                                                                                                                                                               ...............                                                                                                                                                  ",
"                                                                                                                                                               ...............                                                                                                                                                  ",
"                                                                                                                                                               ...............                                                                                                                                                  ",
"                                                                                                                                                                                                                                                                                                                                ",
"                                                                                                                                                                                                                                                                                                                                ",
"                                                                                                                                                                                                                                                                                                                                ",
"                                                                                                                                                                                                                                                                                                                                ",
"                                                                                                                                                                                                                                                                                                                                ",
"                                                                                                                                                                                                                                                                                                                                ",
"                                                                                                                                                                                                                                                                                                                                ",
"                                                                                                                                                                                                                                                                                                                                ",
"                                                                                                                                                                                                                                                                                                                                ",
"                                                                                                                                                                                                                                                                                                                                ",
"                                                                                                                                                                                                                                                                                                                                ",
"                                                                                                                                                                                                                                                                                                                                ",
"                                                                                                                                                                                                                                                                                                                                ",
"                                                                                                                                                                                                                                                                                                                                ",
"                                                                                                                                                                                                                                                                                                                                ",
"                                                                                                                                                                                                                                                                                                                                ",
"                                                                                                                                                                                                                                                                                                                                ",
"                                                                                                                                                                                                                                                                                                                                ",
"                                                                                                                                                                                                                                                                                                                                ",
"                                                                                                                                                                                                                                                                                                                                ",
"                                                                                                                                                                                                                                                                                                                                ",
"                                                                                                                                                                                                                                                                                                                                ",
"                                                                                                                                                                                                                                                                                                                                ",
"                                                                                                                                                                                                                                                                                                                                ",
"                                                                                                                                                                                                                                                                                                                                ",
"                                                                                                                                                                                                                                                                                                                                ",
"                                                                                                                                                                                                                                                                                                                                ",
"                                                                                                                                                                                                                                                                                                                                ",
"                                                                                                                                                                                                                                                                                                                                ",
"                                                                                                                                                                                                                                                                                                                                ",
"                                                                                                                                                                                                                                                                                                                                ",
"                                                                                                                                                                                                                                                                                                                                ",
"                                                                                                                                                                                                                                                                                                                                ",
"                                                                                                                                                                                                                                                                                                                                ",
"                                                                                                                                                                                                                                                                                                                                ",
"                                                                                                                                                                                                                                                                                                                                ",
"                                                                                                                                                                                                                                                                                                                                ",
"                                                                                                                                                                                                                                                                                                                                ",
"                                                                                                                                                                                                                                                                                                                                ",
"                                                                                                                                                                                                                                                                                                                                ",
"                                                                                                                                                                                                                                                                                                                                ",
"                                                                                                                                                                                                                                                                                                                                ",
"                                                                                                                                                                                                                                                                                                                                ",
"                                                                                                                                                                                                                                                                                                                                ",
"                                                                                                                                                                                                                                                                                                                                ",
"                                                                                                                                                                                                                                                                                                                                ",
"                                                                                                                                                                                                                                                                                                                                ",
"                                                                                                                                                                                                                                                                                                                                ",
"                                                                                                                                                                                                                                                                                                                                ",
"                                                                                                                                                                                                                                                                                                                                ",
"                                                                                                                                                                                                                                                                                                                                ",
"                                                                                                                                                                                                                                                                                                                                ",
"                                                                                                                                                                                                                                                                                                                                ",
"                                                                                                                                                                                                                                                                                                                                ",
"                                                                                                                                                                                                                                                                                                                                ",
"                                                                                                                                                                                                                                                                                                                                ",
"                                                                                                                                                                                                                                                                                                                                ",
"                                                                                                                                                                                                                                                                                                                                ",
"                                                                                                                                                                                                                                                                                                                                ",
"                                                                                                                                                                                                                                                                                                                                ",
"                                                                                                                                                                                                                                                                                                                                ",
"                                                                                                                                                                                                                                                                                                                                ",
"                                                                                                                                                                                                                                                                                                                                ",
"                                                                                                                                                                                                                                                                                                                                "};
