/* XPM */
static char * smoke_01_xpm[] = {
"320 320 6 1",
" 	c None",
".	c #727272",
"+	c #666666",
"@	c #8C8C8C",
"#	c #999999",
"$	c #7F7F7F",
"                                                                                                                                                                                                                                                                                                                                ",
"                                                                                                                                                                                                                                                                                                                                ",
"                                                                                                                                                                                                                                                                                                                                ",
"                                                                                                                                                                                                                                                                                                                                ",
"                                                                                                                                                                                                                                                                                                                                ",
"                                                                                                                                                                                                                                                                                                                                ",
"                                                                                                                                                                                                                                                                                                                                ",
"                                                                                                                                                                                                                                                                                                                                ",
"                                                                                                                                                                                                                                                                                                                                ",
"                                                                                                                                                                                                                                                                                                                                ",
"                                                                                                                                                                                                                                                                                                                                ",
"                                                                                                                                                                                                                                                                                                                                ",
"                                                                                                                                                                                                                                                                                                                                ",
"                                                                                                                                                                                                                                                                                                                                ",
"                                                                                                                                                                                                                                                                                                                                ",
"                                                                                                                                                                                                                                                                                                                                ",
"                                                                                                                                                                                                                                                                                                                                ",
"                                                                                                                                                                                                                                                                                                                                ",
"                                                                                                                                                                                                                                                                                                                                ",
"                                                                                                                                                                                                                                                                                                                                ",
"                                                                                                                                                                                                                                                                                                                                ",
"                                                                                                                                                                                                                                                                                                                                ",
"                                                                                                                                                                                                                                                                                                                                ",
"                                                                                                                                                                                                                                                                                                                                ",
"                                                                                                                                                                                                                                                                                                                                ",
"                                                                                                                                                                                                                                                                                                                                ",
"                                                                                                                                                                                                                                                                                                                                ",
"                                                                                                                                                                                                                                                                                                                                ",
"                                                                                                                                                                                                                                                                                                                                ",
"                                                                                                                                                                                                                                                                                                                                ",
"                                                                                                                                                                                                                                                                                                                                ",
"                                                                                                                                                                                                                                                                                                                                ",
"                                                                                                                                                                                                                                                                                                                                ",
"                                                                                                                                                                                                                                                                                                                                ",
"                                                                                                                                                                                                                                                                                                                                ",
"                                                                                                                                                                                                                                                                                                                                ",
"                                                                                                                                                                                                                                                                                                                                ",
"                                                                                                                                                                                                                                                                                                                                ",
"                                                                                                                                                                                                                                                                                                                                ",
"                                                                                                                                                                                                                                                                                                                                ",
"                                                                                                                                                                                                                                                                                                                                ",
"                                                                                                                                                                                                                                                                                                                                ",
"                                                                                                                                                                                                                                                                                                                                ",
"                                                                                                                                                                                                                                                                                                                                ",
"                                                                                                                                                                                                                                                                                                                                ",
"                                                                                                                                                                                                                                                                                                                                ",
"                                                                                                                                                                                                                                                                                                                                ",
"                                                                                                                                                                                                                                                                                                                                ",
"                                                                                                                                                                                                                                                                                                                                ",
"                                                                                                                                                                                                                                                                                                                                ",
"                                                                                                                                                                                                                                                                                                                                ",
"                                                                                                                                                                                                                                                                                                                                ",
"                                                                                                                                                                                                                                                                                                                                ",
"                                                                                                                                                                                                                                                                                                                                ",
"                                                                                                                                                                                                                                                                                                                                ",
"                                                                                                                                                                                                                                                                                                                                ",
"                                                                                                                                                                                                                                                                                                                                ",
"                                                                                                                                                                                                                                                                                                                                ",
"                                                                                                                                                                                                                                                                                                                                ",
"                                                                                                                                                                                                                                                                                                                                ",
"                                                                                                                                                                                                                                                                                                                                ",
"                                                                                                                                                                                                                                                                                                                                ",
"                                                                                                                                                                                                                                                                                                                                ",
"                                                                                                                                                                                                                                                                                                                                ",
"                                                                                                                                                                                                                                                                                                                                ",
"                                                                                                                                                                                                                                                                                                                                ",
"                                                                                                                                                                                                                                                                                                                                ",
"                                                                                                                                                                                                                                                                                                                                ",
"                                                                                                                                                                                                                                                                                                                                ",
"                                                                                                                                                                                                                                                                                                                                ",
"                                                                                                                                                                                                                                                                                                                                ",
"                                                                                                                                                                                                                                                                                                                                ",
"                                                                                                                                                                                                                                                                                                                                ",
"                                                                                                                                                                                                                                                                                                                                ",
"                                                                                                                                                                                                                                                                                                                                ",
"                                                                                                                                                                                                                                                                                                                                ",
"                                                                                                                                                                                                                                                                                                                                ",
"                                                                                                                                                                                                                                                                                                                                ",
"                                                                                                                                                                                                                                                                                                                                ",
"                                                                                                                                                                                                                                                                                                                                ",
"                                                                                                                                                                                                                                                                                                                                ",
"                                                                                                                                                                                                                                                                                                                                ",
"                                                                                                                                                                                                                                                                                                                                ",
"                                                                                                                                                                                                                                                                                                                                ",
"                                                                                                                                                                                                                                                                                                                                ",
"                                                                                                                                                                                                                                                                                                                                ",
"                                                                                                                                                              .....+++++                                                                                                                                                        ",
"                                                                                                                                                              .....+++++                                                                                                                                                        ",
"                                                                                                                                                              .....+++++                                                                                                                                                        ",
"                                                                                                                                                              .....+++++                                                                                                                                                        ",
"                                                                                                                                                              .....+++++                                                                                                                                                        ",
"                                                                                                                                                         .....@@@@@@@@@@+++++                                                                                                                                                   ",
"                                                                                                                                                         .....@@@@@@@@@@+++++                                                                                                                                                   ",
"                                                                                                                                                         .....@@@@@@@@@@+++++                                                                                                                                                   ",
"                                                                                                                                                         .....@@@@@@@@@@+++++                                                                                                                                                   ",
"                                                                                                                                                         .....@@@@@@@@@@+++++                                                                                                                                                   ",
"                                                                                                                                                         .....##########$$$$$+++++                                                                                                                                              ",
"                                                                                                                                                         .....##########$$$$$+++++                                                                                                                                              ",
"                                                                                                                                                         .....##########$$$$$+++++                                                                                                                                              ",
"                                                                                                                                                         .....##########$$$$$+++++                                                                                                                                              ",
"                                                                                                                                                         .....##########$$$$$+++++                                                                                                                                              ",
"                                                                                                                                                         +++++#####@@@@@$$$$$.....                                                                                                                                              ",
"                                                                                                                                                         +++++#####@@@@@$$$$$.....                                                                                                                                              ",
"                                                                                                                                                         +++++#####@@@@@$$$$$.....                                                                                                                                              ",
"                                                                                                                                                         +++++#####@@@@@$$$$$.....                                                                                                                                              ",
"                                                                                                                                                         +++++#####@@@@@$$$$$.....                                                                                                                                              ",
"                                                                                                                                          .....++++++++++#####$$$$$..........                                                                                                                                                   ",
"                                                                                                                                          .....++++++++++#####$$$$$..........                                                                                                                                                   ",
"                                                                                                                                          .....++++++++++#####$$$$$..........                                                                                                                                                   ",
"                                                                                                                                          .....++++++++++#####$$$$$..........                                                                                                                                                   ",
"                                                                                                                                          .....++++++++++#####$$$$$..........                                                                                                                                                   ",
"                                                                                                                                     +++++@@@@@##########$$$$$+++++                                                                                                                                                             ",
"                                                                                                                                     +++++@@@@@##########$$$$$+++++                                                                                                                                                             ",
"                                                                                                                                     +++++@@@@@##########$$$$$+++++                                                                                                                                                             ",
"                                                                                                                                     +++++@@@@@##########$$$$$+++++                                                                                                                                                             ",
"                                                                                                                                     +++++@@@@@##########$$$$$+++++                                                                                                                                                             ",
"                                                                                                                                +++++#####@@@@@#####@@@@@$$$$$+++++                                                                                                                                                             ",
"                                                                                                                                +++++#####@@@@@#####@@@@@$$$$$+++++                                                                                                                                                             ",
"                                                                                                                                +++++#####@@@@@#####@@@@@$$$$$+++++                                                                                                                                                             ",
"                                                                                                                                +++++#####@@@@@#####@@@@@$$$$$+++++                                                                                                                                                             ",
"                                                                                                                                +++++#####@@@@@#####@@@@@$$$$$+++++                                                                                                                                                             ",
"                                                                                                                                .....$$$$$$$$$$@@@@@$$$$$.....                                                                                                                                                                  ",
"                                                                                                                                .....$$$$$$$$$$@@@@@$$$$$.....                                                                                                                                                                  ",
"                                                                                                                                .....$$$$$$$$$$@@@@@$$$$$.....                                                                                                                                                                  ",
"                                                                                                                                .....$$$$$$$$$$@@@@@$$$$$.....                                                                                                                                                                  ",
"                                                                                                                                .....$$$$$$$$$$@@@@@$$$$$.....                                                                                                                                                                  ",
"                                                                                                                                     .....+++++.....+++++                                                                                                                                                                       ",
"                                                                                                                                     .....+++++.....+++++                                                                                                                                                                       ",
"                                                                                                                                     .....+++++.....+++++                                                                                                                                                                       ",
"                                                                                                                                     .....+++++.....+++++                                                                                                                                                                       ",
"                                                                                                                                     .....+++++.....+++++                                                                                                                                                                       ",
"                                                                                                                                                                        +++++.....                                                                                                                                              ",
"                                                                                                                                                                        +++++.....                                                                                                                                              ",
"                                                                                                                                                                        +++++.....                                                                                                                                              ",
"                                                                                                                                                                        +++++.....                                                                                                                                              ",
"                                                                                                                                                                        +++++.....                                                                                                                                              ",
"                                                                                                                                                                   +++++#####$$$$$.....                                                                                                                                         ",
"                                                                                                                                                                   +++++#####$$$$$.....                                                                                                                                         ",
"                                                                                                                                                                   +++++#####$$$$$.....                                                                                                                                         ",
"                                                                                                                                                                   +++++#####$$$$$.....                                                                                                                                         ",
"                                                                                                                                                                   +++++#####$$$$$.....                                                                                                                                         ",
"                                                                                                                                                              .....$$$$$$$$$$$$$$$.....                                                                                                                                         ",
"                                                                                                                                                              .....$$$$$$$$$$$$$$$.....                                                                                                                                         ",
"                                                                                                                                                              .....$$$$$$$$$$$$$$$.....                                                                                                                                         ",
"                                                                                                                                                              .....$$$$$$$$$$$$$$$.....                                                                                                                                         ",
"                                                                                                                                                              .....$$$$$$$$$$$$$$$.....                                                                                                                                         ",
"                                                                                                                                                                   .....+++++.....                                                                                                                                              ",
"                                                                                                                                                                   .....+++++.....                                                                                                                                              ",
"                                                                                                                                                                   .....+++++.....                                                                                                                                              ",
"                                                                                                                                                                   .....+++++.....                                                                                                                                              ",
"                                                                                                                                                                   .....+++++.....                                                                                                                                              ",
"                                                                                                                                                                                                                                                                                                                                ",
"                                                                                                                                                                                                                                                                                                                                ",
"                                                                                                                                                                                                                                                                                                                                ",
"                                                                                                                                                                                                                                                                                                                                ",
"                                                                                                                                                                                                                                                                                                                                ",
"                                                                                                                                                                                                                                                                                                                                ",
"                                                                                                                                                                                                                                                                                                                                ",
"                                                                                                                                                                                                                                                                                                                                ",
"                                                                                                                                                                                                                                                                                                                                ",
"                                                                                                                                                                                                                                                                                                                                ",
"                                                                                                                                                                                                                                                                                                                                ",
"                                                                                                                                                                                                                                                                                                                                ",
"                                                                                                                                                                                                                                                                                                                                ",
"                                                                                                                                                                                                                                                                                                                                ",
"                                                                                                                                                                                                                                                                                                                                ",
"                                                                                                                                                                                                                                                                                                                                ",
"                                                                                                                                                                                                                                                                                                                                ",
"                                                                                                                                                                                                                                                                                                                                ",
"                                                                                                                                                                                                                                                                                                                                ",
"                                                                                                                                                                                                                                                                                                                                ",
"                                                                                                                                                                                                                                                                                                                                ",
"                                                                                                                                                                                                                                                                                                                                ",
"                                                                                                                                                                                                                                                                                                                                ",
"                                                                                                                                                                                                                                                                                                                                ",
"                                                                                                                                                                                                                                                                                                                                ",
"                                                                                                                                                                                                                                                                                                                                ",
"                                                                                                                                                                                                                                                                                                                                ",
"                                                                                                                                                                                                                                                                                                                                ",
"                                                                                                                                                                                                                                                                                                                                ",
"                                                                                                                                                                                                                                                                                                                                ",
"                                                                                                                                                                                                                                                                                                                                ",
"                                                                                                                                                                                                                                                                                                                                ",
"                                                                                                                                                                                                                                                                                                                                ",
"                                                                                                                                                                                                                                                                                                                                ",
"                                                                                                                                                                                                                                                                                                                                ",
"                                                                                                                                                                                                                                                                                                                                ",
"                                                                                                                                                                                                                                                                                                                                ",
"                                                                                                                                                                                                                                                                                                                                ",
"                                                                                                                                                                                                                                                                                                                                ",
"                                                                                                                                                                                                                                                                                                                                ",
"                                                                                                                                                                                                                                                                                                                                ",
"                                                                                                                                                                                                                                                                                                                                ",
"                                                                                                                                                                                                                                                                                                                                ",
"                                                                                                                                                                                                                                                                                                                                ",
"                                                                                                                                                                                                                                                                                                                                ",
"                                                                                                                                                                                                                                                                                                                                ",
"                                                                                                                                                                                                                                                                                                                                ",
"                                                                                                                                                                                                                                                                                                                                ",
"                                                                                                                                                                                                                                                                                                                                ",
"                                                                                                                                                                                                                                                                                                                                ",
"                                                                                                                                                                                                                                                                                                                                ",
"                                                                                                                                                                                                                                                                                                                                ",
"                                                                                                                                                                                                                                                                                                                                ",
"                                                                                                                                                                                                                                                                                                                                ",
"                                                                                                                                                                                                                                                                                                                                ",
"                                                                                                                                                                                                                                                                                                                                ",
"                                                                                                                                                                                                                                                                                                                                ",
"                                                                                                                                                                                                                                                                                                                                ",
"                                                                                                                                                                                                                                                                                                                                ",
"                                                                                                                                                                                                                                                                                                                                ",
"                                                                                                                                                                                                                                                                                                                                ",
"                                                                                                                                                                   ..........+++++.....                                                                                                                                         ",
"                                                                                                                                                                   ..........+++++.....                                                                                                                                         ",
"                                                                                                                                                                   ..........+++++.....                                                                                                                                         ",
"                                                                                                                                                                   ..........+++++.....                                                                                                                                         ",
"                                                                                                                                                                   ..........+++++.....                                                                                                                                         ",
"                                                                                                                                     ++++++++++.....+++++     .....####################+++++                                                                                                                                    ",
"                                                                                                                                     ++++++++++.....+++++     .....####################+++++                                                                                                                                    ",
"                                                                                                                                     ++++++++++.....+++++     .....####################+++++                                                                                                                                    ",
"                                                                                                                                     ++++++++++.....+++++     .....####################+++++                                                                                                                                    ",
"                                                                                                                                     ++++++++++.....+++++     .....####################+++++                                                                                                                                    ",
"                                                                                                                                +++++@@@@@##########@@@@@+++++#########################$$$$$+++++                                                                                                                               ",
"                                                                                                                                +++++@@@@@##########@@@@@+++++#########################$$$$$+++++                                                                                                                               ",
"                                                                                                                                +++++@@@@@##########@@@@@+++++#########################$$$$$+++++                                                                                                                               ",
"                                                                                                                                +++++@@@@@##########@@@@@+++++#########################$$$$$+++++                                                                                                                               ",
"                                                                                                                                +++++@@@@@##########@@@@@+++++#########################$$$$$+++++                                                                                                                               ",
"                                                                                                                           .....@@@@@####################+++++@@@@@###############$$$$$$$$$$.....                                                                                                                               ",
"                                                                                                                           .....@@@@@####################+++++@@@@@###############$$$$$$$$$$.....                                                                                                                               ",
"                                                                                                                           .....@@@@@####################+++++@@@@@###############$$$$$$$$$$.....                                                                                                                               ",
"                                                                                                                           .....@@@@@####################+++++@@@@@###############$$$$$$$$$$.....                                                                                                                               ",
"                                                                                                                           .....@@@@@####################+++++@@@@@###############$$$$$$$$$$.....                                                                                                                               ",
"                                                                                                                      .....$$$$$##############################+++++@@@@@@@@@@$$$$$@@@@@$$$$$.....                                                                                                                               ",
"                                                                                                                      .....$$$$$##############################+++++@@@@@@@@@@$$$$$@@@@@$$$$$.....                                                                                                                               ",
"                                                                                                                      .....$$$$$##############################+++++@@@@@@@@@@$$$$$@@@@@$$$$$.....                                                                                                                               ",
"                                                                                                                      .....$$$$$##############################+++++@@@@@@@@@@$$$$$@@@@@$$$$$.....                                                                                                                               ",
"                                                                                                                      .....$$$$$##############################+++++@@@@@@@@@@$$$$$@@@@@$$$$$.....                                                                                                                               ",
"                                                                                                                      .....$$$$$@@@@@##############################$$$$$$$$$$$$$$$.....+++++                                                                                                                                    ",
"                                                                                                                      .....$$$$$@@@@@##############################$$$$$$$$$$$$$$$.....+++++                                                                                                                                    ",
"                                                                                                                      .....$$$$$@@@@@##############################$$$$$$$$$$$$$$$.....+++++                                                                                                                                    ",
"                                                                                                                      .....$$$$$@@@@@##############################$$$$$$$$$$$$$$$.....+++++                                                                                                                                    ",
"                                                                                                                      .....$$$$$@@@@@##############################$$$$$$$$$$$$$$$.....+++++                                                                                                                                    ",
"                                                                                                                      .....$$$$$$$$$$#########################$$$$$@@@@@###############@@@@@+++++                                                                                                                               ",
"                                                                                                                      .....$$$$$$$$$$#########################$$$$$@@@@@###############@@@@@+++++                                                                                                                               ",
"                                                                                                                      .....$$$$$$$$$$#########################$$$$$@@@@@###############@@@@@+++++                                                                                                                               ",
"                                                                                                                      .....$$$$$$$$$$#########################$$$$$@@@@@###############@@@@@+++++                                                                                                                               ",
"                                                                                                                      .....$$$$$$$$$$#########################$$$$$@@@@@###############@@@@@+++++                                                                                                                               ",
"                                                                                                                      +++++$$$$$#####@@@@@#####@@@@@#####$$$$$$$$$$$$$$$@@@@@###############$$$$$+++++                                                                                                                          ",
"                                                                                                                      +++++$$$$$#####@@@@@#####@@@@@#####$$$$$$$$$$$$$$$@@@@@###############$$$$$+++++                                                                                                                          ",
"                                                                                                                      +++++$$$$$#####@@@@@#####@@@@@#####$$$$$$$$$$$$$$$@@@@@###############$$$$$+++++                                                                                                                          ",
"                                                                                                                      +++++$$$$$#####@@@@@#####@@@@@#####$$$$$$$$$$$$$$$@@@@@###############$$$$$+++++                                                                                                                          ",
"                                                                                                                      +++++$$$$$#####@@@@@#####@@@@@#####$$$$$$$$$$$$$$$@@@@@###############$$$$$+++++                                                                                                                          ",
"                                                                                                                      +++++$$$$$$$$$$$$$$$@@@@@$$$$$$$$$$$$$$$$$$$$####################@@@@@$$$$$+++++                                                                                                                          ",
"                                                                                                                      +++++$$$$$$$$$$$$$$$@@@@@$$$$$$$$$$$$$$$$$$$$####################@@@@@$$$$$+++++                                                                                                                          ",
"                                                                                                                      +++++$$$$$$$$$$$$$$$@@@@@$$$$$$$$$$$$$$$$$$$$####################@@@@@$$$$$+++++                                                                                                                          ",
"                                                                                                                      +++++$$$$$$$$$$$$$$$@@@@@$$$$$$$$$$$$$$$$$$$$####################@@@@@$$$$$+++++                                                                                                                          ",
"                                                                                                                      +++++$$$$$$$$$$$$$$$@@@@@$$$$$$$$$$$$$$$$$$$$####################@@@@@$$$$$+++++                                                                                                                          ",
"                                                                                                                      +++++$$$$$$$$$$$$$$$#####$$$$$$$$$$+++++#########################$$$$$$$$$$.....                                                                                                                          ",
"                                                                                                                      +++++$$$$$$$$$$$$$$$#####$$$$$$$$$$+++++#########################$$$$$$$$$$.....                                                                                                                          ",
"                                                                                                                      +++++$$$$$$$$$$$$$$$#####$$$$$$$$$$+++++#########################$$$$$$$$$$.....                                                                                                                          ",
"                                                                                                                      +++++$$$$$$$$$$$$$$$#####$$$$$$$$$$+++++#########################$$$$$$$$$$.....                                                                                                                          ",
"                                                                                                                      +++++$$$$$$$$$$$$$$$#####$$$$$$$$$$+++++#########################$$$$$$$$$$.....                                                                                                                          ",
"                                                                                                                           +++++$$$$$$$$$$$$$$$$$$$$+++++$$$$$$$$$$$$$$$###############$$$$$$$$$$.....                                                                                                                          ",
"                                                                                                                           +++++$$$$$$$$$$$$$$$$$$$$+++++$$$$$$$$$$$$$$$###############$$$$$$$$$$.....                                                                                                                          ",
"                                                                                                                           +++++$$$$$$$$$$$$$$$$$$$$+++++$$$$$$$$$$$$$$$###############$$$$$$$$$$.....                                                                                                                          ",
"                                                                                                                           +++++$$$$$$$$$$$$$$$$$$$$+++++$$$$$$$$$$$$$$$###############$$$$$$$$$$.....                                                                                                                          ",
"                                                                                                                           +++++$$$$$$$$$$$$$$$$$$$$+++++$$$$$$$$$$$$$$$###############$$$$$$$$$$.....                                                                                                                          ",
"                                                                                                                                .....++++++++++.....     +++++$$$$$#####@@@@@#####$$$$$$$$$$.....                                                                                                                               ",
"                                                                                                                                .....++++++++++.....     +++++$$$$$#####@@@@@#####$$$$$$$$$$.....                                                                                                                               ",
"                                                                                                                                .....++++++++++.....     +++++$$$$$#####@@@@@#####$$$$$$$$$$.....                                                                                                                               ",
"                                                                                                                                .....++++++++++.....     +++++$$$$$#####@@@@@#####$$$$$$$$$$.....                                                                                                                               ",
"                                                                                                                                .....++++++++++.....     +++++$$$$$#####@@@@@#####$$$$$$$$$$.....                                                                                                                               ",
"                                                                                                                                                              +++++$$$$$$$$$$$$$$$$$$$$$$$$$.....                                                                                                                               ",
"                                                                                                                                                              +++++$$$$$$$$$$$$$$$$$$$$$$$$$.....                                                                                                                               ",
"                                                                                                                                                              +++++$$$$$$$$$$$$$$$$$$$$$$$$$.....                                                                                                                               ",
"                                                                                                                                                              +++++$$$$$$$$$$$$$$$$$$$$$$$$$.....                                                                                                                               ",
"                                                                                                                                                              +++++$$$$$$$$$$$$$$$$$$$$$$$$$.....                                                                                                                               ",
"                                                                                                                                                                   +++++++++++++++++++++++++                                                                                                                                    ",
"                                                                                                                                                                   +++++++++++++++++++++++++                                                                                                                                    ",
"                                                                                                                                                                   +++++++++++++++++++++++++                                                                                                                                    ",
"                                                                                                                                                                   +++++++++++++++++++++++++                                                                                                                                    ",
"                                                                                                                                                                   +++++++++++++++++++++++++                                                                                                                                    ",
"                                                                                                                                                                                                                                                                                                                                ",
"                                                                                                                                                                                                                                                                                                                                ",
"                                                                                                                                                                                                                                                                                                                                ",
"                                                                                                                                                                                                                                                                                                                                ",
"                                                                                                                                                                                                                                                                                                                                ",
"                                                                                                                                                                                                                                                                                                                                ",
"                                                                                                                                                                                                                                                                                                                                ",
"                                                                                                                                                                                                                                                                                                                                ",
"                                                                                                                                                                                                                                                                                                                                ",
"                                                                                                                                                                                                                                                                                                                                ",
"                                                                                                                                                                                                                                                                                                                                ",
"                                                                                                                                                                                                                                                                                                                                ",
"                                                                                                                                                                                                                                                                                                                                ",
"                                                                                                                                                                                                                                                                                                                                ",
"                                                                                                                                                                                                                                                                                                                                ",
"                                                                                                                                                                                                                                                                                                                                ",
"                                                                                                                                                                                                                                                                                                                                ",
"                                                                                                                                                                                                                                                                                                                                ",
"                                                                                                                                                                                                                                                                                                                                ",
"                                                                                                                                                                                                                                                                                                                                ",
"                                                                                                                                                                                                                                                                                                                                ",
"                                                                                                                                                                                                                                                                                                                                ",
"                                                                                                                                                                                                                                                                                                                                ",
"                                                                                                                                                                                                                                                                                                                                ",
"                                                                                                                                                                                                                                                                                                                                ",
"                                                                                                                                                                                                                                                                                                                                ",
"                                                                                                                                                                                                                                                                                                                                ",
"                                                                                                                                                                                                                                                                                                                                ",
"                                                                                                                                                                                                                                                                                                                                ",
"                                                                                                                                                                                                                                                                                                                                ",
"                                                                                                                                                                                                                                                                                                                                ",
"                                                                                                                                                                                                                                                                                                                                ",
"                                                                                                                                                                                                                                                                                                                                ",
"                                                                                                                                                                                                                                                                                                                                ",
"                                                                                                                                                                                                                                                                                                                                ",
"                                                                                                                                                                                                                                                                                                                                ",
"                                                                                                                                                                                                                                                                                                                                ",
"                                                                                                                                                                                                                                                                                                                                "};
