/* XPM */
static char * smoke_03_xpm[] = {
"320 320 6 1",
" 	c None",
".	c #666666",
"+	c #727272",
"@	c #999999",
"#	c #7F7F7F",
"$	c #8C8C8C",
"                                                                                                                                                                                                                                                                                                                                ",
"                                                                                                                                                                                                                                                                                                                                ",
"                                                                                                                                                                                                                                                                                                                                ",
"                                                                                                                                                                                                                                                                                                                                ",
"                                                                                                                                                                                                                                                                                                                                ",
"                                                                                                                                                                                                                                                                                                                                ",
"                                                                                                                                                                                                                                                                                                                                ",
"                                                                                                                                                                                                                                                                                                                                ",
"                                                                                                                                                                                                                                                                                                                                ",
"                                                                                                                                                                                                                                                                                                                                ",
"                                                                                                                                                                                                                                                                                                                                ",
"                                                                                                                                                                                                                                                                                                                                ",
"                                                                                                                                                                                                                                                                                                                                ",
"                                                                                                                                                                                                                                                                                                                                ",
"                                                                                                                                                                                                                                                                                                                                ",
"                                                                                                                                                                                                                                                                                                                                ",
"                                                                                                                                                                                                                                                                                                                                ",
"                                                                                                                                                                                                                                                                                                                                ",
"                                                                                                                                                                                                                                                                                                                                ",
"                                                                                                                                                                                                                                                                                                                                ",
"                                                                                                                                                                                                                                                                                                                                ",
"                                                                                                                                                                                                                                                                                                                                ",
"                                                                                                                                                                                                                                                                                                                                ",
"                                                                                                                                                                                                                                                                                                                                ",
"                                                                                                                                                                                                                                                                                                                                ",
"                                                                                                                                                                                                                                                                                                                                ",
"                                                                                                                                                                                                                                                                                                                                ",
"                                                                                                                                                                                                                                                                                                                                ",
"                                                                                                                                                                                                                                                                                                                                ",
"                                                                                                                                                                                                                                                                                                                                ",
"                                                                                                                                                                                                                                                                                                                                ",
"                                                                                                                                                                                                                                                                                                                                ",
"                                                                                                                                                                                                                                                                                                                                ",
"                                                                                                                                                                                                                                                                                                                                ",
"                                                                                                                                                                                                                                                                                                                                ",
"                                                                                                                                                                                                                                                                                                                                ",
"                                                                                                                                                                                                                                                                                                                                ",
"                                                                                                                                                                                                                                                                                                                                ",
"                                                                                                                                                                                                                                                                                                                                ",
"                                                                                                                                                                                                                                                                                                                                ",
"                                                                                                                                                                                                                                                                                                                                ",
"                                                                                                                                                                                                                                                                                                                                ",
"                                                                                                                                                                                                                                                                                                                                ",
"                                                                                                                                                                                                                                                                                                                                ",
"                                                                                                                                                                         .....                                                                                                                                                  ",
"                                                                                                                                                                         .....                                                                                                                                                  ",
"                                                                                                                                                                         .....                                                                                                                                                  ",
"                                                                                                                                                                         .....                                                                                                                                                  ",
"                                                                                                                                                                         .....                                                                                                                                                  ",
"                                                                                                                                                                    +++++@@@@@.....                                                                                                                                             ",
"                                                                                                                                                                    +++++@@@@@.....                                                                                                                                             ",
"                                                                                                                                                                    +++++@@@@@.....                                                                                                                                             ",
"                                                                                                                                                                    +++++@@@@@.....                                                                                                                                             ",
"                                                                                                                                                                    +++++@@@@@.....                                                                                                                                             ",
"                                                                                                                                                                         +++++                                                                                                                                                  ",
"                                                                                                                                                                         +++++                                                                                                                                                  ",
"                                                                                                                                                                         +++++                                                                                                                                                  ",
"                                                                                                                                                                         +++++                                                                                                                                                  ",
"                                                                                                                                                                         +++++                                                                                                                                                  ",
"                                                                                                                                                                                                                                                                                                                                ",
"                                                                                                                                                                                                                                                                                                                                ",
"                                                                                                                                                                                                                                                                                                                                ",
"                                                                                                                                                                                                                                                                                                                                ",
"                                                                                                                                                                                                                                                                                                                                ",
"                                                                                                                                           ..........                                                                                                                                                                           ",
"                                                                                                                                           ..........                                                                                                                                                                           ",
"                                                                                                                                           ..........                                                                                                                                                                           ",
"                                                                                                                                           ..........                                                                                                                                                                           ",
"                                                                                                                                           ..........                                                                                                                                                                           ",
"                                                                                                                                      .....@@@@@#####.....                                                                                                                                                                      ",
"                                                                                                                                      .....@@@@@#####.....                                                                                                                                                                      ",
"                                                                                                                                      .....@@@@@#####.....                                                                                                                                                                      ",
"                                                                                                                                      .....@@@@@#####.....                                                                                                                                                                      ",
"                                                                                                                                      .....@@@@@#####.....                                                                                                                                                                      ",
"                                                                                                                                           +++++.....                                                                                                                                                                           ",
"                                                                                                                                           +++++.....                                                                                                                                                                           ",
"                                                                                                                                           +++++.....                                                                                                                                                                           ",
"                                                                                                                                           +++++.....                                                                                                                                                                           ",
"                                                                                                                                           +++++.....                                                                                                                                                                           ",
"                                                                                                                                                                                                                                                                                                                                ",
"                                                                                                                                                                                                                                                                                                                                ",
"                                                                                                                                                                                                                                                                                                                                ",
"                                                                                                                                                                                                                                                                                                                                ",
"                                                                                                                                                                                                                                                                                                                                ",
"                                                                                                                                                                                                                                                                                                                                ",
"                                                                                                                                                                                                                                                                                                                                ",
"                                                                                                                                                                                                                                                                                                                                ",
"                                                                                                                                                                                                                                                                                                                                ",
"                                                                                                                                                                                                                                                                                                                                ",
"                                                                                                                                                                                   +++++                                                                                                                                        ",
"                                                                                                                                                                                   +++++                                                                                                                                        ",
"                                                                                                                                                                                   +++++                                                                                                                                        ",
"                                                                                                                                                                                   +++++                                                                                                                                        ",
"                                                                                                                                                                                   +++++                                                                                                                                        ",
"                                                                                                                                                                              .....#####.....                                                                                                                                   ",
"                                                                                                                                                                              .....#####.....                                                                                                                                   ",
"                                                                                                                                                                              .....#####.....                                                                                                                                   ",
"                                                                                                                                                                              .....#####.....                                                                                                                                   ",
"                                                                                                                                                                              .....#####.....                                                                                                                                   ",
"                                                                                                                                                                                   +++++                                                                                                                                        ",
"                                                                                                                                                                                   +++++                                                                                                                                        ",
"                                                                                                                                                                                   +++++                                                                                                                                        ",
"                                                                                                                                                                                   +++++                                                                                                                                        ",
"                                                                                                                                                                                   +++++                                                                                                                                        ",
"                                                                                                                                                                                                                                                                                                                                ",
"                                                                                                                                                                                                                                                                                                                                ",
"                                                                                                                                                                                                                                                                                                                                ",
"                                                                                                                                                                                                                                                                                                                                ",
"                                                                                                                                                                                                                                                                                                                                ",
"                                                                                                                                                                                                                                                                                                                                ",
"                                                                                                                                                                                                                                                                                                                                ",
"                                                                                                                                                                                                                                                                                                                                ",
"                                                                                                                                                                                                                                                                                                                                ",
"                                                                                                                                                                                                                                                                                                                                ",
"                                                                                                                                                                                                                                                                                                                                ",
"                                                                                                                                                                                                                                                                                                                                ",
"                                                                                                                                                                                                                                                                                                                                ",
"                                                                                                                                                                                                                                                                                                                                ",
"                                                                                                                                                                                                                                                                                                                                ",
"                                                                                                                                                                                                                                                                                                                                ",
"                                                                                                                                                                                                                                                                                                                                ",
"                                                                                                                                                                                                                                                                                                                                ",
"                                                                                                                                                                                                                                                                                                                                ",
"                                                                                                                                                                                                                                                                                                                                ",
"                                                                                                                                                                                                                                                                                                                                ",
"                                                                                                                                                                                                                                                                                                                                ",
"                                                                                                                                                                                                                                                                                                                                ",
"                                                                                                                                                                                                                                                                                                                                ",
"                                                                                                                                                                                                                                                                                                                                ",
"                                                                                                                                                                                                                                                                                                                                ",
"                                                                                                                                                                                                                                                                                                                                ",
"                                                                                                                                                                                                                                                                                                                                ",
"                                                                                                                                                                                                                                                                                                                                ",
"                                                                                                                                                                                                                                                                                                                                ",
"                                                                                                                                                                                                                                                                                                                                ",
"                                                                                                                                                                                                                                                                                                                                ",
"                                                                                                                                                                                                                                                                                                                                ",
"                                                                                                                                                                                                                                                                                                                                ",
"                                                                                                                                                                                                                                                                                                                                ",
"                                                                                                                                                                                                                                                                                                                                ",
"                                                                                                                                                                                                                                                                                                                                ",
"                                                                                                                                                                                                                                                                                                                                ",
"                                                                                                                                                                                                                                                                                                                                ",
"                                                                                                                                                                                                                                                                                                                                ",
"                                                                                                                                                                                                                                                                                                                                ",
"                                                                                                                                                                                                                                                                                                                                ",
"                                                                                                                                                                                                                                                                                                                                ",
"                                                                                                                                                                                                                                                                                                                                ",
"                                                                                                                                                                                                                                                                                                                                ",
"                                                                                                                                                                                                                                                                                                                                ",
"                                                                                                                                                                                                                                                                                                                                ",
"                                                                                                                                                                                                                                                                                                                                ",
"                                                                                                                                                                                                                                                                                                                                ",
"                                                                                                                                                                                                                                                                                                                                ",
"                                                                                                                                                                                                                                                                                                                                ",
"                                                                                                                                                                                                                                                                                                                                ",
"                                                                                                                                                                                                                                                                                                                                ",
"                                                                                                                                                                                                                                                                                                                                ",
"                                                                                                                                                                                                                                                                                                                                ",
"                                                                                                                                                                                                                                                                                                                                ",
"                                                                                                                                                                                                                                                                                                                                ",
"                                                                                                                                                                                                                                                                                                                                ",
"                                                                                                                                                                                                                                                                                                                                ",
"                                                                                                                                                                                                                                                                                                                                ",
"                                                                                                                                                           ..........++++++++++                                                                                                                                                 ",
"                                                                                                                                                           ..........++++++++++                                                                                                                                                 ",
"                                                                                                                                                           ..........++++++++++                                                                                                                                                 ",
"                                                                                                                                                           ..........++++++++++                                                                                                                                                 ",
"                                                                                                                                                           ..........++++++++++                                                                                                                                                 ",
"                                                                                                                                            ++++++++++.....$$$$$@@@@@@@@@@@@@@@.....                                                                                                                                            ",
"                                                                                                                                            ++++++++++.....$$$$$@@@@@@@@@@@@@@@.....                                                                                                                                            ",
"                                                                                                                                            ++++++++++.....$$$$$@@@@@@@@@@@@@@@.....                                                                                                                                            ",
"                                                                                                                                            ++++++++++.....$$$$$@@@@@@@@@@@@@@@.....                                                                                                                                            ",
"                                                                                                                                            ++++++++++.....$$$$$@@@@@@@@@@@@@@@.....                                                                                                                                            ",
"                                                                                                                                       +++++$$$$$@@@@@+++++@@@@@@@@@@@@@@@#####.....                                                                                                                                            ",
"                                                                                                                                       +++++$$$$$@@@@@+++++@@@@@@@@@@@@@@@#####.....                                                                                                                                            ",
"                                                                                                                                       +++++$$$$$@@@@@+++++@@@@@@@@@@@@@@@#####.....                                                                                                                                            ",
"                                                                                                                                       +++++$$$$$@@@@@+++++@@@@@@@@@@@@@@@#####.....                                                                                                                                            ",
"                                                                                                                                       +++++$$$$$@@@@@+++++@@@@@@@@@@@@@@@#####.....                                                                                                                                            ",
"                                                                                                                                  +++++#####@@@@@@@@@@@@@@@#####@@@@@$$$$$#####+++++                                                                                                                                            ",
"                                                                                                                                  +++++#####@@@@@@@@@@@@@@@#####@@@@@$$$$$#####+++++                                                                                                                                            ",
"                                                                                                                                  +++++#####@@@@@@@@@@@@@@@#####@@@@@$$$$$#####+++++                                                                                                                                            ",
"                                                                                                                                  +++++#####@@@@@@@@@@@@@@@#####@@@@@$$$$$#####+++++                                                                                                                                            ",
"                                                                                                                                  +++++#####@@@@@@@@@@@@@@@#####@@@@@$$$$$#####+++++                                                                                                                                            ",
"                                                                                                                                  .....##########$$$$$@@@@@@@@@@##########+++++                                                                                                                                                 ",
"                                                                                                                                  .....##########$$$$$@@@@@@@@@@##########+++++                                                                                                                                                 ",
"                                                                                                                                  .....##########$$$$$@@@@@@@@@@##########+++++                                                                                                                                                 ",
"                                                                                                                                  .....##########$$$$$@@@@@@@@@@##########+++++                                                                                                                                                 ",
"                                                                                                                                  .....##########$$$$$@@@@@@@@@@##########+++++                                                                                                                                                 ",
"                                                                                                                                  .....####################$$$$$@@@@@++++++++++                                                                                                                                                 ",
"                                                                                                                                  .....####################$$$$$@@@@@++++++++++                                                                                                                                                 ",
"                                                                                                                                  .....####################$$$$$@@@@@++++++++++                                                                                                                                                 ",
"                                                                                                                                  .....####################$$$$$@@@@@++++++++++                                                                                                                                                 ",
"                                                                                                                                  .....####################$$$$$@@@@@++++++++++                                                                                                                                                 ",
"                                                                                                                                       ++++++++++.....+++++@@@@@@@@@@@@@@@@@@@@+++++                                                                                                                                            ",
"                                                                                                                                       ++++++++++.....+++++@@@@@@@@@@@@@@@@@@@@+++++                                                                                                                                            ",
"                                                                                                                                       ++++++++++.....+++++@@@@@@@@@@@@@@@@@@@@+++++                                                                                                                                            ",
"                                                                                                                                       ++++++++++.....+++++@@@@@@@@@@@@@@@@@@@@+++++                                                                                                                                            ",
"                                                                                                                                       ++++++++++.....+++++@@@@@@@@@@@@@@@@@@@@+++++                                                                                                                                            ",
"                                                                                                                                                           +++++@@@@@@@@@@$$$$$#####.....                                                                                                                                       ",
"                                                                                                                                                           +++++@@@@@@@@@@$$$$$#####.....                                                                                                                                       ",
"                                                                                                                                                           +++++@@@@@@@@@@$$$$$#####.....                                                                                                                                       ",
"                                                                                                                                                           +++++@@@@@@@@@@$$$$$#####.....                                                                                                                                       ",
"                                                                                                                                                           +++++@@@@@@@@@@$$$$$#####.....                                                                                                                                       ",
"                                                                                                                                                      +++++@@@@@@@@@@$$$$$@@@@@#####.....                                                                                                                                       ",
"                                                                                                                                                      +++++@@@@@@@@@@$$$$$@@@@@#####.....                                                                                                                                       ",
"                                                                                                                                                      +++++@@@@@@@@@@$$$$$@@@@@#####.....                                                                                                                                       ",
"                                                                                                                                                      +++++@@@@@@@@@@$$$$$@@@@@#####.....                                                                                                                                       ",
"                                                                                                                                                      +++++@@@@@@@@@@$$$$$@@@@@#####.....                                                                                                                                       ",
"                                                                                                                                                      +++++#####$$$$$###############.....                                                                                                                                       ",
"                                                                                                                                                      +++++#####$$$$$###############.....                                                                                                                                       ",
"                                                                                                                                                      +++++#####$$$$$###############.....                                                                                                                                       ",
"                                                                                                                                                      +++++#####$$$$$###############.....                                                                                                                                       ",
"                                                                                                                                                      +++++#####$$$$$###############.....                                                                                                                                       ",
"                                                                                                                                                           +++++##########..........                                                                                                                                            ",
"                                                                                                                                                           +++++##########..........                                                                                                                                            ",
"                                                                                                                                                           +++++##########..........                                                                                                                                            ",
"                                                                                                                                                           +++++##########..........                                                                                                                                            ",
"                                                                                                                                                           +++++##########..........                                                                                                                                            ",
"                                                                                                                                                                ++++++++++                                                                                                                                                      ",
"                                                                                                                                                                ++++++++++                                                                                                                                                      ",
"                                                                                                                                                                ++++++++++                                                                                                                                                      ",
"                                                                                                                                                                ++++++++++                                                                                                                                                      ",
"                                                                                                                                                                ++++++++++                                                                                                                                                      ",
"                                                                                                                                                                                                                                                                                                                                ",
"                                                                                                                                                                                                                                                                                                                                ",
"                                                                                                                                                                                                                                                                                                                                ",
"                                                                                                                                                                                                                                                                                                                                ",
"                                                                                                                                                                                                                                                                                                                                ",
"                                                                                                                                                                                                                                                                                                                                ",
"                                                                                                                                                                                                                                                                                                                                ",
"                                                                                                                                                                                                                                                                                                                                ",
"                                                                                                                                                                                                                                                                                                                                ",
"                                                                                                                                                                                                                                                                                                                                ",
"                                                                                                                                                                                                                                                                                                                                ",
"                                                                                                                                                                                                                                                                                                                                ",
"                                                                                                                                                                                                                                                                                                                                ",
"                                                                                                                                                                                                                                                                                                                                ",
"                                                                                                                                                                                                                                                                                                                                ",
"                                                                                                                                                                                                                                                                                                                                ",
"                                                                                                                                                                                                                                                                                                                                ",
"                                                                                                                                                                                                                                                                                                                                ",
"                                                                                                                                                                                                                                                                                                                                ",
"                                                                                                                                                                                                                                                                                                                                ",
"                                                                                                                                                                                                                                                                                                                                ",
"                                                                                                                                                                                                                                                                                                                                ",
"                                                                                                                                                                                                                                                                                                                                ",
"                                                                                                                                                                                                                                                                                                                                ",
"                                                                                                                                                                                                                                                                                                                                ",
"                                                                                                                                                                                                                                                                                                                                ",
"                                                                                                                                                                                                                                                                                                                                ",
"                                                                                                                                                                                                                                                                                                                                ",
"                                                                                                                                                                                                                                                                                                                                ",
"                                                                                                                                                                                                                                                                                                                                ",
"                                                                                                                                                                                                                                                                                                                                ",
"                                                                                                                                                                                                                                                                                                                                ",
"                                                                                                                                                                                                                                                                                                                                ",
"                                                                                                                                                                                                                                                                                                                                ",
"                                                                                                                                                                                                                                                                                                                                ",
"                                                                                                                                                                                                                                                                                                                                ",
"                                                                                                                                                                                                                                                                                                                                ",
"                                                                                                                                                                                                                                                                                                                                ",
"                                                                                                                                                                                                                                                                                                                                ",
"                                                                                                                                                                                                                                                                                                                                ",
"                                                                                                                                                                                                                                                                                                                                ",
"                                                                                                                                                                                                                                                                                                                                ",
"                                                                                                                                                                                                                                                                                                                                ",
"                                                                                                                                                                                                                                                                                                                                ",
"                                                                                                                                                                                                                                                                                                                                ",
"                                                                                                                                                                                                                                                                                                                                ",
"                                                                                                                                                                                                                                                                                                                                ",
"                                                                                                                                                                                                                                                                                                                                ",
"                                                                                                                                                                                                                                                                                                                                ",
"                                                                                                                                                                                                                                                                                                                                ",
"                                                                                                                                                                                                                                                                                                                                ",
"                                                                                                                                                                                                                                                                                                                                ",
"                                                                                                                                                                                                                                                                                                                                ",
"                                                                                                                                                                                                                                                                                                                                ",
"                                                                                                                                                                                                                                                                                                                                ",
"                                                                                                                                                                                                                                                                                                                                ",
"                                                                                                                                                                                                                                                                                                                                ",
"                                                                                                                                                                                                                                                                                                                                ",
"                                                                                                                                                                                                                                                                                                                                ",
"                                                                                                                                                                                                                                                                                                                                ",
"                                                                                                                                                                                                                                                                                                                                ",
"                                                                                                                                                                                                                                                                                                                                ",
"                                                                                                                                                                                                                                                                                                                                ",
"                                                                                                                                                                                                                                                                                                                                ",
"                                                                                                                                                                                                                                                                                                                                ",
"                                                                                                                                                                                                                                                                                                                                ",
"                                                                                                                                                                                                                                                                                                                                ",
"                                                                                                                                                                                                                                                                                                                                ",
"                                                                                                                                                                                                                                                                                                                                ",
"                                                                                                                                                                                                                                                                                                                                ",
"                                                                                                                                                                                                                                                                                                                                ",
"                                                                                                                                                                                                                                                                                                                                ",
"                                                                                                                                                                                                                                                                                                                                ",
"                                                                                                                                                                                                                                                                                                                                ",
"                                                                                                                                                                                                                                                                                                                                ",
"                                                                                                                                                                                                                                                                                                                                ",
"                                                                                                                                                                                                                                                                                                                                ",
"                                                                                                                                                                                                                                                                                                                                ",
"                                                                                                                                                                                                                                                                                                                                ",
"                                                                                                                                                                                                                                                                                                                                ",
"                                                                                                                                                                                                                                                                                                                                ",
"                                                                                                                                                                                                                                                                                                                                ",
"                                                                                                                                                                                                                                                                                                                                ",
"                                                                                                                                                                                                                                                                                                                                ",
"                                                                                                                                                                                                                                                                                                                                ",
"                                                                                                                                                                                                                                                                                                                                ",
"                                                                                                                                                                                                                                                                                                                                ",
"                                                                                                                                                                                                                                                                                                                                ",
"                                                                                                                                                                                                                                                                                                                                ",
"                                                                                                                                                                                                                                                                                                                                ",
"                                                                                                                                                                                                                                                                                                                                ",
"                                                                                                                                                                                                                                                                                                                                ",
"                                                                                                                                                                                                                                                                                                                                ",
"                                                                                                                                                                                                                                                                                                                                ",
"                                                                                                                                                                                                                                                                                                                                ",
"                                                                                                                                                                                                                                                                                                                                "};
