/* wall_w_sci.xpm */
static const char *wall_w_sci_xpm[] = {
"32 32 5 1",
"  c #BFD6EA",
". c #8898A8",
"+ c #505A66",
"* c #343A44",
"= c #22272F",
"================================",
"================================",
"=+++++++++++++++++++++++++++++= ",
"=+++++++++++++++++++++++++++++= ",
"=+++++++++++++++++++++++++++++= ",
"=+++++++++++++++++++++++++++++= ",
"=+++++++++++++++++++++++++++++= ",
"=+++++++++++++++++++++++++++++= ",
"=+++++++++++++++++++++++++++++= ",
"=+++++++++++++++++++++++++++++= ",
"=+++++++++++++++++++++++++++++= ",
"=+++++++++++++++++++++++++++++= ",
"=+++++++++++++++++++++++++++++= ",
"=+++++++++++++++++++++++++++++= ",
"=+++++++++++++++++++++++++++++= ",
"=+++++++++++++++++++++++++++++= ",
"=+++++++++++++++++++++++++++++= ",
"=+++++++++++++++++++++++++++++= ",
"=+++++++++++++++++++++++++++++= ",
"=+++++++++++++++++++++++++++++= ",
"=+++++++++++++++++++++++++++++= ",
"=+++++++++++++++++++++++++++++= ",
"=+++++++++++++++++++++++++++++= ",
"=+++++++++++++++++++++++++++++= ",
"=+++++++++++++++++++++++++++++= ",
"=+++++++++++++++++++++++++++++= ",
"=+++++++++++++++++++++++++++++= ",
"=+++++++++++++++++++++++++++++= ",
"================================",
"================================",
"================================",
"================================"
};