/* wall_e_sci.xpm */
static const char *wall_e_sci_xpm[] = {
"32 32 5 1",
"  c #22272F",
". c #343A44",
"+ c #505A66",
"* c #8898A8",
"= c #BFD6EA",
"++++++++++++++++++++++++++++++++",
"++++++++++++++++++++++++++++++++",
"+********=====================+",
"+********=====================+",
"+********=====================+",
"+********=====================+",
"+********=====================+",
"+********=====================+",
"+********=====================+",
"+********=====================+",
"+********=====================+",
"+********=====================+",
"+********=====================+",
"+********=====================+",
"+********=====================+",
"+********=====================+",
"+********=====================+",
"+********=====================+",
"+********=====================+",
"+********=====================+",
"+********=====================+",
"+********=====================+",
"+********=====================+",
"+********=====================+",
"+********=====================+",
"+********=====================+",
"+********=====================+",
"+********=====================+",
"+********=====================+",
"+********=====================+",
"++++++++++++++++++++++++++++++++",
"++++++++++++++++++++++++++++++++"
};