/* wall_s_sci.xpm */
static const char *wall_s_sci_xpm[] = {
"32 32 7 1",
"  c #1F242B",
". c #30363F",
"+ c #4A5461",
"* c #6F7E8E",
"= c #9EB7CC",
"- c #B8D8EE",
"~ c #00A0FF",
"++++++++++++++++++++++++++++++++",
"++++++++++++++++++++++++++++++++",
"++********====********====*****+",
"++********====********====*****+",
"++********====********====*****+",
"++********====********====*****+",
"++++++++++++++++++++++++++++++++",
"++++++++++++++++++++++++++++++++",
"++~~~~~~~~----~~~~~~~~----~~~~~+",
"++~~~~~~~~----~~~~~~~~----~~~~~+",
"++~~~~~~~~----~~~~~~~~----~~~~~+",
"++~~~~~~~~----~~~~~~~~----~~~~~+",
"++++++++++++++++++++++++++++++++",
"++++++++++++++++++++++++++++++++",
"++********====********====*****+",
"++********====********====*****+",
"++********====********====*****+",
"++********====********====*****+",
"++++++++++++++++++++++++++++++++",
"++++++++++++++++++++++++++++++++",
"++~~~~~~~~----~~~~~~~~----~~~~~+",
"++~~~~~~~~----~~~~~~~~----~~~~~+",
"++~~~~~~~~----~~~~~~~~----~~~~~+",
"++~~~~~~~~----~~~~~~~~----~~~~~+",
"++++++++++++++++++++++++++++++++",
"++++++++++++++++++++++++++++++++",
"++********====********====*****+",
"++********====********====*****+",
"++********====********====*****+",
"++********====********====*****+",
"++++++++++++++++++++++++++++++++",
"++++++++++++++++++++++++++++++++"
};