/* wall_n_sci.xpm */
static const char *wall_n_sci_xpm[] = {
"32 32 6 1",
"  c #1E2228",
". c #2F343C",
"+ c #49525C",
"* c #6C7A88",
"= c #9BB0C4",
"- c #000000",
"................................",
"................................",
"..++++++==++++++==++++++==++++..",
"..++++++==++++++==++++++==++++..",
"..++++++==++++++==++++++==++++..",
"..++++++==++++++==++++++==++++..",
"..****************************..",
"..****************************..",
"..********--------------****..",
"..********--------------****..",
"..********--------------****..",
"..********--------------****..",
"..****************************..",
"..****************************..",
"..++++++==++++++==++++++==++++..",
"..++++++==++++++==++++++==++++..",
"..++++++==++++++==++++++==++++..",
"..++++++==++++++==++++++==++++..",
"..****************************..",
"..****************************..",
"..********--------------****..",
"..********--------------****..",
"..********--------------****..",
"..********--------------****..",
"..****************************..",
"..****************************..",
"..++++++==++++++==++++++==++++..",
"..++++++==++++++==++++++==++++..",
"..++++++==++++++==++++++==++++..",
"..++++++==++++++==++++++==++++..",
"................................",
"................................"
};